%
(AllCarbonLegs)
(T1 D=1.587 CR=0 - ZMIN=-4.5 - flat end mill)
G90
G17
G21
G28 G91 Z0
G90

(Bore1)
T1 M6
S10000 M3
G17 G90
G54
G0 X47.426 Y-107.801
Z15
G0 Z1
G1 Z-0.841 F400
X47.434 Z-0.89
X47.456 Z-0.935
X47.492 Z-0.97
X47.536 Z-0.992
X47.585 Z-1
X47.664
X47.713 Y-107.794
X47.758 Y-107.771
X47.793 Y-107.736
X47.815 Y-107.692
X47.823 Y-107.643
G3 X46.411 Z-1.211 I-0.706 J0
X47.823 Z-1.422 I0.706 J0
X46.411 Z-1.632 I-0.706 J0
X47.823 Z-1.843 I0.706 J0
X46.411 Z-2.054 I-0.706 J0
X47.823 Z-2.265 I0.706 J0
X46.411 Z-2.476 I-0.706 J0
X47.823 Z-2.686 I0.706 J0
X46.411 Z-2.897 I-0.706 J0
X47.823 Z-3.108 I0.706 J0
X46.411 Z-3.319 I-0.706 J0
X47.823 Z-3.53 I0.706 J0
X46.411 Z-3.741 I-0.706 J0
X47.823 Z-3.951 I0.706 J0
X46.411 Z-4.162 I-0.706 J0
X47.823 Z-4.373 I0.706 J0
X46.893 Y-106.973 Z-4.5 I-0.706 J0
X47.341 Y-108.313 I0.224 J-0.67
X46.893 Y-106.973 I-0.224 J0.67
G1 X46.849 Y-106.996
X46.814 Y-107.031
X46.792 Y-107.075
X46.785 Y-107.125
X46.793 Y-107.174
X46.818 Y-107.249
X46.834 Y-107.295 Z-4.492
X46.848 Y-107.337 Z-4.47
X46.859 Y-107.371 Z-4.435
X46.866 Y-107.392 Z-4.39
X46.868 Y-107.399 Z-4.341
G0 Z5
X47.426 Y-114.801
Z1
G1 Z-0.841 F400
X47.434 Z-0.89
X47.456 Z-0.935
X47.492 Z-0.97
X47.536 Z-0.992
X47.585 Z-1
X47.664
X47.713 Y-114.794
X47.758 Y-114.771
X47.793 Y-114.736
X47.815 Y-114.692
X47.823 Y-114.643
G3 X46.411 Z-1.211 I-0.706 J0
X47.823 Z-1.422 I0.706 J0
X46.411 Z-1.632 I-0.706 J0
X47.823 Z-1.843 I0.706 J0
X46.411 Z-2.054 I-0.706 J0
X47.823 Z-2.265 I0.706 J0
X46.411 Z-2.476 I-0.706 J0
X47.823 Z-2.686 I0.706 J0
X46.411 Z-2.897 I-0.706 J0
X47.823 Z-3.108 I0.706 J0
X46.411 Z-3.319 I-0.706 J0
X47.823 Z-3.53 I0.706 J0
X46.411 Z-3.741 I-0.706 J0
X47.823 Z-3.951 I0.706 J0
X46.411 Z-4.162 I-0.706 J0
X47.823 Z-4.373 I0.706 J0
X46.893 Y-113.973 Z-4.5 I-0.706 J0
X47.341 Y-115.313 I0.224 J-0.67
X46.893 Y-113.973 I-0.224 J0.67
G1 X46.849 Y-113.996
X46.814 Y-114.031
X46.792 Y-114.075
X46.785 Y-114.125
X46.793 Y-114.174
X46.818 Y-114.249
X46.834 Y-114.295 Z-4.492
X46.848 Y-114.337 Z-4.47
X46.859 Y-114.371 Z-4.435
X46.866 Y-114.392 Z-4.39
X46.868 Y-114.399 Z-4.341
G0 Z5
X61.751 Y-118.219
Z1
G1 Z-0.841 F400
X61.759 Z-0.89
X61.781 Z-0.935
X61.816 Z-0.97
X61.861 Z-0.992
X61.91 Z-1
X61.989
X62.038 Y-118.211
X62.082 Y-118.189
X62.118 Y-118.154
X62.14 Y-118.109
X62.148 Y-118.06
G3 X60.736 Z-1.211 I-0.706 J0
X62.148 Z-1.422 I0.706 J0
X60.736 Z-1.632 I-0.706 J0
X62.148 Z-1.843 I0.706 J0
X60.736 Z-2.054 I-0.706 J0
X62.148 Z-2.265 I0.706 J0
X60.736 Z-2.476 I-0.706 J0
X62.148 Z-2.686 I0.706 J0
X60.736 Z-2.897 I-0.706 J0
X62.148 Z-3.108 I0.706 J0
X60.736 Z-3.319 I-0.706 J0
X62.148 Z-3.53 I0.706 J0
X60.736 Z-3.741 I-0.706 J0
X62.148 Z-3.951 I0.706 J0
X60.736 Z-4.162 I-0.706 J0
X62.148 Z-4.373 I0.706 J0
X61.218 Y-117.39 Z-4.5 I-0.706 J0
X61.665 Y-118.73 I0.224 J-0.67
X61.218 Y-117.39 I-0.223 J0.67
G1 X61.174 Y-117.413
X61.139 Y-117.449
X61.117 Y-117.493
X61.11 Y-117.542
X61.118 Y-117.591
X61.143 Y-117.667
X61.158 Y-117.713 Z-4.492
X61.172 Y-117.755 Z-4.47
X61.184 Y-117.788 Z-4.435
X61.191 Y-117.81 Z-4.39
X61.193 Y-117.817 Z-4.341
G0 Z5
X61.751 Y-125.219
Z1
G1 Z-0.841 F400
X61.759 Z-0.89
X61.781 Z-0.935
X61.816 Z-0.97
X61.861 Z-0.992
X61.91 Z-1
X61.989
X62.038 Y-125.211
X62.082 Y-125.189
X62.118 Y-125.154
X62.14 Y-125.109
X62.148 Y-125.06
G3 X60.736 Z-1.211 I-0.706 J0
X62.148 Z-1.422 I0.706 J0
X60.736 Z-1.632 I-0.706 J0
X62.148 Z-1.843 I0.706 J0
X60.736 Z-2.054 I-0.706 J0
X62.148 Z-2.265 I0.706 J0
X60.736 Z-2.476 I-0.706 J0
X62.148 Z-2.686 I0.706 J0
X60.736 Z-2.897 I-0.706 J0
X62.148 Z-3.108 I0.706 J0
X60.736 Z-3.319 I-0.706 J0
X62.148 Z-3.53 I0.706 J0
X60.736 Z-3.741 I-0.706 J0
X62.148 Z-3.951 I0.706 J0
X60.736 Z-4.162 I-0.706 J0
X62.148 Z-4.373 I0.706 J0
X61.218 Y-124.39 Z-4.5 I-0.706 J0
X61.665 Y-125.73 I0.224 J-0.67
X61.218 Y-124.39 I-0.223 J0.67
G1 X61.174 Y-124.413
X61.139 Y-124.449
X61.117 Y-124.493
X61.11 Y-124.542
X61.118 Y-124.591
X61.143 Y-124.667
X61.158 Y-124.713 Z-4.492
X61.172 Y-124.755 Z-4.47
X61.184 Y-124.788 Z-4.435
X61.191 Y-124.81 Z-4.39
X61.193 Y-124.817 Z-4.341
G0 Z5
X60.744 Y-139.418
Z1
G1 Z-0.841 F400
X60.736 Z-0.89
X60.714 Z-0.935
X60.679 Z-0.97
X60.635 Z-0.992
X60.586 Z-1
X60.506
X60.457 Y-139.426
X60.413 Y-139.449
X60.378 Y-139.484
X60.355 Y-139.528
X60.347 Y-139.577
G3 X61.761 Z-1.211 I0.707 J0
X60.347 Z-1.422 I-0.707 J0
X61.761 Z-1.632 I0.707 J0
X60.347 Z-1.843 I-0.707 J0
X61.761 Z-2.054 I0.707 J0
X60.347 Z-2.265 I-0.707 J0
X61.761 Z-2.476 I0.707 J0
X60.347 Z-2.686 I-0.707 J0
X61.761 Z-2.897 I0.707 J0
X60.347 Z-3.108 I-0.707 J0
X61.761 Z-3.319 I0.707 J0
X60.347 Z-3.53 I-0.707 J0
X61.761 Z-3.741 I0.707 J0
X60.347 Z-3.951 I-0.707 J0
X61.761 Z-4.162 I0.707 J0
X60.347 Z-4.373 I-0.707 J0
X61.277 Y-140.248 Z-4.5 I0.707 J0
X60.83 Y-138.906 I-0.223 J0.671
X61.278 Y-140.248 I0.224 J-0.671
G1 X61.321 Y-140.224
X61.356 Y-140.189
X61.378 Y-140.144
X61.386 Y-140.095
X61.378 Y-140.046
X61.352 Y-139.971
X61.337 Y-139.924 Z-4.492
X61.323 Y-139.882 Z-4.47
X61.312 Y-139.849 Z-4.435
X61.305 Y-139.828 Z-4.39
X61.302 Y-139.82 Z-4.341
G0 Z5
X60.744 Y-146.418
Z1
G1 Z-0.841 F400
X60.736 Z-0.89
X60.714 Z-0.935
X60.679 Z-0.97
X60.635 Z-0.992
X60.586 Z-1
X60.506
X60.457 Y-146.426
X60.413 Y-146.449
X60.378 Y-146.484
X60.355 Y-146.528
X60.347 Y-146.577
G3 X61.761 Z-1.211 I0.707 J0
X60.347 Z-1.422 I-0.707 J0
X61.761 Z-1.632 I0.707 J0
X60.347 Z-1.843 I-0.707 J0
X61.761 Z-2.054 I0.707 J0
X60.347 Z-2.265 I-0.707 J0
X61.761 Z-2.476 I0.707 J0
X60.347 Z-2.686 I-0.707 J0
X61.761 Z-2.897 I0.707 J0
X60.347 Z-3.108 I-0.707 J0
X61.761 Z-3.319 I0.707 J0
X60.347 Z-3.53 I-0.707 J0
X61.761 Z-3.741 I0.707 J0
X60.347 Z-3.951 I-0.707 J0
X61.761 Z-4.162 I0.707 J0
X60.347 Z-4.373 I-0.707 J0
X61.277 Y-147.248 Z-4.5 I0.707 J0
X60.83 Y-145.906 I-0.223 J0.671
X61.278 Y-147.248 I0.224 J-0.671
G1 X61.321 Y-147.224
X61.356 Y-147.189
X61.378 Y-147.144
X61.386 Y-147.095
X61.378 Y-147.046
X61.352 Y-146.971
X61.337 Y-146.924 Z-4.492
X61.323 Y-146.882 Z-4.47
X61.312 Y-146.849 Z-4.435
X61.305 Y-146.828 Z-4.39
X61.302 Y-146.82 Z-4.341
G0 Z5
X45.382 Y-144.594
Z1
G1 Z-0.841 F400
X45.374 Z-0.89
X45.352 Z-0.935
X45.317 Z-0.97
X45.272 Z-0.992
X45.223 Z-1
X45.144
X45.095 Y-144.601
X45.051 Y-144.624
X45.015 Y-144.659
X44.993 Y-144.703
X44.985 Y-144.752
G3 X46.397 Z-1.211 I0.706 J0
X44.985 Z-1.422 I-0.706 J0
X46.397 Z-1.632 I0.706 J0
X44.985 Z-1.843 I-0.706 J0
X46.397 Z-2.054 I0.706 J0
X44.985 Z-2.265 I-0.706 J0
X46.397 Z-2.476 I0.706 J0
X44.985 Z-2.686 I-0.706 J0
X46.397 Z-2.897 I0.706 J0
X44.985 Z-3.108 I-0.706 J0
X46.397 Z-3.319 I0.706 J0
X44.985 Z-3.53 I-0.706 J0
X46.397 Z-3.741 I0.706 J0
X44.985 Z-3.951 I-0.706 J0
X46.397 Z-4.162 I0.706 J0
X44.985 Z-4.373 I-0.706 J0
X45.915 Y-145.422 Z-4.5 I0.706 J0
X45.468 Y-144.082 I-0.224 J0.67
X45.915 Y-145.422 I0.223 J-0.67
G1 X45.959 Y-145.399
X45.994 Y-145.364
X46.016 Y-145.32
X46.023 Y-145.27
X46.015 Y-145.221
X45.99 Y-145.146
X45.975 Y-145.1 Z-4.492
X45.961 Y-145.058 Z-4.47
X45.949 Y-145.024 Z-4.435
X45.942 Y-145.003 Z-4.39
X45.94 Y-144.996 Z-4.341
G0 Z5
X45.382 Y-137.594
Z1
G1 Z-0.841 F400
X45.374 Z-0.89
X45.352 Z-0.935
X45.317 Z-0.97
X45.272 Z-0.992
X45.223 Z-1
X45.144
X45.095 Y-137.601
X45.051 Y-137.624
X45.015 Y-137.659
X44.993 Y-137.703
X44.985 Y-137.752
G3 X46.397 Z-1.211 I0.706 J0
X44.985 Z-1.422 I-0.706 J0
X46.397 Z-1.632 I0.706 J0
X44.985 Z-1.843 I-0.706 J0
X46.397 Z-2.054 I0.706 J0
X44.985 Z-2.265 I-0.706 J0
X46.397 Z-2.476 I0.706 J0
X44.985 Z-2.686 I-0.706 J0
X46.397 Z-2.897 I0.706 J0
X44.985 Z-3.108 I-0.706 J0
X46.397 Z-3.319 I0.706 J0
X44.985 Z-3.53 I-0.706 J0
X46.397 Z-3.741 I0.706 J0
X44.985 Z-3.951 I-0.706 J0
X46.397 Z-4.162 I0.706 J0
X44.985 Z-4.373 I-0.706 J0
X45.915 Y-138.422 Z-4.5 I0.706 J0
X45.468 Y-137.082 I-0.224 J0.67
X45.915 Y-138.422 I0.223 J-0.67
G1 X45.959 Y-138.399
X45.994 Y-138.364
X46.016 Y-138.32
X46.023 Y-138.27
X46.015 Y-138.221
X45.99 Y-138.146
X45.975 Y-138.1 Z-4.492
X45.961 Y-138.058 Z-4.47
X45.949 Y-138.024 Z-4.435
X45.942 Y-138.003 Z-4.39
X45.94 Y-137.996 Z-4.341
G0 Z5
X60.644 Y-179.088
Z1
G1 Z-0.841 F400
X60.636 Z-0.89
X60.614 Z-0.935
X60.579 Z-0.97
X60.535 Z-0.992
X60.486 Z-1
X60.406
X60.357 Y-179.096
X60.313 Y-179.119
X60.278 Y-179.154
X60.255 Y-179.198
X60.247 Y-179.247
G3 X61.861 Z-1.225 I0.807 J0
X60.247 Z-1.45 I-0.807 J0
X61.861 Z-1.675 I0.807 J0
X60.247 Z-1.899 I-0.807 J0
X61.861 Z-2.124 I0.807 J0
X60.247 Z-2.349 I-0.807 J0
X61.861 Z-2.574 I0.807 J0
X60.247 Z-2.799 I-0.807 J0
X61.861 Z-3.024 I0.807 J0
X60.247 Z-3.249 I-0.807 J0
X61.861 Z-3.474 I0.807 J0
X60.247 Z-3.698 I-0.807 J0
X61.861 Z-3.923 I0.807 J0
X60.247 Z-4.148 I-0.807 J0
X61.861 Z-4.373 I0.807 J0
X60.89 Y-178.457 Z-4.5 I-0.807 J0
X61.217 Y-180.037 I0.164 J-0.79
X60.89 Y-178.457 I-0.163 J0.79
G1 X60.844 Y-178.475
X60.805 Y-178.506
X60.778 Y-178.548
X60.765 Y-178.595
X60.767 Y-178.645
X60.783 Y-178.723
X60.793 Y-178.771 Z-4.492
X60.802 Y-178.814 Z-4.47
X60.809 Y-178.849 Z-4.435
X60.814 Y-178.871 Z-4.39
X60.815 Y-178.878 Z-4.341
G0 Z5
X45.282 Y-177.264
Z1
G1 Z-0.841 F400
X45.274 Z-0.89
X45.252 Z-0.935
X45.217 Z-0.97
X45.172 Z-0.992
X45.123 Z-1
X45.044
X44.995 Y-177.271
X44.951 Y-177.294
X44.915 Y-177.329
X44.893 Y-177.373
X44.885 Y-177.422
G3 X46.497 Z-1.225 I0.806 J0
X44.885 Z-1.45 I-0.806 J0
X46.497 Z-1.675 I0.806 J0
X44.885 Z-1.899 I-0.806 J0
X46.497 Z-2.124 I0.806 J0
X44.885 Z-2.349 I-0.806 J0
X46.497 Z-2.574 I0.806 J0
X44.885 Z-2.799 I-0.806 J0
X46.497 Z-3.024 I0.806 J0
X44.885 Z-3.249 I-0.806 J0
X46.497 Z-3.474 I0.806 J0
X44.885 Z-3.698 I-0.806 J0
X46.497 Z-3.923 I0.806 J0
X44.885 Z-4.148 I-0.806 J0
X46.497 Z-4.373 I0.806 J0
X45.528 Y-176.633 Z-4.5 I-0.806 J0
X45.854 Y-178.211 I0.163 J-0.789
X45.528 Y-176.633 I-0.163 J0.789
G1 X45.482 Y-176.65
X45.443 Y-176.681
X45.416 Y-176.723
X45.403 Y-176.771
X45.405 Y-176.82
X45.421 Y-176.898
X45.431 Y-176.946 Z-4.492
X45.44 Y-176.99 Z-4.47
X45.447 Y-177.024 Z-4.435
X45.451 Y-177.046 Z-4.39
X45.453 Y-177.054 Z-4.341
G0 Z5
X31.359 Y-187.555
Z1
G1 Z-0.841 F400
X31.367 Z-0.89
X31.39 Z-0.935
X31.425 Z-0.97
X31.469 Z-0.992
X31.518 Z-1
X31.597
X31.647 Y-187.547
X31.691 Y-187.525
X31.726 Y-187.49
X31.748 Y-187.446
X31.756 Y-187.397
G3 X30.244 Z-1.218 I-0.756 J0
X31.756 Z-1.436 I0.756 J0
X30.244 Z-1.654 I-0.756 J0
X31.756 Z-1.871 I0.756 J0
X30.244 Z-2.089 I-0.756 J0
X31.756 Z-2.307 I0.756 J0
X30.244 Z-2.525 I-0.756 J0
X31.756 Z-2.743 I0.756 J0
X30.244 Z-2.961 I-0.756 J0
X31.756 Z-3.178 I0.756 J0
X30.244 Z-3.396 I-0.756 J0
X31.756 Z-3.614 I0.756 J0
X30.244 Z-3.832 I-0.756 J0
X31.756 Z-4.05 I0.756 J0
X30.244 Z-4.268 I-0.756 J0
X31.079 Y-188.149 Z-4.384 I0.756 J0
X31.739 Y-187.239 Z-4.5 I-0.079 J0.752
X30.261 Y-187.554 I-0.739 J-0.158
X31.739 Y-187.239 I0.739 J0.157
G1 X31.722 Y-187.192
X31.69 Y-187.154
X31.649 Y-187.127
X31.601 Y-187.114
X31.551 Y-187.116
X31.474 Y-187.133
X31.426 Y-187.143 Z-4.492
X31.382 Y-187.153 Z-4.47
X31.348 Y-187.16 Z-4.435
X31.326 Y-187.165 Z-4.39
X31.318 Y-187.166 Z-4.341
G0 Z5
X6.359 Y-187.555
Z1
G1 Z-0.841 F400
X6.367 Z-0.89
X6.39 Z-0.935
X6.425 Z-0.97
X6.469 Z-0.992
X6.518 Z-1
X6.597
X6.647 Y-187.547
X6.691 Y-187.525
X6.726 Y-187.49
X6.748 Y-187.446
X6.756 Y-187.397
G3 X5.244 Z-1.218 I-0.756 J0
X6.756 Z-1.436 I0.756 J0
X5.244 Z-1.654 I-0.756 J0
X6.756 Z-1.871 I0.756 J0
X5.244 Z-2.089 I-0.756 J0
X6.756 Z-2.307 I0.756 J0
X5.244 Z-2.525 I-0.756 J0
X6.756 Z-2.743 I0.756 J0
X5.244 Z-2.961 I-0.756 J0
X6.756 Z-3.178 I0.756 J0
X5.244 Z-3.396 I-0.756 J0
X6.756 Z-3.614 I0.756 J0
X5.244 Z-3.832 I-0.756 J0
X6.756 Z-4.05 I0.756 J0
X5.244 Z-4.268 I-0.756 J0
X6.079 Y-188.149 Z-4.384 I0.756 J0
X6.739 Y-187.239 Z-4.5 I-0.079 J0.752
X5.261 Y-187.554 I-0.739 J-0.158
X6.739 Y-187.239 I0.739 J0.157
G1 X6.722 Y-187.192
X6.69 Y-187.154
X6.649 Y-187.127
X6.601 Y-187.114
X6.551 Y-187.116
X6.474 Y-187.133
X6.426 Y-187.143 Z-4.492
X6.382 Y-187.153 Z-4.47
X6.348 Y-187.16 Z-4.435
X6.326 Y-187.165 Z-4.39
X6.318 Y-187.166 Z-4.341
G0 Z15

(2D Contour1)
G0 X64.706 Y-89.55
Z15
Z5
G1 Z0.317 F133.33
Z-1.091
X64.711 Y-89.556 Z-1.14 F400
X64.725 Y-89.573 Z-1.185
X64.748 Y-89.601 Z-1.22
X64.776 Y-89.635 Z-1.242
X64.807 Y-89.673 Z-1.25
X64.907 Y-89.796
X64.944 Y-89.829
X64.989 Y-89.849
X65.039 Y-89.854
X65.087 Y-89.843
X65.13 Y-89.818
G2 X66.361 Y-88.873 I16.312 J-19.982
G1 X164.228 Y-18.35
G2 X165.486 Y-18.994 I0.464 J-0.644
G1 Y-31.32
G2 X165.156 Y-31.964 I-0.794 J0
G1 X77.29 Y-95.281
G3 X67.235 Y-114.92 I14.152 J-19.639
G1 Y-128.06
G2 X66.442 Y-128.853 I-0.793 J0
G1 X56.442 Y-128.854
G2 X55.648 Y-128.06 I0 J0.794
G1 Y-109.8
G2 X65.13 Y-89.818 I25.794 J0
G1 X65.163 Y-89.781
X65.183 Y-89.736
X65.188 Y-89.687
X65.178 Y-89.638
X65.153 Y-89.595
X65.053 Y-89.472
X65.022 Y-89.434 Z-1.242
X64.994 Y-89.4 Z-1.22
X64.971 Y-89.373 Z-1.185
X64.957 Y-89.355 Z-1.14
X64.952 Y-89.349 Z-1.091
G0 Z5
X64.706 Y-89.55
G1 Z-0.933 F133.33
Z-2.341
X64.711 Y-89.556 Z-2.39 F400
X64.725 Y-89.573 Z-2.435
X64.748 Y-89.601 Z-2.47
X64.776 Y-89.635 Z-2.492
X64.807 Y-89.673 Z-2.5
X64.907 Y-89.796
X64.944 Y-89.829
X64.989 Y-89.849
X65.039 Y-89.854
X65.087 Y-89.843
X65.13 Y-89.818
G2 X66.361 Y-88.873 I16.312 J-19.982
G1 X164.228 Y-18.35
G2 X165.486 Y-18.994 I0.464 J-0.644
G1 Y-31.32
G2 X165.156 Y-31.964 I-0.794 J0
G1 X77.29 Y-95.281
G3 X67.235 Y-114.92 I14.152 J-19.639
G1 Y-128.06
G2 X66.442 Y-128.853 I-0.793 J0
G1 X56.442 Y-128.854
G2 X55.648 Y-128.06 I0 J0.794
G1 Y-109.8
G2 X65.13 Y-89.818 I25.794 J0
G1 X65.163 Y-89.781
X65.183 Y-89.736
X65.188 Y-89.687
X65.178 Y-89.638
X65.153 Y-89.595
X65.053 Y-89.472
X65.022 Y-89.434 Z-2.492
X64.994 Y-89.4 Z-2.47
X64.971 Y-89.373 Z-2.435
X64.957 Y-89.355 Z-2.39
X64.952 Y-89.349 Z-2.341
G0 Z5
X64.706 Y-89.55
G1 Z-2.182 F133.33
Z-3.591
X64.711 Y-89.556 Z-3.64 F400
X64.725 Y-89.573 Z-3.685
X64.748 Y-89.601 Z-3.72
X64.776 Y-89.635 Z-3.742
X64.807 Y-89.673 Z-3.75
X64.907 Y-89.796
X64.944 Y-89.829
X64.989 Y-89.849
X65.039 Y-89.854
X65.087 Y-89.843
X65.13 Y-89.818
G2 X66.361 Y-88.873 I16.312 J-19.982
G1 X72.077 Y-84.755
Z-3.5
X75.799 Y-82.073
Z-3.75 F133.33
X125.619 Y-46.172 F400
Z-3.5
X129.341 Y-43.49
Z-3.75 F133.33
X164.228 Y-18.35 F400
G2 X165.486 Y-18.994 I0.464 J-0.644
G1 Y-31.32
G2 X165.156 Y-31.964 I-0.794 J0
G1 X160.222 Y-35.519
Z-3.5
X156.5 Y-38.201
Z-3.75 F133.33
X106.68 Y-74.102 F400
Z-3.5
X102.958 Y-76.784
Z-3.75 F133.33
X77.29 Y-95.281 F400
G3 X67.235 Y-114.92 I14.152 J-19.639
G1 Y-121.029
Z-3.5
Y-125.617
Z-3.75 F133.33
Y-128.06 F400
G2 X66.442 Y-128.853 I-0.793 J0
G1 X56.442 Y-128.854
G2 X55.648 Y-128.06 I0 J0.794
G1 Y-109.8
G2 X65.13 Y-89.818 I25.794 J0
G1 X65.163 Y-89.781
X65.183 Y-89.736
X65.188 Y-89.687
X65.178 Y-89.638
X65.153 Y-89.595
X65.053 Y-89.472
X65.022 Y-89.434 Z-3.742
X64.994 Y-89.4 Z-3.72
X64.971 Y-89.373 Z-3.685
X64.957 Y-89.355 Z-3.64
X64.952 Y-89.349 Z-3.591
G0 Z5
X64.706 Y-89.55
G1 Z-3.432 F133.33
Z-4.341
X64.711 Y-89.556 Z-4.39 F400
X64.725 Y-89.573 Z-4.435
X64.748 Y-89.601 Z-4.47
X64.776 Y-89.635 Z-4.492
X64.807 Y-89.673 Z-4.5
X64.907 Y-89.796
X64.944 Y-89.829
X64.989 Y-89.849
X65.039 Y-89.854
X65.087 Y-89.843
X65.13 Y-89.818
G2 X66.361 Y-88.873 I16.312 J-19.982
G1 X72.077 Y-84.755
Z-3.5
X75.799 Y-82.073
Z-4.5 F133.33
X125.619 Y-46.172 F400
Z-3.5
X129.341 Y-43.49
Z-4.5 F133.33
X164.228 Y-18.35 F400
G2 X165.486 Y-18.994 I0.464 J-0.644
G1 Y-31.32
G2 X165.156 Y-31.964 I-0.794 J0
G1 X160.222 Y-35.519
Z-3.5
X156.5 Y-38.201
Z-4.5 F133.33
X106.68 Y-74.102 F400
Z-3.5
X102.958 Y-76.784
Z-4.5 F133.33
X77.29 Y-95.281 F400
G3 X67.235 Y-114.92 I14.152 J-19.639
G1 Y-121.029
Z-3.5
Y-125.617
Z-4.5 F133.33
Y-128.06 F400
G2 X66.442 Y-128.853 I-0.793 J0
G1 X56.442 Y-128.854
G2 X55.648 Y-128.06 I0 J0.794
G1 Y-109.8
G2 X65.13 Y-89.818 I25.794 J0
G1 X65.163 Y-89.781
X65.183 Y-89.736
X65.188 Y-89.687
X65.178 Y-89.638
X65.153 Y-89.595
X65.053 Y-89.472
X65.022 Y-89.434 Z-4.492
X64.994 Y-89.4 Z-4.47
X64.971 Y-89.373 Z-4.435
X64.957 Y-89.355 Z-4.39
X64.952 Y-89.349 Z-4.341
G0 Z5
X62.233 Y-86.019
G1 Z0.317 F133.33
Z-1.091
X62.229 Y-86.013 Z-1.14 F400
X62.214 Y-85.995 Z-1.185
X62.192 Y-85.968 Z-1.22
X62.164 Y-85.934 Z-1.242
X62.133 Y-85.896 Z-1.25
X62.033 Y-85.773
X61.996 Y-85.74
X61.95 Y-85.72
X61.901 Y-85.715
X61.852 Y-85.725
X61.809 Y-85.75
G3 X52.91 Y-104.502 I15.308 J-18.752
G1 X52.911 Y-109.8
Y-117.643
G2 X52.117 Y-118.437 I-0.794 J0
G1 X42.117
G2 X41.323 Y-117.643 I0 J0.794
G1 Y-99.382
G2 X52.037 Y-78.456 I25.794 J0
G1 X149.903 Y-7.932
G2 X151.161 Y-8.576 I0.464 J-0.644
G1 Y-20.902
G2 X150.831 Y-21.546 I-0.794 J0
G1 X62.965 Y-84.863
G3 X61.809 Y-85.75 I14.152 J-19.639
G1 X61.776 Y-85.787
X61.756 Y-85.833
X61.751 Y-85.882
X61.762 Y-85.931
X61.787 Y-85.974
X61.887 Y-86.097
X61.918 Y-86.135 Z-1.242
X61.946 Y-86.169 Z-1.22
X61.968 Y-86.196 Z-1.185
X61.983 Y-86.214 Z-1.14
X61.988 Y-86.22 Z-1.091
G0 Z5
X62.233 Y-86.019
G1 Z-0.933 F133.33
Z-2.341
X62.229 Y-86.013 Z-2.39 F400
X62.214 Y-85.995 Z-2.435
X62.192 Y-85.968 Z-2.47
X62.164 Y-85.934 Z-2.492
X62.133 Y-85.896 Z-2.5
X62.033 Y-85.773
X61.996 Y-85.74
X61.95 Y-85.72
X61.901 Y-85.715
X61.852 Y-85.725
X61.809 Y-85.75
G3 X52.91 Y-104.502 I15.308 J-18.752
G1 X52.911 Y-109.8
Y-117.643
G2 X52.117 Y-118.437 I-0.794 J0
G1 X42.117
G2 X41.323 Y-117.643 I0 J0.794
G1 Y-99.382
G2 X52.037 Y-78.456 I25.794 J0
G1 X149.903 Y-7.932
G2 X151.161 Y-8.576 I0.464 J-0.644
G1 Y-20.902
G2 X150.831 Y-21.546 I-0.794 J0
G1 X62.965 Y-84.863
G3 X61.809 Y-85.75 I14.152 J-19.639
G1 X61.776 Y-85.787
X61.756 Y-85.833
X61.751 Y-85.882
X61.762 Y-85.931
X61.787 Y-85.974
X61.887 Y-86.097
X61.918 Y-86.135 Z-2.492
X61.946 Y-86.169 Z-2.47
X61.968 Y-86.196 Z-2.435
X61.983 Y-86.214 Z-2.39
X61.988 Y-86.22 Z-2.341
G0 Z5
X62.233 Y-86.019
G1 Z-2.182 F133.33
Z-3.591
X62.229 Y-86.013 Z-3.64 F400
X62.214 Y-85.995 Z-3.685
X62.192 Y-85.968 Z-3.72
X62.164 Y-85.934 Z-3.742
X62.133 Y-85.896 Z-3.75
X62.033 Y-85.773
X61.996 Y-85.74
X61.95 Y-85.72
X61.901 Y-85.715
X61.852 Y-85.725
X61.809 Y-85.75
G3 X52.91 Y-104.502 I15.308 J-18.752
G1 X52.911 Y-110.611
Z-3.5
Y-115.199
Z-3.75 F133.33
Y-117.643 F400
G2 X52.117 Y-118.437 I-0.794 J0
G1 X42.117
G2 X41.323 Y-117.643 I0 J0.794
G1 Y-99.382
G2 X52.037 Y-78.456 I25.794 J0
G1 X57.752 Y-74.337
Z-3.5
X61.474 Y-71.655
Z-3.75 F133.33
X111.294 Y-35.754 F400
Z-3.5
X115.016 Y-33.072
Z-3.75 F133.33
X149.903 Y-7.932 F400
G2 X151.161 Y-8.576 I0.464 J-0.644
G1 Y-20.902
G2 X150.831 Y-21.546 I-0.794 J0
G1 X145.897 Y-25.101
Z-3.5
X142.175 Y-27.783
Z-3.75 F133.33
X92.356 Y-63.684 F400
Z-3.5
X88.634 Y-66.366
Z-3.75 F133.33
X62.965 Y-84.863 F400
G3 X61.809 Y-85.75 I14.152 J-19.639
G1 X61.776 Y-85.787
X61.756 Y-85.833
X61.751 Y-85.882
X61.762 Y-85.931
X61.787 Y-85.974
X61.887 Y-86.097
X61.918 Y-86.135 Z-3.742
X61.946 Y-86.169 Z-3.72
X61.968 Y-86.196 Z-3.685
X61.983 Y-86.214 Z-3.64
X61.988 Y-86.22 Z-3.591
G0 Z5
X62.233 Y-86.019
G1 Z-3.432 F133.33
Z-4.341
X62.229 Y-86.013 Z-4.39 F400
X62.214 Y-85.995 Z-4.435
X62.192 Y-85.968 Z-4.47
X62.164 Y-85.934 Z-4.492
X62.133 Y-85.896 Z-4.5
X62.033 Y-85.773
X61.996 Y-85.74
X61.95 Y-85.72
X61.901 Y-85.715
X61.852 Y-85.725
X61.809 Y-85.75
G3 X52.91 Y-104.502 I15.308 J-18.752
G1 X52.911 Y-110.611
Z-3.5
Y-115.199
Z-4.5 F133.33
Y-117.643 F400
G2 X52.117 Y-118.437 I-0.794 J0
G1 X42.117
G2 X41.323 Y-117.643 I0 J0.794
G1 Y-99.382
G2 X52.037 Y-78.456 I25.794 J0
G1 X57.752 Y-74.337
Z-3.5
X61.474 Y-71.655
Z-4.5 F133.33
X111.294 Y-35.754 F400
Z-3.5
X115.016 Y-33.072
Z-4.5 F133.33
X149.903 Y-7.932 F400
G2 X151.161 Y-8.576 I0.464 J-0.644
G1 Y-20.902
G2 X150.831 Y-21.546 I-0.794 J0
G1 X145.897 Y-25.101
Z-3.5
X142.175 Y-27.783
Z-4.5 F133.33
X92.356 Y-63.684 F400
Z-3.5
X88.634 Y-66.366
Z-4.5 F133.33
X62.965 Y-84.863 F400
G3 X61.809 Y-85.75 I14.152 J-19.639
G1 X61.776 Y-85.787
X61.756 Y-85.833
X61.751 Y-85.882
X61.762 Y-85.931
X61.787 Y-85.974
X61.887 Y-86.097
X61.918 Y-86.135 Z-4.492
X61.946 Y-86.169 Z-4.47
X61.968 Y-86.196 Z-4.435
X61.983 Y-86.214 Z-4.39
X61.988 Y-86.22 Z-4.341
G0 Z5
X39.038 Y-87.936
G1 Z0.317 F133.33
Z-1.091
X39.031 Y-87.933 Z-1.14 F400
X39.01 Y-87.925 Z-1.185
X38.978 Y-87.912 Z-1.22
X38.936 Y-87.895 Z-1.242
X38.891 Y-87.877 Z-1.25
X38.744 Y-87.818
X38.695 Y-87.807
X38.646 Y-87.811
X38.6 Y-87.83
X38.563 Y-87.863
X38.537 Y-87.906
G3 X36.794 Y-96.926 I22.463 J-9.02
G1 Y-194.397
G2 X33 Y-198.191 I-3.794 J0
G1 X29
G2 X25.206 Y-194.397 I0 J3.794
G1 Y-96.926
Y-91.806
G2 X35.92 Y-70.879 I25.794 J0
G1 X133.786 Y-0.356
G2 X135.044 Y-1 I0.464 J-0.644
G1 Y-13.326
G2 X134.714 Y-13.97 I-0.794 J0
G1 X46.848 Y-77.287
G3 X38.537 Y-87.906 I14.152 J-19.639
G1 X38.526 Y-87.954
X38.53 Y-88.004
X38.55 Y-88.049
X38.583 Y-88.087
X38.625 Y-88.112
X38.773 Y-88.171
X38.818 Y-88.19 Z-1.242
X38.859 Y-88.206 Z-1.22
X38.892 Y-88.219 Z-1.185
X38.913 Y-88.228 Z-1.14
X38.92 Y-88.231 Z-1.091
G0 Z5
X39.038 Y-87.936
G1 Z-0.933 F133.33
Z-2.341
X39.031 Y-87.933 Z-2.39 F400
X39.01 Y-87.925 Z-2.435
X38.978 Y-87.912 Z-2.47
X38.936 Y-87.895 Z-2.492
X38.891 Y-87.877 Z-2.5
X38.744 Y-87.818
X38.695 Y-87.807
X38.646 Y-87.811
X38.6 Y-87.83
X38.563 Y-87.863
X38.537 Y-87.906
G3 X36.794 Y-96.926 I22.463 J-9.02
G1 Y-194.397
G2 X33 Y-198.191 I-3.794 J0
G1 X29
G2 X25.206 Y-194.397 I0 J3.794
G1 Y-96.926
Y-91.806
G2 X35.92 Y-70.879 I25.794 J0
G1 X133.786 Y-0.356
G2 X135.044 Y-1 I0.464 J-0.644
G1 Y-13.326
G2 X134.714 Y-13.97 I-0.794 J0
G1 X46.848 Y-77.287
G3 X38.537 Y-87.906 I14.152 J-19.639
G1 X38.526 Y-87.954
X38.53 Y-88.004
X38.55 Y-88.049
X38.583 Y-88.087
X38.625 Y-88.112
X38.773 Y-88.171
X38.818 Y-88.19 Z-2.492
X38.859 Y-88.206 Z-2.47
X38.892 Y-88.219 Z-2.435
X38.913 Y-88.228 Z-2.39
X38.92 Y-88.231 Z-2.341
G0 Z5
X39.038 Y-87.936
G1 Z-2.182 F133.33
Z-3.591
X39.031 Y-87.933 Z-3.64 F400
X39.01 Y-87.925 Z-3.685
X38.978 Y-87.912 Z-3.72
X38.936 Y-87.895 Z-3.742
X38.891 Y-87.877 Z-3.75
X38.744 Y-87.818
X38.695 Y-87.807
X38.646 Y-87.811
X38.6 Y-87.83
X38.563 Y-87.863
X38.537 Y-87.906
G3 X36.794 Y-96.926 I22.463 J-9.02
G1 Y-102.678
Z-3.5
Y-107.266
Z-3.75 F133.33
Y-165.436 F400
Z-3.5
Y-170.024
Z-3.75 F133.33
Y-194.397 F400
G2 X33 Y-198.191 I-3.794 J0
G1 X29
G2 X25.206 Y-194.397 I0 J3.794
G1 Y-174.024
Z-3.5
Y-169.436
Z-3.75 F133.33
Y-111.266 F400
Z-3.5
Y-106.678
Z-3.75 F133.33
Y-91.806 F400
G2 X35.92 Y-70.879 I25.794 J0
G1 X51.853 Y-59.398
Z-3.5
X55.575 Y-56.716
Z-3.75 F133.33
X102.768 Y-22.708 F400
Z-3.5
X106.49 Y-20.026
Z-3.75 F133.33
X133.786 Y-0.356 F400
G2 X135.044 Y-1 I0.464 J-0.644
G1 Y-13.326
G2 X134.714 Y-13.97 I-0.794 J0
G1 X124.817 Y-21.102
Z-3.5
X121.095 Y-23.784
Z-3.75 F133.33
X73.902 Y-57.792 F400
Z-3.5
X70.18 Y-60.474
Z-3.75 F133.33
X46.848 Y-77.287 F400
G3 X38.537 Y-87.906 I14.152 J-19.639
G1 X38.526 Y-87.954
X38.53 Y-88.004
X38.55 Y-88.049
X38.583 Y-88.087
X38.625 Y-88.112
X38.773 Y-88.171
X38.818 Y-88.19 Z-3.742
X38.859 Y-88.206 Z-3.72
X38.892 Y-88.219 Z-3.685
X38.913 Y-88.228 Z-3.64
X38.92 Y-88.231 Z-3.591
G0 Z5
X39.038 Y-87.936
G1 Z-3.432 F133.33
Z-4.341
X39.031 Y-87.933 Z-4.39 F400
X39.01 Y-87.925 Z-4.435
X38.978 Y-87.912 Z-4.47
X38.936 Y-87.895 Z-4.492
X38.891 Y-87.877 Z-4.5
X38.744 Y-87.818
X38.695 Y-87.807
X38.646 Y-87.811
X38.6 Y-87.83
X38.563 Y-87.863
X38.537 Y-87.906
G3 X36.794 Y-96.926 I22.463 J-9.02
G1 Y-102.678
Z-3.5
Y-107.266
Z-4.5 F133.33
Y-165.436 F400
Z-3.5
Y-170.024
Z-4.5 F133.33
Y-194.397 F400
G2 X33 Y-198.191 I-3.794 J0
G1 X29
G2 X25.206 Y-194.397 I0 J3.794
G1 Y-174.024
Z-3.5
Y-169.436
Z-4.5 F133.33
Y-111.266 F400
Z-3.5
Y-106.678
Z-4.5 F133.33
Y-91.806 F400
G2 X35.92 Y-70.879 I25.794 J0
G1 X51.853 Y-59.398
Z-3.5
X55.575 Y-56.716
Z-4.5 F133.33
X102.768 Y-22.708 F400
Z-3.5
X106.49 Y-20.026
Z-4.5 F133.33
X133.786 Y-0.356 F400
G2 X135.044 Y-1 I0.464 J-0.644
G1 Y-13.326
G2 X134.714 Y-13.97 I-0.794 J0
G1 X124.817 Y-21.102
Z-3.5
X121.095 Y-23.784
Z-4.5 F133.33
X73.902 Y-57.792 F400
Z-3.5
X70.18 Y-60.474
Z-4.5 F133.33
X46.848 Y-77.287 F400
G3 X38.537 Y-87.906 I14.152 J-19.639
G1 X38.526 Y-87.954
X38.53 Y-88.004
X38.55 Y-88.049
X38.583 Y-88.087
X38.625 Y-88.112
X38.773 Y-88.171
X38.818 Y-88.19 Z-4.492
X38.859 Y-88.206 Z-4.47
X38.892 Y-88.219 Z-4.435
X38.913 Y-88.228 Z-4.39
X38.92 Y-88.231 Z-4.341
G0 Z5
X12.27 Y-96.767
G1 Z0.317 F133.33
Z-1.091
X12.262 Z-1.14 F400
X12.24 Z-1.185
X12.205 Z-1.22
X12.16 Z-1.242
X12.111 Z-1.25
X11.953
X11.903 Y-96.775
X11.859 Y-96.797
X11.824 Y-96.833
X11.802 Y-96.877
X11.794 Y-96.926
Y-194.397
G2 X8 Y-198.191 I-3.794 J0
G1 X4
G2 X0.206 Y-194.397 I0 J3.794
G1 Y-91.806
G2 X10.92 Y-70.879 I25.794 J0
G1 X108.786 Y-0.356
G2 X110.044 Y-1 I0.464 J-0.644
G1 Y-13.326
G2 X109.714 Y-13.97 I-0.794 J0
G1 X21.848 Y-77.287
G3 X11.793 Y-96.926 I14.152 J-19.639
G1 X11.802 Y-96.975
X11.824 Y-97.019
X11.859 Y-97.054
X11.903 Y-97.077
X11.953 Y-97.085
X12.111
X12.16 Z-1.242
X12.205 Z-1.22
X12.24 Z-1.185
X12.262 Z-1.14
X12.27 Z-1.091
G0 Z5
Y-96.767
G1 Z-0.933 F133.33
Z-2.341
X12.262 Z-2.39 F400
X12.24 Z-2.435
X12.205 Z-2.47
X12.16 Z-2.492
X12.111 Z-2.5
X11.953
X11.903 Y-96.775
X11.859 Y-96.797
X11.824 Y-96.833
X11.802 Y-96.877
X11.794 Y-96.926
Y-194.397
G2 X8 Y-198.191 I-3.794 J0
G1 X4
G2 X0.206 Y-194.397 I0 J3.794
G1 Y-91.806
G2 X10.92 Y-70.879 I25.794 J0
G1 X108.786 Y-0.356
G2 X110.044 Y-1 I0.464 J-0.644
G1 Y-13.326
G2 X109.714 Y-13.97 I-0.794 J0
G1 X21.848 Y-77.287
G3 X11.793 Y-96.926 I14.152 J-19.639
G1 X11.802 Y-96.975
X11.824 Y-97.019
X11.859 Y-97.054
X11.903 Y-97.077
X11.953 Y-97.085
X12.111
X12.16 Z-2.492
X12.205 Z-2.47
X12.24 Z-2.435
X12.262 Z-2.39
X12.27 Z-2.341
G0 Z5
Y-96.767
G1 Z-2.182 F133.33
Z-3.591
X12.262 Z-3.64 F400
X12.24 Z-3.685
X12.205 Z-3.72
X12.16 Z-3.742
X12.111 Z-3.75
X11.953
X11.903 Y-96.775
X11.859 Y-96.797
X11.824 Y-96.833
X11.802 Y-96.877
X11.794 Y-96.926
Y-112.125
Z-3.5
Y-116.713
Z-3.75 F133.33
Y-174.883 F400
Z-3.5
Y-179.471
Z-3.75 F133.33
Y-194.397 F400
G2 X8 Y-198.191 I-3.794 J0
G1 X4
G2 X0.206 Y-194.397 I0 J3.794
G1 Y-164.577
Z-3.5
Y-159.989
Z-3.75 F133.33
Y-101.819 F400
Z-3.5
Y-97.232
Z-3.75 F133.33
Y-91.806 F400
G2 X10.92 Y-70.879 I25.794 J0
G1 X34.517 Y-53.876
Z-3.5
X38.239 Y-51.194
Z-3.75 F133.33
X85.432 Y-17.185 F400
Z-3.5
X89.154 Y-14.503
Z-3.75 F133.33
X108.786 Y-0.356 F400
G2 X110.044 Y-1 I0.464 J-0.644
G1 Y-13.326
G2 X109.714 Y-13.97 I-0.794 J0
G1 X92.153 Y-26.625
Z-3.5
X88.431 Y-29.307
Z-3.75 F133.33
X41.238 Y-63.315 F400
Z-3.5
X37.516 Y-65.997
Z-3.75 F133.33
X21.848 Y-77.287 F400
G3 X11.793 Y-96.926 I14.152 J-19.639
G1 X11.802 Y-96.975
X11.824 Y-97.019
X11.859 Y-97.054
X11.903 Y-97.077
X11.953 Y-97.085
X12.111
X12.16 Z-3.742
X12.205 Z-3.72
X12.24 Z-3.685
X12.262 Z-3.64
X12.27 Z-3.591
G0 Z5
Y-96.767
G1 Z-3.432 F133.33
Z-4.341
X12.262 Z-4.39 F400
X12.24 Z-4.435
X12.205 Z-4.47
X12.16 Z-4.492
X12.111 Z-4.5
X11.953
X11.903 Y-96.775
X11.859 Y-96.797
X11.824 Y-96.833
X11.802 Y-96.877
X11.794 Y-96.926
Y-112.125
Z-3.5
Y-116.713
Z-4.5 F133.33
Y-174.883 F400
Z-3.5
Y-179.471
Z-4.5 F133.33
Y-194.397 F400
G2 X8 Y-198.191 I-3.794 J0
G1 X4
G2 X0.206 Y-194.397 I0 J3.794
G1 Y-164.577
Z-3.5
Y-159.989
Z-4.5 F133.33
Y-101.819 F400
Z-3.5
Y-97.232
Z-4.5 F133.33
Y-91.806 F400
G2 X10.92 Y-70.879 I25.794 J0
G1 X34.517 Y-53.876
Z-3.5
X38.239 Y-51.194
Z-4.5 F133.33
X85.432 Y-17.185 F400
Z-3.5
X89.154 Y-14.503
Z-4.5 F133.33
X108.786 Y-0.356 F400
G2 X110.044 Y-1 I0.464 J-0.644
G1 Y-13.326
G2 X109.714 Y-13.97 I-0.794 J0
G1 X92.153 Y-26.625
Z-3.5
X88.431 Y-29.307
Z-4.5 F133.33
X41.238 Y-63.315 F400
Z-3.5
X37.516 Y-65.997
Z-4.5 F133.33
X21.848 Y-77.287 F400
G3 X11.793 Y-96.926 I14.152 J-19.639
G1 X11.802 Y-96.975
X11.824 Y-97.019
X11.859 Y-97.054
X11.903 Y-97.077
X11.953 Y-97.085
X12.111
X12.16 Z-4.492
X12.205 Z-4.47
X12.24 Z-4.435
X12.262 Z-4.39
X12.27 Z-4.341
G0 Z5
X44.396 Y-133.482
G1 Z0.317 F133.33
Z-1.091
Y-133.49 Z-1.14 F400
Y-133.512 Z-1.185
Y-133.547 Z-1.22
Y-133.592 Z-1.242
Y-133.641 Z-1.25
Y-133.799
X44.404 Y-133.849
X44.426 Y-133.893
X44.461 Y-133.928
X44.505 Y-133.95
X44.555 Y-133.958
X50.691
G2 X51.485 Y-134.752 I0 J-0.794
G1 Y-184.422
G2 X47.691 Y-188.216 I-3.794 J0
G1 X43.691
G2 X39.897 Y-184.422 I0 J3.794
G1 X39.898 Y-134.752
G2 X40.691 Y-133.959 I0.793 J0
G1 X44.555 Y-133.958
X44.604 Y-133.95
X44.648 Y-133.928
X44.683 Y-133.893
X44.705 Y-133.849
X44.713 Y-133.799
Y-133.641
Y-133.592 Z-1.242
Y-133.547 Z-1.22
Y-133.512 Z-1.185
Y-133.49 Z-1.14
Y-133.482 Z-1.091
G0 Z5
X44.396
G1 Z-0.933 F133.33
Z-2.341
Y-133.49 Z-2.39 F400
Y-133.512 Z-2.435
Y-133.547 Z-2.47
Y-133.592 Z-2.492
Y-133.641 Z-2.5
Y-133.799
X44.404 Y-133.849
X44.426 Y-133.893
X44.461 Y-133.928
X44.505 Y-133.95
X44.555 Y-133.958
X50.691
G2 X51.485 Y-134.752 I0 J-0.794
G1 Y-184.422
G2 X47.691 Y-188.216 I-3.794 J0
G1 X43.691
G2 X39.897 Y-184.422 I0 J3.794
G1 X39.898 Y-134.752
G2 X40.691 Y-133.959 I0.793 J0
G1 X44.555 Y-133.958
X44.604 Y-133.95
X44.648 Y-133.928
X44.683 Y-133.893
X44.705 Y-133.849
X44.713 Y-133.799
Y-133.641
Y-133.592 Z-2.492
Y-133.547 Z-2.47
Y-133.512 Z-2.435
Y-133.49 Z-2.39
Y-133.482 Z-2.341
G0 Z5
X44.396
G1 Z-2.182 F133.33
Z-3.591
Y-133.49 Z-3.64 F400
Y-133.512 Z-3.685
Y-133.547 Z-3.72
Y-133.592 Z-3.742
Y-133.641 Z-3.75
Y-133.799
X44.404 Y-133.849
X44.426 Y-133.893
X44.461 Y-133.928
X44.505 Y-133.95
X44.555 Y-133.958
X50.691
G2 X51.485 Y-134.752 I0 J-0.794
G1 Y-164.862
Z-3.5
Y-169.45
Z-3.75 F133.33
Y-184.422 F400
G2 X47.691 Y-188.216 I-3.794 J0
G1 X43.691
G2 X39.897 Y-184.422 I0 J3.794
G1 X39.898 Y-156.025
Z-3.5
Y-151.437
Z-3.75 F133.33
Y-134.752 F400
G2 X40.691 Y-133.959 I0.793 J0
G1 X44.555 Y-133.958
X44.604 Y-133.95
X44.648 Y-133.928
X44.683 Y-133.893
X44.705 Y-133.849
X44.713 Y-133.799
Y-133.641
Y-133.592 Z-3.742
Y-133.547 Z-3.72
Y-133.512 Z-3.685
Y-133.49 Z-3.64
Y-133.482 Z-3.591
G0 Z5
X44.396
G1 Z-3.432 F133.33
Z-4.341
Y-133.49 Z-4.39 F400
Y-133.512 Z-4.435
Y-133.547 Z-4.47
Y-133.592 Z-4.492
Y-133.641 Z-4.5
Y-133.799
X44.404 Y-133.849
X44.426 Y-133.893
X44.461 Y-133.928
X44.505 Y-133.95
X44.555 Y-133.958
X50.691
G2 X51.485 Y-134.752 I0 J-0.794
G1 Y-164.862
Z-3.5
Y-169.45
Z-4.5 F133.33
Y-184.422 F400
G2 X47.691 Y-188.216 I-3.794 J0
G1 X43.691
G2 X39.897 Y-184.422 I0 J3.794
G1 X39.898 Y-156.025
Z-3.5
Y-151.437
Z-4.5 F133.33
Y-134.752 F400
G2 X40.691 Y-133.959 I0.793 J0
G1 X44.555 Y-133.958
X44.604 Y-133.95
X44.648 Y-133.928
X44.683 Y-133.893
X44.705 Y-133.849
X44.713 Y-133.799
Y-133.641
Y-133.592 Z-4.492
Y-133.547 Z-4.47
Y-133.512 Z-4.435
Y-133.49 Z-4.39
Y-133.482 Z-4.341
G0 Z5
X55.485 Y-135.431
G1 Z0.317 F133.33
Z-1.091
X55.487 Y-135.438 Z-1.14 F400
X55.495 Y-135.459 Z-1.185
X55.506 Y-135.492 Z-1.22
X55.521 Y-135.534 Z-1.242
X55.537 Y-135.58 Z-1.25
X55.589 Y-135.73
X55.613 Y-135.774
X55.649 Y-135.808
X55.694 Y-135.83
X55.743 Y-135.837
X55.792 Y-135.828
G2 X56.054 Y-135.783 I0.262 J-0.749
G1 X66.054
G2 X66.848 Y-136.577 I0 J-0.794
G1 X66.847 Y-186.247
G2 X63.054 Y-190.04 I-3.793 J0
G1 X59.054 Y-190.041
G2 X55.26 Y-186.247 I0 J3.794
G1 Y-136.577
G2 X55.792 Y-135.828 I0.794 J0
G1 X55.835 Y-135.804
X55.87 Y-135.768
X55.891 Y-135.724
X55.898 Y-135.674
X55.889 Y-135.625
X55.837 Y-135.476
X55.821 Y-135.429 Z-1.242
X55.806 Y-135.388 Z-1.22
X55.794 Y-135.354 Z-1.185
X55.787 Y-135.333 Z-1.14
X55.784 Y-135.326 Z-1.091
G0 Z5
X55.485 Y-135.431
G1 Z-0.933 F133.33
Z-2.341
X55.487 Y-135.438 Z-2.39 F400
X55.495 Y-135.459 Z-2.435
X55.506 Y-135.492 Z-2.47
X55.521 Y-135.534 Z-2.492
X55.537 Y-135.58 Z-2.5
X55.589 Y-135.73
X55.613 Y-135.774
X55.649 Y-135.808
X55.694 Y-135.83
X55.743 Y-135.837
X55.792 Y-135.828
G2 X56.054 Y-135.783 I0.262 J-0.749
G1 X66.054
G2 X66.848 Y-136.577 I0 J-0.794
G1 X66.847 Y-186.247
G2 X63.054 Y-190.04 I-3.793 J0
G1 X59.054 Y-190.041
G2 X55.26 Y-186.247 I0 J3.794
G1 Y-136.577
G2 X55.792 Y-135.828 I0.794 J0
G1 X55.835 Y-135.804
X55.87 Y-135.768
X55.891 Y-135.724
X55.898 Y-135.674
X55.889 Y-135.625
X55.837 Y-135.476
X55.821 Y-135.429 Z-2.492
X55.806 Y-135.388 Z-2.47
X55.794 Y-135.354 Z-2.435
X55.787 Y-135.333 Z-2.39
X55.784 Y-135.326 Z-2.341
G0 Z5
X55.485 Y-135.431
G1 Z-2.182 F133.33
Z-3.591
X55.487 Y-135.438 Z-3.64 F400
X55.495 Y-135.459 Z-3.685
X55.506 Y-135.492 Z-3.72
X55.521 Y-135.534 Z-3.742
X55.537 Y-135.58 Z-3.75
X55.589 Y-135.73
X55.613 Y-135.774
X55.649 Y-135.808
X55.694 Y-135.83
X55.743 Y-135.837
X55.792 Y-135.828
G2 X56.054 Y-135.783 I0.262 J-0.749
G1 X66.054
G2 X66.848 Y-136.577 I0 J-0.794
G1 X66.847 Y-166.687
Z-3.5
Y-171.275
Z-3.75 F133.33
Y-186.247 F400
G2 X63.054 Y-190.04 I-3.793 J0
G1 X59.054 Y-190.041
G2 X55.26 Y-186.247 I0 J3.794
G1 Y-157.85
Z-3.5
Y-153.262
Z-3.75 F133.33
Y-136.577 F400
G2 X55.792 Y-135.828 I0.794 J0
G1 X55.835 Y-135.804
X55.87 Y-135.768
X55.891 Y-135.724
X55.898 Y-135.674
X55.889 Y-135.625
X55.837 Y-135.476
X55.821 Y-135.429 Z-3.742
X55.806 Y-135.388 Z-3.72
X55.794 Y-135.354 Z-3.685
X55.787 Y-135.333 Z-3.64
X55.784 Y-135.326 Z-3.591
G0 Z5
X55.485 Y-135.431
G1 Z-3.432 F133.33
Z-4.341
X55.487 Y-135.438 Z-4.39 F400
X55.495 Y-135.459 Z-4.435
X55.506 Y-135.492 Z-4.47
X55.521 Y-135.534 Z-4.492
X55.537 Y-135.58 Z-4.5
X55.589 Y-135.73
X55.613 Y-135.774
X55.649 Y-135.808
X55.694 Y-135.83
X55.743 Y-135.837
X55.792 Y-135.828
G2 X56.054 Y-135.783 I0.262 J-0.749
G1 X66.054
G2 X66.848 Y-136.577 I0 J-0.794
G1 X66.847 Y-166.687
Z-3.5
Y-171.275
Z-4.5 F133.33
Y-186.247 F400
G2 X63.054 Y-190.04 I-3.793 J0
G1 X59.054 Y-190.041
G2 X55.26 Y-186.247 I0 J3.794
G1 Y-157.85
Z-3.5
Y-153.262
Z-4.5 F133.33
Y-136.577 F400
G2 X55.792 Y-135.828 I0.794 J0
G1 X55.835 Y-135.804
X55.87 Y-135.768
X55.891 Y-135.724
X55.898 Y-135.674
X55.889 Y-135.625
X55.837 Y-135.476
X55.821 Y-135.429 Z-4.492
X55.806 Y-135.388 Z-4.47
X55.794 Y-135.354 Z-4.435
X55.787 Y-135.333 Z-4.39
X55.784 Y-135.326 Z-4.341
G0 Z15
G28 G91 Z0
G90
G28 G91 X0 Y0
G90
M30
%
