%
(BatteryHolder)
(T1 D=1.587 CR=0 - ZMIN=-4.5 - flat end mill)
G90
G17
G21
G28 G91 Z0
G90

(Bore1)
T1 M6
S10000 M3
G17 G90
G54
M7
G0 X13.341 Y66.191
Z15
G0 Z1
G1 Z-0.841 F350
Y66.183 Z-0.89
Y66.16 Z-0.935
Y66.125 Z-0.97
Y66.081 Z-0.992
Y66.032 Z-1
Y65.952
X13.349 Y65.903
X13.372 Y65.859
X13.407 Y65.824
X13.451 Y65.802
X13.5 Y65.794
G3 Y69.206 Z-1.307 I0 J1.706
Y65.794 Z-1.614 I0 J-1.706
Y69.206 Z-1.921 I0 J1.706
Y65.794 Z-2.228 I0 J-1.706
Y69.206 Z-2.535 I0 J1.706
Y65.794 Z-2.842 I0 J-1.706
Y69.206 Z-3.149 I0 J1.706
Y65.794 Z-3.456 I0 J-1.706
Y69.206 Z-3.763 I0 J1.706
Y65.794 Z-4.07 I0 J-1.706
Y69.206 Z-4.377 I0 J1.706
X11.874 Y68.017 Z-4.5 I0 J-1.706
X15.126 Y66.983 I1.626 J-0.517
X11.874 Y68.017 I-1.626 J0.517
G1 X11.866 Y67.968
X11.874 Y67.919
X11.897 Y67.874
X11.933 Y67.84
X11.977 Y67.817
X12.053 Y67.793
X12.099 Y67.778 Z-4.492
X12.142 Y67.765 Z-4.47
X12.175 Y67.754 Z-4.435
X12.197 Y67.748 Z-4.39
X12.204 Y67.745 Z-4.341
G0 Z5
X13.341 Y55.691
Z1
G1 Z-0.841 F350
Y55.683 Z-0.89
Y55.66 Z-0.935
Y55.625 Z-0.97
Y55.581 Z-0.992
Y55.532 Z-1
Y55.452
X13.349 Y55.403
X13.372 Y55.359
X13.407 Y55.324
X13.451 Y55.302
X13.5 Y55.294
G3 Y58.706 Z-1.307 I0 J1.706
Y55.294 Z-1.614 I0 J-1.706
Y58.706 Z-1.921 I0 J1.706
Y55.294 Z-2.228 I0 J-1.706
Y58.706 Z-2.535 I0 J1.706
Y55.294 Z-2.842 I0 J-1.706
Y58.706 Z-3.149 I0 J1.706
Y55.294 Z-3.456 I0 J-1.706
Y58.706 Z-3.763 I0 J1.706
Y55.294 Z-4.07 I0 J-1.706
Y58.706 Z-4.377 I0 J1.706
X11.874 Y57.517 Z-4.5 I0 J-1.706
X15.126 Y56.483 I1.626 J-0.517
X11.874 Y57.517 I-1.626 J0.517
G1 X11.866 Y57.468
X11.874 Y57.419
X11.897 Y57.374
X11.933 Y57.34
X11.977 Y57.317
X12.053 Y57.293
X12.099 Y57.278 Z-4.492
X12.142 Y57.265 Z-4.47
X12.175 Y57.254 Z-4.435
X12.197 Y57.248 Z-4.39
X12.204 Y57.245 Z-4.341
G0 Z15

(2D Contour1)
G0 X13.73 Y39.361
Z15
Z5
G1 Z0.317 F116.67
Z-1.341
X13.738 Z-1.39 F350
X13.76 Z-1.435
X13.795 Z-1.47
X13.84 Z-1.492
X13.889 Z-1.5
X14.047
X14.097 Y39.368
X14.141 Y39.391
X14.176 Y39.426
X14.198 Y39.47
X14.206 Y39.519
G2 X19.554 Y45.296 I5.794 J0
G3 X20.206 Y46 I-0.054 J0.704
G1 Y48
G3 X19.5 Y48.706 I-0.706 J0
G1 X7.5
G3 X6.794 Y48 I0 J-0.706
G1 Y46
G3 X7.446 Y45.296 I0.706 J0
G2 X12.794 Y39.519 I-0.446 J-5.777
G1 Y11.266
G2 X9.674 Y6.126 I-5.794 J0
G3 X10 Y4.794 I0.326 J-0.626
G1 X17
G3 X17.326 Y6.126 I0 J0.706
G2 X14.206 Y11.266 I2.674 J5.14
G1 Y39.519
X14.198 Y39.568
X14.176 Y39.613
X14.141 Y39.648
X14.097 Y39.67
X14.047 Y39.678
X13.889
X13.84 Z-1.492
X13.795 Z-1.47
X13.76 Z-1.435
X13.738 Z-1.39
X13.73 Z-1.341
G0 Z5
Y39.361
G1 Z-1.183 F116.67
Z-2.841
X13.738 Z-2.89 F350
X13.76 Z-2.935
X13.795 Z-2.97
X13.84 Z-2.992
X13.889 Z-3
X14.047
X14.097 Y39.368
X14.141 Y39.391
X14.176 Y39.426
X14.198 Y39.47
X14.206 Y39.519
G2 X19.554 Y45.296 I5.794 J0
G3 X20.206 Y46 I-0.054 J0.704
G1 Y48
G3 X19.5 Y48.706 I-0.706 J0
G1 X15.258
Z-2.5
X11.671
Z-3 F116.67
X7.5 F350
G3 X6.794 Y48 I0 J-0.706
G1 Y46
G3 X7.446 Y45.296 I0.706 J0
G2 X12.794 Y39.519 I-0.446 J-5.777
G1 Y11.266
G2 X9.674 Y6.126 I-5.794 J0
G3 X10 Y4.794 I0.326 J-0.626
G1 X17
G3 X17.326 Y6.126 I0 J0.706
G2 X14.206 Y11.266 I2.674 J5.14
G1 Y39.519
X14.198 Y39.568
X14.176 Y39.613
X14.141 Y39.648
X14.097 Y39.67
X14.047 Y39.678
X13.889
X13.84 Z-2.992
X13.795 Z-2.97
X13.76 Z-2.935
X13.738 Z-2.89
X13.73 Z-2.841
G0 Z5
Y39.361
G1 Z-2.682 F116.67
Z-4.341
X13.738 Z-4.39 F350
X13.76 Z-4.435
X13.795 Z-4.47
X13.84 Z-4.492
X13.889 Z-4.5
X14.047
X14.097 Y39.368
X14.141 Y39.391
X14.176 Y39.426
X14.198 Y39.47
X14.206 Y39.519
G2 X19.554 Y45.296 I5.794 J0
G3 X20.206 Y46 I-0.054 J0.704
G1 Y48
G3 X19.5 Y48.706 I-0.706 J0
G1 X15.258
Z-2.5
X11.671
Z-4.5 F116.67
X7.5 F350
G3 X6.794 Y48 I0 J-0.706
G1 Y46
G3 X7.446 Y45.296 I0.706 J0
G2 X12.794 Y39.519 I-0.446 J-5.777
G1 Y11.266
G2 X9.674 Y6.126 I-5.794 J0
G3 X10 Y4.794 I0.326 J-0.626
G1 X17
G3 X17.326 Y6.126 I0 J0.706
G2 X14.206 Y11.266 I2.674 J5.14
G1 Y39.519
X14.198 Y39.568
X14.176 Y39.613
X14.141 Y39.648
X14.097 Y39.67
X14.047 Y39.678
X13.889
X13.84 Z-4.492
X13.795 Z-4.47
X13.76 Z-4.435
X13.738 Z-4.39
X13.73 Z-4.341
G0 Z5
X22.23 Y13.591
G1 Z0.317 F116.67
Z-1.341
X22.238 Z-1.39 F350
X22.26 Z-1.435
X22.295 Z-1.47
X22.34 Z-1.492
X22.389 Z-1.5
X22.548
X22.597 Y13.599
X22.641 Y13.622
X22.676 Y13.657
X22.698 Y13.701
X22.706 Y13.75
Y38.25
G3 X21.294 I-0.706 J0
G1 Y13.75
G3 X22.706 I0.706 J0
G1 X22.698 Y13.799
X22.676 Y13.843
X22.641 Y13.878
X22.597 Y13.901
X22.548 Y13.909
X22.389
X22.34 Z-1.492
X22.295 Z-1.47
X22.26 Z-1.435
X22.238 Z-1.39
X22.23 Z-1.341
G0 Z5
Y13.591
G1 Z-1.183 F116.67
Z-2.841
X22.238 Z-2.89 F350
X22.26 Z-2.935
X22.295 Z-2.97
X22.34 Z-2.992
X22.389 Z-3
X22.548
X22.597 Y13.599
X22.641 Y13.622
X22.676 Y13.657
X22.698 Y13.701
X22.706 Y13.75
Y38.25
G3 X21.294 I-0.706 J0
G1 Y13.75
G3 X22.706 I0.706 J0
G1 X22.698 Y13.799
X22.676 Y13.843
X22.641 Y13.878
X22.597 Y13.901
X22.548 Y13.909
X22.389
X22.34 Z-2.992
X22.295 Z-2.97
X22.26 Z-2.935
X22.238 Z-2.89
X22.23 Z-2.841
G0 Z5
Y13.591
G1 Z-2.682 F116.67
Z-4.341
X22.238 Z-4.39 F350
X22.26 Z-4.435
X22.295 Z-4.47
X22.34 Z-4.492
X22.389 Z-4.5
X22.548
X22.597 Y13.599
X22.641 Y13.622
X22.676 Y13.657
X22.698 Y13.701
X22.706 Y13.75
Y38.25
G3 X21.294 I-0.706 J0
G1 Y13.75
G3 X22.706 I0.706 J0
G1 X22.698 Y13.799
X22.676 Y13.843
X22.641 Y13.878
X22.597 Y13.901
X22.548 Y13.909
X22.389
X22.34 Z-4.492
X22.295 Z-4.47
X22.26 Z-4.435
X22.238 Z-4.39
X22.23 Z-4.341
G0 Z5
X5.23 Y13.591
G1 Z0.317 F116.67
Z-1.341
X5.238 Z-1.39 F350
X5.26 Z-1.435
X5.295 Z-1.47
X5.34 Z-1.492
X5.389 Z-1.5
X5.548
X5.597 Y13.599
X5.641 Y13.622
X5.676 Y13.657
X5.698 Y13.701
X5.706 Y13.75
Y38.25
G3 X4.294 I-0.706 J0
G1 Y13.75
G3 X5.706 I0.706 J0
G1 X5.698 Y13.799
X5.676 Y13.843
X5.641 Y13.878
X5.597 Y13.901
X5.548 Y13.909
X5.389
X5.34 Z-1.492
X5.295 Z-1.47
X5.26 Z-1.435
X5.238 Z-1.39
X5.23 Z-1.341
G0 Z5
Y13.591
G1 Z-1.183 F116.67
Z-2.841
X5.238 Z-2.89 F350
X5.26 Z-2.935
X5.295 Z-2.97
X5.34 Z-2.992
X5.389 Z-3
X5.548
X5.597 Y13.599
X5.641 Y13.622
X5.676 Y13.657
X5.698 Y13.701
X5.706 Y13.75
Y38.25
G3 X4.294 I-0.706 J0
G1 Y13.75
G3 X5.706 I0.706 J0
G1 X5.698 Y13.799
X5.676 Y13.843
X5.641 Y13.878
X5.597 Y13.901
X5.548 Y13.909
X5.389
X5.34 Z-2.992
X5.295 Z-2.97
X5.26 Z-2.935
X5.238 Z-2.89
X5.23 Z-2.841
G0 Z5
Y13.591
G1 Z-2.682 F116.67
Z-4.341
X5.238 Z-4.39 F350
X5.26 Z-4.435
X5.295 Z-4.47
X5.34 Z-4.492
X5.389 Z-4.5
X5.548
X5.597 Y13.599
X5.641 Y13.622
X5.676 Y13.657
X5.698 Y13.701
X5.706 Y13.75
Y38.25
G3 X4.294 I-0.706 J0
G1 Y13.75
G3 X5.706 I0.706 J0
G1 X5.698 Y13.799
X5.676 Y13.843
X5.641 Y13.878
X5.597 Y13.901
X5.548 Y13.909
X5.389
X5.34 Z-4.492
X5.295 Z-4.47
X5.26 Z-4.435
X5.238 Z-4.39
X5.23 Z-4.341
G0 Z15

(2D Contour2)
G0 X27.27 Y70.659
Z15
Z5
G1 Z0.317 F116.67
Z-1.341
X27.262 Z-1.39 F350
X27.24 Z-1.435
X27.205 Z-1.47
X27.16 Z-1.492
X27.111 Z-1.5
X26.952
X26.903 Y70.651
X26.859 Y70.628
X26.824 Y70.593
X26.802 Y70.549
X26.794 Y70.5
Y69.547
G2 X24.686 Y66.148 I-3.794 J0
G3 Y60.852 I1.314 J-2.648
G2 X26.794 Y57.453 I-1.686 J-3.399
G1 Y11
G2 X16 Y0.206 I-10.794 J0
G1 X11
G2 X0.206 Y11 I0 J10.794
G1 Y57.453
G2 X2.314 Y60.852 I3.794 J0
G3 Y66.148 I-1.314 J2.648
G2 X0.206 Y69.547 I1.686 J3.399
G1 Y70.5
G2 X4 Y74.294 I3.794 J0
G1 X23
G2 X26.794 Y70.5 I0 J-3.794
G1 X26.802 Y70.451
X26.824 Y70.407
X26.859 Y70.372
X26.903 Y70.349
X26.952 Y70.341
X27.111
X27.16 Z-1.492
X27.205 Z-1.47
X27.24 Z-1.435
X27.262 Z-1.39
X27.27 Z-1.341
G0 Z5
Y70.659
G1 Z-1.183 F116.67
Z-2.841
X27.262 Z-2.89 F350
X27.24 Z-2.935
X27.205 Z-2.97
X27.16 Z-2.992
X27.111 Z-3
X26.952
X26.903 Y70.651
X26.859 Y70.628
X26.824 Y70.593
X26.802 Y70.549
X26.794 Y70.5
Y69.547
G2 X24.686 Y66.148 I-3.794 J0
G3 Y60.852 I1.314 J-2.648
G2 X26.794 Y57.453 I-1.686 J-3.399
G1 Y29.796
Z-2.5
Y25.209
Z-3 F116.67
Y11 F350
G2 X16 Y0.206 I-10.794 J0
G1 X15.972
Z-2.5
X11.384
Z-3 F116.67
X11 F350
G2 X0.206 Y11 I0 J10.794
G1 Y27.422
Z-2.5
Y32.009
Z-3 F116.67
Y57.453 F350
G2 X2.314 Y60.852 I3.794 J0
G3 Y66.148 I-1.314 J2.648
G2 X0.206 Y69.547 I1.686 J3.399
G1 Y70.5
G2 X4 Y74.294 I3.794 J0
G1 X12.341
Z-2.5
X16.928
Z-3 F116.67
X23 F350
G2 X26.794 Y70.5 I0 J-3.794
G1 X26.802 Y70.451
X26.824 Y70.407
X26.859 Y70.372
X26.903 Y70.349
X26.952 Y70.341
X27.111
X27.16 Z-2.992
X27.205 Z-2.97
X27.24 Z-2.935
X27.262 Z-2.89
X27.27 Z-2.841
G0 Z5
Y70.659
G1 Z-2.682 F116.67
Z-4.341
X27.262 Z-4.39 F350
X27.24 Z-4.435
X27.205 Z-4.47
X27.16 Z-4.492
X27.111 Z-4.5
X26.952
X26.903 Y70.651
X26.859 Y70.628
X26.824 Y70.593
X26.802 Y70.549
X26.794 Y70.5
Y69.547
G2 X24.686 Y66.148 I-3.794 J0
G3 Y60.852 I1.314 J-2.648
G2 X26.794 Y57.453 I-1.686 J-3.399
G1 Y29.796
Z-2.5
Y25.209
Z-4.5 F116.67
Y11 F350
G2 X16 Y0.206 I-10.794 J0
G1 X15.972
Z-2.5
X11.384
Z-4.5 F116.67
X11 F350
G2 X0.206 Y11 I0 J10.794
G1 Y27.422
Z-2.5
Y32.009
Z-4.5 F116.67
Y57.453 F350
G2 X2.314 Y60.852 I3.794 J0
G3 Y66.148 I-1.314 J2.648
G2 X0.206 Y69.547 I1.686 J3.399
G1 Y70.5
G2 X4 Y74.294 I3.794 J0
G1 X12.341
Z-2.5
X16.928
Z-4.5 F116.67
X23 F350
G2 X26.794 Y70.5 I0 J-3.794
G1 X26.802 Y70.451
X26.824 Y70.407
X26.859 Y70.372
X26.903 Y70.349
X26.952 Y70.341
X27.111
X27.16 Z-4.492
X27.205 Z-4.47
X27.24 Z-4.435
X27.262 Z-4.39
X27.27 Z-4.341
G0 Z15
M9
G28 G91 Z0
G90
G28 G91 X0 Y0
G90
M30
%
