%
(CarbonLegs_BetterSpacing)
(T1 D=1.587 CR=0 - ZMIN=-4.843 - flat end mill)
G90
G17
G21
G28 G91 Z0
G90

(Bore2)
T1 M6
S10000 M3
G17 G90
G54
G0 X2.841 Y56.639
Z15
G0 Z1
G1 Z-0.841 F400
Y56.631 Z-0.89
Y56.608 Z-0.935
Y56.573 Z-0.97
Y56.529 Z-0.992
Y56.48 Z-1
Y56.401
X2.849 Y56.352
X2.872 Y56.307
X2.907 Y56.272
X2.951 Y56.25
X3 Y56.242
G3 Y57.654 Z-1.211 I0 J0.706
Y56.242 Z-1.422 I0 J-0.706
Y57.654 Z-1.632 I0 J0.706
Y56.242 Z-1.843 I0 J-0.706
Y57.654 Z-2.054 I0 J0.706
Y56.242 Z-2.265 I0 J-0.706
Y57.654 Z-2.476 I0 J0.706
Y56.242 Z-2.686 I0 J-0.706
Y57.654 Z-2.897 I0 J0.706
Y56.242 Z-3.108 I0 J-0.706
Y57.654 Z-3.319 I0 J0.706
Y56.242 Z-3.53 I0 J-0.706
Y57.654 Z-3.741 I0 J0.706
Y56.242 Z-3.951 I0 J-0.706
Y57.654 Z-4.162 I0 J0.706
Y56.242 Z-4.373 I0 J-0.706
X3.67 Y57.172 Z-4.5 I0 J0.706
X2.33 Y56.724 I-0.67 J-0.224
X3.67 Y57.172 I0.67 J0.224
G1 X3.647 Y57.216
X3.612 Y57.251
X3.567 Y57.273
X3.518 Y57.28
X3.469 Y57.272
X3.394 Y57.247
X3.347 Y57.231 Z-4.492
X3.305 Y57.217 Z-4.47
X3.272 Y57.206 Z-4.435
X3.251 Y57.199 Z-4.39
X3.243 Y57.197 Z-4.341
G0 Z5
X9.841 Y56.639
Z1
G1 Z-0.841 F400
Y56.631 Z-0.89
Y56.608 Z-0.935
Y56.573 Z-0.97
Y56.529 Z-0.992
Y56.48 Z-1
Y56.401
X9.849 Y56.352
X9.872 Y56.307
X9.907 Y56.272
X9.951 Y56.25
X10 Y56.242
G3 Y57.654 Z-1.211 I0 J0.706
Y56.242 Z-1.422 I0 J-0.706
Y57.654 Z-1.632 I0 J0.706
Y56.242 Z-1.843 I0 J-0.706
Y57.654 Z-2.054 I0 J0.706
Y56.242 Z-2.265 I0 J-0.706
Y57.654 Z-2.476 I0 J0.706
Y56.242 Z-2.686 I0 J-0.706
Y57.654 Z-2.897 I0 J0.706
Y56.242 Z-3.108 I0 J-0.706
Y57.654 Z-3.319 I0 J0.706
Y56.242 Z-3.53 I0 J-0.706
Y57.654 Z-3.741 I0 J0.706
Y56.242 Z-3.951 I0 J-0.706
Y57.654 Z-4.162 I0 J0.706
Y56.242 Z-4.373 I0 J-0.706
X10.67 Y57.172 Z-4.5 I0 J0.706
X9.33 Y56.724 I-0.67 J-0.224
X10.67 Y57.172 I0.67 J0.224
G1 X10.647 Y57.216
X10.612 Y57.251
X10.567 Y57.273
X10.518 Y57.28
X10.469 Y57.272
X10.394 Y57.247
X10.347 Y57.231 Z-4.492
X10.305 Y57.217 Z-4.47
X10.272 Y57.206 Z-4.435
X10.251 Y57.199 Z-4.39
X10.243 Y57.197 Z-4.341
G0 Z5
X42.511 Y56.539
Z1
G1 Z-0.841 F400
Y56.531 Z-0.89
Y56.508 Z-0.935
Y56.473 Z-0.97
Y56.429 Z-0.992
Y56.38 Z-1
Y56.301
X42.519 Y56.252
X42.542 Y56.207
X42.577 Y56.172
X42.621 Y56.15
X42.67 Y56.142
G3 Y57.754 Z-1.225 I0 J0.806
Y56.142 Z-1.45 I0 J-0.806
Y57.754 Z-1.675 I0 J0.806
Y56.142 Z-1.899 I0 J-0.806
Y57.754 Z-2.124 I0 J0.806
Y56.142 Z-2.349 I0 J-0.806
Y57.754 Z-2.574 I0 J0.806
Y56.142 Z-2.799 I0 J-0.806
Y57.754 Z-3.024 I0 J0.806
Y56.142 Z-3.249 I0 J-0.806
Y57.754 Z-3.474 I0 J0.806
Y56.142 Z-3.698 I0 J-0.806
Y57.754 Z-3.923 I0 J0.806
Y56.142 Z-4.148 I0 J-0.806
Y57.754 Z-4.373 I0 J0.806
X41.881 Y56.785 Z-4.5 I0 J-0.806
X43.459 Y57.111 I0.789 J0.163
X41.881 Y56.785 I-0.789 J-0.163
G1 X41.898 Y56.738
X41.929 Y56.7
X41.971 Y56.672
X42.018 Y56.659
X42.068 Y56.662
X42.146 Y56.678
X42.194 Y56.688 Z-4.492
X42.237 Y56.697 Z-4.47
X42.272 Y56.704 Z-4.435
X42.294 Y56.708 Z-4.39
X42.301 Y56.71 Z-4.341
G0 Z5
X46.733 Y40.606
Z0.657
G1 Z-1.184 F400
X46.74 Y40.61 Z-1.233
X46.758 Y40.624 Z-1.277
X46.786 Y40.645 Z-1.312
X46.822 Y40.671 Z-1.335
X46.861 Y40.7 Z-1.343
X46.925 Y40.748
X46.959 Y40.783
X46.982 Y40.828
X46.989 Y40.877
X46.981 Y40.926
X46.958 Y40.97
G3 X45.822 Y40.128 Z-1.553 I-0.568 J-0.421
X46.958 Y40.97 Z-1.764 I0.568 J0.421
X45.822 Y40.128 Z-1.975 I-0.568 J-0.421
X46.958 Y40.97 Z-2.186 I0.568 J0.421
X45.822 Y40.128 Z-2.397 I-0.568 J-0.421
X46.958 Y40.97 Z-2.607 I0.568 J0.421
X45.822 Y40.128 Z-2.818 I-0.568 J-0.421
X46.958 Y40.97 Z-3.029 I0.568 J0.421
X45.822 Y40.128 Z-3.24 I-0.568 J-0.421
X46.958 Y40.97 Z-3.451 I0.568 J0.421
X45.822 Y40.128 Z-3.662 I-0.568 J-0.421
X46.958 Y40.97 Z-3.872 I0.568 J0.421
X45.822 Y40.128 Z-4.083 I-0.568 J-0.421
X46.958 Y40.97 Z-4.294 I0.568 J0.421
X45.822 Y40.128 Z-4.505 I-0.568 J-0.421
X46.958 Y40.97 Z-4.716 I0.568 J0.421
X45.811 Y40.955 Z-4.843 I-0.568 J-0.421
X46.969 Y40.144 I0.579 J-0.406
X45.811 Y40.954 I-0.579 J0.405
G1 X45.79 Y40.909
X45.783 Y40.86
X45.792 Y40.811
X45.815 Y40.767
X45.851 Y40.733
X45.916 Y40.687
X45.956 Y40.659 Z-4.835
X45.992 Y40.634 Z-4.812
X46.021 Y40.614 Z-4.777
X46.04 Y40.601 Z-4.733
X46.046 Y40.596 Z-4.684
G0 Z5
X50.903 Y34.983
Z0.657
G1 Z-1.184 F400
X50.909 Y34.987 Z-1.233
X50.927 Y35.001 Z-1.277
X50.955 Y35.022 Z-1.312
X50.991 Y35.048 Z-1.335
X51.03 Y35.077 Z-1.343
X51.094 Y35.125
X51.129 Y35.16
X51.151 Y35.204
X51.158 Y35.254
X51.15 Y35.303
X51.127 Y35.347
G3 X49.991 Y34.505 Z-1.553 I-0.568 J-0.421
X51.127 Y35.347 Z-1.764 I0.568 J0.421
X49.991 Y34.505 Z-1.975 I-0.568 J-0.421
X51.127 Y35.347 Z-2.186 I0.568 J0.421
X49.991 Y34.505 Z-2.397 I-0.568 J-0.421
X51.127 Y35.347 Z-2.607 I0.568 J0.421
X49.991 Y34.505 Z-2.818 I-0.568 J-0.421
X51.127 Y35.347 Z-3.029 I0.568 J0.421
X49.991 Y34.505 Z-3.24 I-0.568 J-0.421
X51.127 Y35.347 Z-3.451 I0.568 J0.421
X49.991 Y34.505 Z-3.662 I-0.568 J-0.421
X51.127 Y35.347 Z-3.872 I0.568 J0.421
X49.991 Y34.505 Z-4.083 I-0.568 J-0.421
X51.127 Y35.347 Z-4.294 I0.568 J0.421
X49.991 Y34.505 Z-4.505 I-0.568 J-0.421
X51.127 Y35.347 Z-4.716 I0.568 J0.421
X49.98 Y35.332 Z-4.843 I-0.568 J-0.421
X51.138 Y34.521 I0.579 J-0.406
X49.98 Y35.331 I-0.579 J0.405
G1 X49.959 Y35.286
X49.952 Y35.237
X49.961 Y35.188
X49.984 Y35.144
X50.02 Y35.11
X50.085 Y35.064
X50.125 Y35.036 Z-4.835
X50.161 Y35.011 Z-4.812
X50.19 Y34.991 Z-4.777
X50.209 Y34.978 Z-4.733
X50.215 Y34.973 Z-4.684
G0 Z5
X31.938 Y25.404
Z0.657
G1 Z-1.184 F400
X31.944 Y25.408 Z-1.233
X31.963 Y25.422 Z-1.277
X31.991 Y25.443 Z-1.312
X32.026 Y25.469 Z-1.335
X32.066 Y25.498 Z-1.343
X32.13 Y25.546
X32.164 Y25.581
X32.186 Y25.625
X32.194 Y25.675
X32.185 Y25.724
X32.163 Y25.768
G3 X31.027 Y24.926 Z-1.553 I-0.568 J-0.421
X32.163 Y25.768 Z-1.764 I0.568 J0.421
X31.027 Y24.926 Z-1.975 I-0.568 J-0.421
X32.163 Y25.768 Z-2.186 I0.568 J0.421
X31.027 Y24.926 Z-2.397 I-0.568 J-0.421
X32.163 Y25.768 Z-2.607 I0.568 J0.421
X31.027 Y24.926 Z-2.818 I-0.568 J-0.421
X32.163 Y25.768 Z-3.029 I0.568 J0.421
X31.027 Y24.926 Z-3.24 I-0.568 J-0.421
X32.163 Y25.768 Z-3.451 I0.568 J0.421
X31.027 Y24.926 Z-3.662 I-0.568 J-0.421
X32.163 Y25.768 Z-3.872 I0.568 J0.421
X31.027 Y24.926 Z-4.083 I-0.568 J-0.421
X32.163 Y25.768 Z-4.294 I0.568 J0.421
X31.027 Y24.926 Z-4.505 I-0.568 J-0.421
X32.163 Y25.768 Z-4.716 I0.568 J0.421
X31.016 Y25.752 Z-4.843 I-0.568 J-0.421
X32.174 Y24.942 I0.579 J-0.405
X31.016 Y25.752 I-0.579 J0.405
G1 X30.995 Y25.707
X30.988 Y25.658
X30.997 Y25.609
X31.02 Y25.565
X31.056 Y25.531
X31.121 Y25.485
X31.161 Y25.457 Z-4.835
X31.197 Y25.432 Z-4.812
X31.226 Y25.412 Z-4.777
X31.244 Y25.399 Z-4.733
X31.251 Y25.394 Z-4.684
G0 Z5
X36.107 Y19.781
Z0.657
G1 Z-1.184 F400
X36.114 Y19.785 Z-1.233
X36.132 Y19.799 Z-1.277
X36.16 Y19.82 Z-1.312
X36.195 Y19.846 Z-1.335
X36.235 Y19.875 Z-1.343
X36.299 Y19.922
X36.333 Y19.958
X36.356 Y20.002
X36.363 Y20.052
X36.355 Y20.1
X36.332 Y20.145
G3 X35.196 Y19.303 Z-1.553 I-0.568 J-0.421
X36.332 Y20.145 Z-1.764 I0.568 J0.421
X35.196 Y19.303 Z-1.975 I-0.568 J-0.421
X36.332 Y20.145 Z-2.186 I0.568 J0.421
X35.196 Y19.303 Z-2.397 I-0.568 J-0.421
X36.332 Y20.145 Z-2.607 I0.568 J0.421
X35.196 Y19.303 Z-2.818 I-0.568 J-0.421
X36.332 Y20.145 Z-3.029 I0.568 J0.421
X35.196 Y19.303 Z-3.24 I-0.568 J-0.421
X36.332 Y20.145 Z-3.451 I0.568 J0.421
X35.196 Y19.303 Z-3.662 I-0.568 J-0.421
X36.332 Y20.145 Z-3.872 I0.568 J0.421
X35.196 Y19.303 Z-4.083 I-0.568 J-0.421
X36.332 Y20.145 Z-4.294 I0.568 J0.421
X35.196 Y19.303 Z-4.505 I-0.568 J-0.421
X36.332 Y20.145 Z-4.716 I0.568 J0.421
X35.185 Y20.129 Z-4.843 I-0.568 J-0.421
X36.343 Y19.319 I0.579 J-0.405
X35.185 Y20.129 I-0.579 J0.405
G1 X35.164 Y20.084
X35.157 Y20.035
X35.166 Y19.986
X35.189 Y19.942
X35.225 Y19.908
X35.29 Y19.862
X35.33 Y19.834 Z-4.835
X35.366 Y19.809 Z-4.812
X35.395 Y19.789 Z-4.777
X35.413 Y19.776 Z-4.733
X35.42 Y19.771 Z-4.684
G0 Z5
X142.708 Y72.268
Z1
G1 Z-0.841 F400
Y72.26 Z-0.89
Y72.238 Z-0.935
Y72.203 Z-0.97
Y72.158 Z-0.992
Y72.109 Z-1
Y72.03
X142.716 Y71.981
X142.739 Y71.937
X142.774 Y71.902
X142.818 Y71.879
X142.867 Y71.871
G3 Y73.283 Z-1.211 I0 J0.706
Y71.871 Z-1.422 I0 J-0.706
Y73.283 Z-1.632 I0 J0.706
Y71.871 Z-1.843 I0 J-0.706
Y73.283 Z-2.054 I0 J0.706
Y71.871 Z-2.265 I0 J-0.706
Y73.283 Z-2.476 I0 J0.706
Y71.871 Z-2.686 I0 J-0.706
Y73.283 Z-2.897 I0 J0.706
Y71.871 Z-3.108 I0 J-0.706
Y73.283 Z-3.319 I0 J0.706
Y71.871 Z-3.53 I0 J-0.706
Y73.283 Z-3.741 I0 J0.706
Y71.871 Z-3.951 I0 J-0.706
Y73.283 Z-4.162 I0 J0.706
Y71.871 Z-4.373 I0 J-0.706
X143.537 Y72.801 Z-4.5 I0 J0.706
X142.197 Y72.354 I-0.67 J-0.224
X143.537 Y72.801 I0.67 J0.223
G1 X143.514 Y72.845
X143.479 Y72.88
X143.434 Y72.902
X143.385 Y72.91
X143.336 Y72.901
X143.261 Y72.876
X143.214 Y72.861 Z-4.492
X143.172 Y72.847 Z-4.47
X143.139 Y72.836 Z-4.435
X143.118 Y72.828 Z-4.39
X143.11 Y72.826 Z-4.341
G0 Z5
X149.708 Y72.268
Z1
G1 Z-0.841 F400
Y72.26 Z-0.89
Y72.238 Z-0.935
Y72.203 Z-0.97
Y72.158 Z-0.992
Y72.109 Z-1
Y72.03
X149.716 Y71.981
X149.739 Y71.937
X149.774 Y71.902
X149.818 Y71.879
X149.867 Y71.871
G3 Y73.283 Z-1.211 I0 J0.706
Y71.871 Z-1.422 I0 J-0.706
Y73.283 Z-1.632 I0 J0.706
Y71.871 Z-1.843 I0 J-0.706
Y73.283 Z-2.054 I0 J0.706
Y71.871 Z-2.265 I0 J-0.706
Y73.283 Z-2.476 I0 J0.706
Y71.871 Z-2.686 I0 J-0.706
Y73.283 Z-2.897 I0 J0.706
Y71.871 Z-3.108 I0 J-0.706
Y73.283 Z-3.319 I0 J0.706
Y71.871 Z-3.53 I0 J-0.706
Y73.283 Z-3.741 I0 J0.706
Y71.871 Z-3.951 I0 J-0.706
Y73.283 Z-4.162 I0 J0.706
Y71.871 Z-4.373 I0 J-0.706
X150.537 Y72.801 Z-4.5 I0 J0.706
X149.197 Y72.354 I-0.67 J-0.224
X150.537 Y72.801 I0.67 J0.223
G1 X150.514 Y72.845
X150.479 Y72.88
X150.434 Y72.902
X150.385 Y72.91
X150.336 Y72.901
X150.261 Y72.876
X150.214 Y72.861 Z-4.492
X150.172 Y72.847 Z-4.47
X150.139 Y72.836 Z-4.435
X150.118 Y72.828 Z-4.39
X150.11 Y72.826 Z-4.341
G0 Z5
X182.378 Y72.168
Z1
G1 Z-0.841 F400
Y72.16 Z-0.89
Y72.138 Z-0.935
Y72.103 Z-0.97
Y72.058 Z-0.992
Y72.009 Z-1
Y71.93
X182.386 Y71.881
X182.409 Y71.837
X182.444 Y71.802
X182.488 Y71.779
X182.537 Y71.771
G3 Y73.383 Z-1.225 I0 J0.806
Y71.771 Z-1.45 I0 J-0.806
Y73.383 Z-1.675 I0 J0.806
Y71.771 Z-1.899 I0 J-0.806
Y73.383 Z-2.124 I0 J0.806
Y71.771 Z-2.349 I0 J-0.806
Y73.383 Z-2.574 I0 J0.806
Y71.771 Z-2.799 I0 J-0.806
Y73.383 Z-3.024 I0 J0.806
Y71.771 Z-3.249 I0 J-0.806
Y73.383 Z-3.474 I0 J0.806
Y71.771 Z-3.698 I0 J-0.806
Y73.383 Z-3.923 I0 J0.806
Y71.771 Z-4.148 I0 J-0.806
Y73.383 Z-4.373 I0 J0.806
X181.748 Y72.414 Z-4.5 I0 J-0.806
X183.326 Y72.74 I0.789 J0.163
X181.748 Y72.414 I-0.789 J-0.163
G1 X181.765 Y72.368
X181.796 Y72.329
X181.838 Y72.302
X181.886 Y72.289
X181.935 Y72.291
X182.013 Y72.307
X182.061 Y72.317 Z-4.492
X182.104 Y72.326 Z-4.47
X182.139 Y72.333 Z-4.435
X182.161 Y72.338 Z-4.39
X182.168 Y72.339 Z-4.341
G0 Z5
X187.67 Y58.245
Z1
G1 Z-0.841 F400
Y58.253 Z-0.89
Y58.276 Z-0.935
Y58.311 Z-0.97
Y58.355 Z-0.992
Y58.404 Z-1
Y58.484
X187.662 Y58.533
X187.64 Y58.577
X187.605 Y58.612
X187.56 Y58.635
X187.511 Y58.642
G3 Y57.13 Z-1.218 I0 J-0.756
Y58.642 Z-1.436 I0 J0.756
Y57.13 Z-1.654 I0 J-0.756
Y58.642 Z-1.871 I0 J0.756
Y57.13 Z-2.089 I0 J-0.756
Y58.642 Z-2.307 I0 J0.756
Y57.13 Z-2.525 I0 J-0.756
Y58.642 Z-2.743 I0 J0.756
Y57.13 Z-2.961 I0 J-0.756
Y58.642 Z-3.178 I0 J0.756
Y57.13 Z-3.396 I0 J-0.756
Y58.642 Z-3.614 I0 J0.756
Y57.13 Z-3.832 I0 J-0.756
Y58.642 Z-4.05 I0 J0.756
Y57.13 Z-4.268 I0 J-0.756
X188.263 Y57.965 Z-4.384 I0 J0.756
X187.353 Y58.626 Z-4.5 I-0.752 J-0.079
X187.669 Y57.146 I0.158 J-0.74
X187.353 Y58.626 I-0.158 J0.74
G1 X187.307 Y58.608
X187.268 Y58.577
X187.241 Y58.535
X187.229 Y58.487
X187.231 Y58.437
X187.248 Y58.36
X187.258 Y58.312 Z-4.492
X187.267 Y58.268 Z-4.47
X187.275 Y58.234 Z-4.435
X187.279 Y58.212 Z-4.39
X187.281 Y58.204 Z-4.341
G0 Z5
X187.905 Y35.44
Z1
G1 Z-0.841 F400
Y35.447 Z-0.89
Y35.47 Z-0.935
Y35.505 Z-0.97
Y35.549 Z-0.992
Y35.598 Z-1
Y35.678
X187.897 Y35.727
X187.875 Y35.771
X187.84 Y35.806
X187.795 Y35.829
X187.746 Y35.837
G3 Y34.323 Z-1.218 I0 J-0.757
Y35.837 Z-1.436 I0 J0.757
Y34.323 Z-1.654 I0 J-0.757
Y35.837 Z-1.871 I0 J0.757
Y34.323 Z-2.089 I0 J-0.757
Y35.837 Z-2.307 I0 J0.757
Y34.323 Z-2.525 I0 J-0.757
Y35.837 Z-2.743 I0 J0.757
Y34.323 Z-2.961 I0 J-0.757
Y35.837 Z-3.178 I0 J0.757
Y34.323 Z-3.396 I0 J-0.757
Y35.837 Z-3.614 I0 J0.757
Y34.323 Z-3.832 I0 J-0.757
Y35.837 Z-4.05 I0 J0.757
Y34.323 Z-4.268 I0 J-0.757
X188.499 Y35.16 Z-4.384 I0 J0.757
X187.588 Y35.821 Z-4.5 I-0.753 J-0.08
X187.905 Y34.339 I0.158 J-0.741
X187.588 Y35.821 I-0.159 J0.741
G1 X187.542 Y35.802
X187.504 Y35.771
X187.477 Y35.729
X187.464 Y35.681
X187.466 Y35.631
X187.483 Y35.554
X187.493 Y35.506 Z-4.492
X187.502 Y35.463 Z-4.47
X187.51 Y35.428 Z-4.435
X187.514 Y35.406 Z-4.39
X187.516 Y35.399 Z-4.341
G0 Z15

(2D Contour2)
G0 X97.435 Y51.616
Z15
Z5
G1 Z0.317 F133.33
Z-1.341
Y51.624 Z-1.39 F400
Y51.646 Z-1.435
Y51.682 Z-1.47
Y51.726 Z-1.492
Y51.775 Z-1.5
Y51.934
X97.427 Y51.983
X97.404 Y52.027
X97.369 Y52.062
X97.325 Y52.085
X97.276 Y52.092
X91.921
G2 X70.994 Y62.806 I0 J25.794
G1 X0.471 Y160.672
G2 X1.115 Y161.93 I0.644 J0.464
G1 X13.441
G2 X14.085 Y161.6 I0 J-0.794
G1 X77.402 Y73.734
G3 X97.041 Y63.679 I19.639 J14.152
G1 X194.511 Y63.68
G2 X198.305 Y59.886 I0 J-3.794
G1 Y55.886
G2 X194.511 Y52.092 I-3.794 J0
G1 X97.276
X97.227 Y52.085
X97.182 Y52.062
X97.147 Y52.027
X97.125 Y51.983
X97.117 Y51.934
Y51.775
Y51.726 Z-1.492
Y51.682 Z-1.47
Y51.646 Z-1.435
Y51.624 Z-1.39
Y51.616 Z-1.341
G0 Z5
Y41.35
G1 Z0.317 F133.33
Z-1.341
Y41.343 Z-1.39 F400
Y41.32 Z-1.435
Y41.285 Z-1.47
Y41.241 Z-1.492
Y41.192 Z-1.5
Y41.033
X97.125 Y40.984
X97.147 Y40.939
X97.182 Y40.904
X97.227 Y40.882
X97.276 Y40.874
X194.746
G2 X198.54 Y37.08 I0 J-3.794
G1 Y33.08
G2 X194.746 Y29.286 I-3.794 J0
G1 X92.156 Y29.287
G2 X71.23 Y40.001 I0 J25.793
G1 X0.706 Y137.866
G2 X1.35 Y139.124 I0.644 J0.464
G1 X13.676
G2 X14.32 Y138.794 I0 J-0.794
G1 X77.637 Y50.929
G3 X97.276 Y40.874 I19.639 J14.151
G1 X97.325 Y40.882
X97.369 Y40.904
X97.404 Y40.939
X97.427 Y40.984
X97.435 Y41.033
Y41.192
Y41.241 Z-1.492
Y41.285 Z-1.47
Y41.32 Z-1.435
Y41.343 Z-1.39
Y41.35 Z-1.341
G0 Z5
X97.117
G1 Z-1.183 F133.33
Z-2.841
Y41.343 Z-2.89 F400
Y41.32 Z-2.935
Y41.285 Z-2.97
Y41.241 Z-2.992
Y41.192 Z-3
Y41.033
X97.125 Y40.984
X97.147 Y40.939
X97.182 Y40.904
X97.227 Y40.882
X97.276 Y40.874
X146.341
Z-2.5
X152.929
Z-3 F133.33
X194.746 F400
G2 X198.54 Y37.08 I0 J-3.794
G1 Y33.08
G2 X194.746 Y29.286 I-3.794 J0
G1 X92.156 Y29.287
G2 X71.23 Y40.001 I0 J25.793
G1 X53.296 Y64.887
Z-2.5
X49.445 Y70.231
Z-3 F133.33
X0.706 Y137.866 F400
G2 X1.35 Y139.124 I0.644 J0.464
G1 X13.676
G2 X14.32 Y138.794 I0 J-0.794
G1 X19.605 Y131.459
Z-2.5
X23.457 Y126.115
Z-3 F133.33
X43.022 Y98.963 F400
Z-2.5
X46.874 Y93.619
Z-3 F133.33
X77.637 Y50.929 F400
G3 X97.276 Y40.874 I19.639 J14.151
G1 X97.325 Y40.882
X97.369 Y40.904
X97.404 Y40.939
X97.427 Y40.984
X97.435 Y41.033
Y41.192
Y41.241 Z-2.992
Y41.285 Z-2.97
Y41.32 Z-2.935
Y41.343 Z-2.89
Y41.35 Z-2.841
G0 Z5
Y51.616
G1 Z-1.183 F133.33
Z-2.841
Y51.624 Z-2.89 F400
Y51.646 Z-2.935
Y51.682 Z-2.97
Y51.726 Z-2.992
Y51.775 Z-3
Y51.934
X97.427 Y51.983
X97.404 Y52.027
X97.369 Y52.062
X97.325 Y52.085
X97.276 Y52.092
X91.921
G2 X70.994 Y62.806 I0 J25.794
G1 X38.373 Y108.076
Z-2.5
X34.521 Y113.42
Z-3 F133.33
X0.471 Y160.672 F400
G2 X1.115 Y161.93 I0.644 J0.464
G1 X13.441
G2 X14.085 Y161.6 I0 J-0.794
G1 X18.206 Y155.881
Z-2.5
X22.057 Y150.537
Z-3 F133.33
X60.875 Y96.669 F400
Z-2.5
X64.726 Y91.325
Z-3 F133.33
X77.402 Y73.734 F400
G3 X97.041 Y63.679 I19.639 J14.152
G1 X144.846 Y63.68
Z-2.5
X151.434
Z-3 F133.33
X194.511 F400
G2 X198.305 Y59.886 I0 J-3.794
G1 Y55.886
G2 X194.511 Y52.092 I-3.794 J0
G1 X108.289
Z-2.5
X101.701
Z-3 F133.33
X97.276 F400
X97.227 Y52.085
X97.182 Y52.062
X97.147 Y52.027
X97.125 Y51.983
X97.117 Y51.934
Y51.775
Y51.726 Z-2.992
Y51.682 Z-2.97
Y51.646 Z-2.935
Y51.624 Z-2.89
Y51.616 Z-2.841
G0 Z5
X97.435
G1 Z-2.682 F133.33
Z-4.341
Y51.624 Z-4.39 F400
Y51.646 Z-4.435
Y51.682 Z-4.47
Y51.726 Z-4.492
Y51.775 Z-4.5
Y51.934
X97.427 Y51.983
X97.404 Y52.027
X97.369 Y52.062
X97.325 Y52.085
X97.276 Y52.092
X91.921
G2 X70.994 Y62.806 I0 J25.794
G1 X38.373 Y108.076
Z-2.5
X34.521 Y113.42
Z-4.5 F133.33
X0.471 Y160.672 F400
G2 X1.115 Y161.93 I0.644 J0.464
G1 X13.441
G2 X14.085 Y161.6 I0 J-0.794
G1 X18.206 Y155.881
Z-2.5
X22.057 Y150.537
Z-4.5 F133.33
X60.875 Y96.669 F400
Z-2.5
X64.726 Y91.325
Z-4.5 F133.33
X77.402 Y73.734 F400
G3 X97.041 Y63.679 I19.639 J14.152
G1 X144.846 Y63.68
Z-2.5
X151.434
Z-4.5 F133.33
X194.511 F400
G2 X198.305 Y59.886 I0 J-3.794
G1 Y55.886
G2 X194.511 Y52.092 I-3.794 J0
G1 X108.289
Z-2.5
X101.701
Z-4.5 F133.33
X97.276 F400
X97.227 Y52.085
X97.182 Y52.062
X97.147 Y52.027
X97.125 Y51.983
X97.117 Y51.934
Y51.775
Y51.726 Z-4.492
Y51.682 Z-4.47
Y51.646 Z-4.435
Y51.624 Z-4.39
Y51.616 Z-4.341
G0 Z5
Y41.35
G1 Z-2.682 F133.33
Z-4.341
Y41.343 Z-4.39 F400
Y41.32 Z-4.435
Y41.285 Z-4.47
Y41.241 Z-4.492
Y41.192 Z-4.5
Y41.033
X97.125 Y40.984
X97.147 Y40.939
X97.182 Y40.904
X97.227 Y40.882
X97.276 Y40.874
X146.341
Z-2.5
X152.929
Z-4.5 F133.33
X194.746 F400
G2 X198.54 Y37.08 I0 J-3.794
G1 Y33.08
G2 X194.746 Y29.286 I-3.794 J0
G1 X92.156 Y29.287
G2 X71.23 Y40.001 I0 J25.793
G1 X53.296 Y64.887
Z-2.5
X49.445 Y70.231
Z-4.5 F133.33
X0.706 Y137.866 F400
G2 X1.35 Y139.124 I0.644 J0.464
G1 X13.676
G2 X14.32 Y138.794 I0 J-0.794
G1 X19.605 Y131.459
Z-2.5
X23.457 Y126.115
Z-4.5 F133.33
X43.022 Y98.963 F400
Z-2.5
X46.874 Y93.619
Z-4.5 F133.33
X77.637 Y50.929 F400
G3 X97.276 Y40.874 I19.639 J14.151
G1 X97.325 Y40.882
X97.369 Y40.904
X97.404 Y40.939
X97.427 Y40.984
X97.435 Y41.033
Y41.192
Y41.241 Z-4.492
Y41.285 Z-4.47
Y41.32 Z-4.435
Y41.343 Z-4.39
Y41.35 Z-4.341
G0 Z5
X0.128 Y50.675
G1 Z0.317 F133.33
Z-1.341
X0.129 Y50.682 Z-1.39 F400
Y50.705 Z-1.435
X0.13 Y50.74 Z-1.47
X0.131 Y50.784 Z-1.492
X0.132 Y50.833 Z-1.5
X0.136 Y50.992
X0.129 Y51.041
X0.108 Y51.086
X0.074 Y51.122
X0.03 Y51.146
X-0.019 Y51.155
G2 X-0.793 Y51.948 I0.019 J0.793
G1 X-0.794 Y61.948
G2 X0 Y62.742 I0.794 J0
G1 X49.67
G2 X53.464 Y58.948 I0 J-3.794
G1 Y54.948
G2 X49.67 Y51.154 I-3.794 J0
G1 X0
X-0.019 Y51.155
X-0.068 Y51.148
X-0.113 Y51.126
X-0.149 Y51.092
X-0.173 Y51.049
X-0.181 Y51
X-0.185 Y50.841
X-0.186 Y50.792 Z-1.492
X-0.188 Y50.748 Z-1.47
Y50.713 Z-1.435
X-0.189 Y50.69 Z-1.39
Y50.682 Z-1.341
G0 Z5
X0.128 Y50.675
G1 Z-1.183 F133.33
Z-2.841
X0.129 Y50.682 Z-2.89 F400
Y50.705 Z-2.935
X0.13 Y50.74 Z-2.97
X0.131 Y50.784 Z-2.992
X0.132 Y50.833 Z-3
X0.136 Y50.992
X0.129 Y51.041
X0.108 Y51.086
X0.074 Y51.122
X0.03 Y51.146
X-0.019 Y51.155
G2 X-0.793 Y51.948 I0.019 J0.793
G1 X-0.794 Y61.948
G2 X0 Y62.742 I0.794 J0
G1 X39.03
Z-2.5
X45.617
Z-3 F133.33
X49.67 F400
G2 X53.464 Y58.948 I0 J-3.794
G1 Y54.948
G2 X49.67 Y51.154 I-3.794 J0
G1 X11.919
Z-2.5
X5.332
Z-3 F133.33
X0 F400
X-0.019 Y51.155
X-0.068 Y51.148
X-0.113 Y51.126
X-0.149 Y51.092
X-0.173 Y51.049
X-0.181 Y51
X-0.185 Y50.841
X-0.186 Y50.792 Z-2.992
X-0.188 Y50.748 Z-2.97
Y50.713 Z-2.935
X-0.189 Y50.69 Z-2.89
Y50.682 Z-2.841
G0 Z5
X0.128 Y50.675
G1 Z-2.682 F133.33
Z-4.341
X0.129 Y50.682 Z-4.39 F400
Y50.705 Z-4.435
X0.13 Y50.74 Z-4.47
X0.131 Y50.784 Z-4.492
X0.132 Y50.833 Z-4.5
X0.136 Y50.992
X0.129 Y51.041
X0.108 Y51.086
X0.074 Y51.122
X0.03 Y51.146
X-0.019 Y51.155
G2 X-0.793 Y51.948 I0.019 J0.793
G1 X-0.794 Y61.948
G2 X0 Y62.742 I0.794 J0
G1 X39.03
Z-2.5
X45.617
Z-4.5 F133.33
X49.67 F400
G2 X53.464 Y58.948 I0 J-3.794
G1 Y54.948
G2 X49.67 Y51.154 I-3.794 J0
G1 X11.919
Z-2.5
X5.332
Z-4.5 F133.33
X0 F400
X-0.019 Y51.155
X-0.068 Y51.148
X-0.113 Y51.126
X-0.149 Y51.092
X-0.173 Y51.049
X-0.181 Y51
X-0.185 Y50.841
X-0.186 Y50.792 Z-4.492
X-0.188 Y50.748 Z-4.47
Y50.713 Z-4.435
X-0.189 Y50.69 Z-4.39
Y50.682 Z-4.341
G0 Z5
X138.597 Y67.419
G1 Z0.317 F133.33
Z-1.341
X138.605 Z-1.39 F400
X138.627 Z-1.435
X138.662 Z-1.47
X138.707 Z-1.492
X138.756 Z-1.5
X138.915
X138.964 Y67.427
X139.008 Y67.449
X139.043 Y67.484
X139.065 Y67.528
X139.073 Y67.577
Y77.577
G2 X139.867 Y78.371 I0.794 J0
G1 X189.537
G2 X193.331 Y74.577 I0 J-3.794
G1 Y70.577
G2 X189.537 Y66.783 I-3.794 J0
G1 X139.867 Y66.784
G2 X139.074 Y67.577 I0 J0.793
G1 X139.065 Y67.627
X139.043 Y67.671
X139.008 Y67.706
X138.964 Y67.728
X138.915 Y67.736
X138.756
X138.707 Z-1.492
X138.662 Z-1.47
X138.627 Z-1.435
X138.605 Z-1.39
X138.597 Z-1.341
G0 Z5
Y67.419
G1 Z-1.183 F133.33
Z-2.841
X138.605 Z-2.89 F400
X138.627 Z-2.935
X138.662 Z-2.97
X138.707 Z-2.992
X138.756 Z-3
X138.915
X138.964 Y67.427
X139.008 Y67.449
X139.043 Y67.484
X139.065 Y67.528
X139.073 Y67.577
Y77.577
G2 X139.867 Y78.371 I0.794 J0
G1 X177.875
Z-2.5
X184.463
Z-3 F133.33
X189.537 F400
G2 X193.331 Y74.577 I0 J-3.794
G1 Y70.577
G2 X189.537 Y66.783 I-3.794 J0
G1 X155.805 Y66.784
Z-2.5
X149.217
Z-3 F133.33
X139.867 F400
G2 X139.074 Y67.577 I0 J0.793
G1 X139.065 Y67.627
X139.043 Y67.671
X139.008 Y67.706
X138.964 Y67.728
X138.915 Y67.736
X138.756
X138.707 Z-2.992
X138.662 Z-2.97
X138.627 Z-2.935
X138.605 Z-2.89
X138.597 Z-2.841
G0 Z5
Y67.419
G1 Z-2.682 F133.33
Z-4.341
X138.605 Z-4.39 F400
X138.627 Z-4.435
X138.662 Z-4.47
X138.707 Z-4.492
X138.756 Z-4.5
X138.915
X138.964 Y67.427
X139.008 Y67.449
X139.043 Y67.484
X139.065 Y67.528
X139.073 Y67.577
Y77.577
G2 X139.867 Y78.371 I0.794 J0
G1 X177.875
Z-2.5
X184.463
Z-4.5 F133.33
X189.537 F400
G2 X193.331 Y74.577 I0 J-3.794
G1 Y70.577
G2 X189.537 Y66.783 I-3.794 J0
G1 X155.805 Y66.784
Z-2.5
X149.217
Z-4.5 F133.33
X139.867 F400
G2 X139.074 Y67.577 I0 J0.793
G1 X139.065 Y67.627
X139.043 Y67.671
X139.008 Y67.706
X138.964 Y67.728
X138.915 Y67.736
X138.756
X138.707 Z-4.492
X138.662 Z-4.47
X138.627 Z-4.435
X138.605 Z-4.39
X138.597 Z-4.341
G0 Z15
X49.758 Y25.48
Z5
G1 Z0.317 F133.33
Z-1.341
X49.764 Y25.484 Z-1.39 F400
X49.782 Y25.498 Z-1.435
X49.81 Y25.519 Z-1.47
X49.846 Y25.545 Z-1.492
X49.885 Y25.574 Z-1.5
X50.013 Y25.669
X50.048 Y25.704
X50.07 Y25.749
X50.077 Y25.798
X50.069 Y25.847
X50.046 Y25.891
X39.949 Y39.508
G2 X40.114 Y40.619 I0.638 J0.473
G1 X48.147 Y46.574
G2 X49.257 Y46.409 I0.473 J-0.637
G1 X57.084 Y35.854
G3 X76.857 Y26.067 I19.445 J14.417
G1 X185.15 Y27.535
G2 X185.798 Y27.214 I0.011 J-0.793
G1 X193.14 Y17.313
G2 X192.513 Y16.046 I-0.638 J-0.473
G1 X71.895 Y14.411
G2 X50.825 Y24.84 I-0.35 J25.791
G1 X50.046 Y25.891
X50.01 Y25.926
X49.966 Y25.948
X49.917 Y25.955
X49.868 Y25.947
X49.824 Y25.924
X49.696 Y25.829
X49.657 Y25.8 Z-1.492
X49.621 Y25.774 Z-1.47
X49.593 Y25.753 Z-1.435
X49.575 Y25.739 Z-1.39
X49.569 Y25.735 Z-1.341
G0 Z5
X49.758 Y25.48
G1 Z-1.183 F133.33
Z-2.841
X49.764 Y25.484 Z-2.89 F400
X49.782 Y25.498 Z-2.935
X49.81 Y25.519 Z-2.97
X49.846 Y25.545 Z-2.992
X49.885 Y25.574 Z-3
X50.013 Y25.669
X50.048 Y25.704
X50.07 Y25.749
X50.077 Y25.798
X50.069 Y25.847
X50.046 Y25.891
X39.949 Y39.508
G2 X40.114 Y40.619 I0.638 J0.473
G1 X41.635 Y41.746
Z-2.843
X46.927 Y45.67
Z-3 F133.33
X48.147 Y46.574 F400
G2 X49.257 Y46.409 I0.473 J-0.637
G1 X57.084 Y35.854
G3 X76.857 Y26.067 I19.445 J14.417
G1 X122.479 Y26.685
Z-2.843
X129.066 Y26.775
Z-3 F133.33
X185.15 Y27.535 F400
G2 X185.798 Y27.214 I0.011 J-0.793
G1 X187.53 Y24.879
Z-2.843
X191.453 Y19.588
Z-3 F133.33
X193.14 Y17.313 F400
G2 X192.513 Y16.046 I-0.638 J-0.473
G1 X119.294 Y15.054
Z-2.843
X112.707 Y14.964
Z-3 F133.33
X71.895 Y14.411 F400
G2 X50.825 Y24.84 I-0.35 J25.791
G1 X50.046 Y25.891
X50.01 Y25.926
X49.966 Y25.948
X49.917 Y25.955
X49.868 Y25.947
X49.824 Y25.924
X49.696 Y25.829
X49.657 Y25.8 Z-2.992
X49.621 Y25.774 Z-2.97
X49.593 Y25.753 Z-2.935
X49.575 Y25.739 Z-2.89
X49.569 Y25.735 Z-2.841
G0 Z5
X49.758 Y25.48
G1 Z-2.682 F133.33
Z-3.763
X49.764 Y25.484 Z-3.812 F400
X49.782 Y25.498 Z-3.856
X49.81 Y25.519 Z-3.891
X49.846 Y25.545 Z-3.914
X49.885 Y25.574 Z-3.921
X50.013 Y25.669
X50.048 Y25.704
X50.07 Y25.749
X50.077 Y25.798
X50.069 Y25.847
X50.046 Y25.891
X39.949 Y39.508
G2 X40.114 Y40.619 I0.638 J0.473
G1 X41.635 Y41.746
Z-2.843
X46.927 Y45.67
Z-3.921 F133.33
X48.147 Y46.574 F400
G2 X49.257 Y46.409 I0.473 J-0.637
G1 X57.084 Y35.854
G3 X76.857 Y26.067 I19.445 J14.417
G1 X122.479 Y26.685
Z-2.843
X129.066 Y26.775
Z-3.921 F133.33
X185.15 Y27.535 F400
G2 X185.798 Y27.214 I0.011 J-0.793
G1 X187.53 Y24.879
Z-2.843
X191.453 Y19.588
Z-3.921 F133.33
X193.14 Y17.313 F400
G2 X192.513 Y16.046 I-0.638 J-0.473
G1 X119.294 Y15.054
Z-2.843
X112.707 Y14.964
Z-3.921 F133.33
X71.895 Y14.411 F400
G2 X50.825 Y24.84 I-0.35 J25.791
G1 X50.046 Y25.891
X50.01 Y25.926
X49.966 Y25.948
X49.917 Y25.955
X49.868 Y25.947
X49.824 Y25.924
X49.696 Y25.829
X49.657 Y25.8 Z-3.914
X49.621 Y25.774 Z-3.891
X49.593 Y25.753 Z-3.856
X49.575 Y25.739 Z-3.812
X49.569 Y25.735 Z-3.763
G0 Z5
X49.758 Y25.48
G1 Z-3.604 F133.33
Z-4.684
X49.764 Y25.484 Z-4.733 F400
X49.782 Y25.498 Z-4.777
X49.81 Y25.519 Z-4.812
X49.846 Y25.545 Z-4.835
X49.885 Y25.574 Z-4.843
X50.013 Y25.669
X50.048 Y25.704
X50.07 Y25.749
X50.077 Y25.798
X50.069 Y25.847
X50.046 Y25.891
X39.949 Y39.508
G2 X40.114 Y40.619 I0.638 J0.473
G1 X41.635 Y41.746
Z-2.843
X46.927 Y45.67
Z-4.843 F133.33
X48.147 Y46.574 F400
G2 X49.257 Y46.409 I0.473 J-0.637
G1 X57.084 Y35.854
G3 X76.857 Y26.067 I19.445 J14.417
G1 X122.479 Y26.685
Z-2.843
X129.066 Y26.775
Z-4.843 F133.33
X185.15 Y27.535 F400
G2 X185.798 Y27.214 I0.011 J-0.793
G1 X187.53 Y24.879
Z-2.843
X191.453 Y19.588
Z-4.843 F133.33
X193.14 Y17.313 F400
G2 X192.513 Y16.046 I-0.638 J-0.473
G1 X119.294 Y15.054
Z-2.843
X112.707 Y14.964
Z-4.843 F133.33
X71.895 Y14.411 F400
G2 X50.825 Y24.84 I-0.35 J25.791
G1 X50.046 Y25.891
X50.01 Y25.926
X49.966 Y25.948
X49.917 Y25.955
X49.868 Y25.947
X49.824 Y25.924
X49.696 Y25.829
X49.657 Y25.8 Z-4.835
X49.621 Y25.774 Z-4.812
X49.593 Y25.753 Z-4.777
X49.575 Y25.739 Z-4.733
X49.569 Y25.735 Z-4.684
G0 Z5
X43.362 Y20.048
G1 Z0.317 F133.33
Z-1.341
X43.356 Y20.043 Z-1.39 F400
X43.338 Y20.029 Z-1.435
X43.311 Y20.007 Z-1.47
X43.277 Y19.978 Z-1.492
X43.239 Y19.947 Z-1.5
X43.117 Y19.846
X43.084 Y19.808
X43.065 Y19.763
X43.06 Y19.713
X43.071 Y19.665
X43.096 Y19.622
G3 X62.062 Y10.864 I18.638 J15.446
G1 X170.355 Y12.333
G2 X171.003 Y12.012 I0.011 J-0.793
G1 X178.345 Y2.111
G2 X177.718 Y0.844 I-0.638 J-0.473
G1 X57.1 Y-0.791
G2 X36.03 Y9.638 I-0.35 J25.791
G1 X25.154 Y24.306
G2 X25.319 Y25.417 I0.638 J0.473
G1 X33.352 Y31.372
G2 X34.462 Y31.207 I0.473 J-0.637
G1 X42.289 Y20.652
G3 X43.096 Y19.622 I19.445 J14.416
G1 X43.134 Y19.589
X43.179 Y19.57
X43.229 Y19.565
X43.277 Y19.576
X43.32 Y19.601
X43.442 Y19.703
X43.48 Y19.734 Z-1.492
X43.514 Y19.762 Z-1.47
X43.541 Y19.784 Z-1.435
X43.558 Y19.799 Z-1.39
X43.564 Y19.804 Z-1.341
G0 Z5
X43.362 Y20.048
G1 Z-1.183 F133.33
Z-2.841
X43.356 Y20.043 Z-2.89 F400
X43.338 Y20.029 Z-2.935
X43.311 Y20.007 Z-2.97
X43.277 Y19.978 Z-2.992
X43.239 Y19.947 Z-3
X43.117 Y19.846
X43.084 Y19.808
X43.065 Y19.763
X43.06 Y19.713
X43.071 Y19.665
X43.096 Y19.622
G3 X62.062 Y10.864 I18.638 J15.446
G1 X94.496 Y11.304
Z-2.843
X101.083 Y11.394
Z-3 F133.33
X170.355 Y12.333 F400
G2 X171.003 Y12.012 I0.011 J-0.793
G1 X173.113 Y9.167
Z-2.843
X177.036 Y3.876
Z-3 F133.33
X178.345 Y2.111 F400
G2 X177.718 Y0.844 I-0.638 J-0.473
G1 X67.57 Y-0.649
Z-2.843
X60.984 Y-0.739
Z-3 F133.33
X57.1 Y-0.791 F400
G2 X36.03 Y9.638 I-0.35 J25.791
G1 X25.154 Y24.306
G2 X25.319 Y25.417 I0.638 J0.473
G1 X26.47 Y26.27
Z-2.843
X31.761 Y30.193
Z-3 F133.33
X33.352 Y31.372 F400
G2 X34.462 Y31.207 I0.473 J-0.637
G1 X42.289 Y20.652
G3 X43.096 Y19.622 I19.445 J14.416
G1 X43.134 Y19.589
X43.179 Y19.57
X43.229 Y19.565
X43.277 Y19.576
X43.32 Y19.601
X43.442 Y19.703
X43.48 Y19.734 Z-2.992
X43.514 Y19.762 Z-2.97
X43.541 Y19.784 Z-2.935
X43.558 Y19.799 Z-2.89
X43.564 Y19.804 Z-2.841
G0 Z5
X43.362 Y20.048
G1 Z-2.682 F133.33
Z-3.763
X43.356 Y20.043 Z-3.812 F400
X43.338 Y20.029 Z-3.856
X43.311 Y20.007 Z-3.891
X43.277 Y19.978 Z-3.914
X43.239 Y19.947 Z-3.921
X43.117 Y19.846
X43.084 Y19.808
X43.065 Y19.763
X43.06 Y19.713
X43.071 Y19.665
X43.096 Y19.622
G3 X62.062 Y10.864 I18.638 J15.446
G1 X94.496 Y11.304
Z-2.843
X101.083 Y11.394
Z-3.921 F133.33
X170.355 Y12.333 F400
G2 X171.003 Y12.012 I0.011 J-0.793
G1 X173.113 Y9.167
Z-2.843
X177.036 Y3.876
Z-3.921 F133.33
X178.345 Y2.111 F400
G2 X177.718 Y0.844 I-0.638 J-0.473
G1 X67.57 Y-0.649
Z-2.843
X60.984 Y-0.739
Z-3.921 F133.33
X57.1 Y-0.791 F400
G2 X36.03 Y9.638 I-0.35 J25.791
G1 X25.154 Y24.306
G2 X25.319 Y25.417 I0.638 J0.473
G1 X26.47 Y26.27
Z-2.843
X31.761 Y30.193
Z-3.921 F133.33
X33.352 Y31.372 F400
G2 X34.462 Y31.207 I0.473 J-0.637
G1 X42.289 Y20.652
G3 X43.096 Y19.622 I19.445 J14.416
G1 X43.134 Y19.589
X43.179 Y19.57
X43.229 Y19.565
X43.277 Y19.576
X43.32 Y19.601
X43.442 Y19.703
X43.48 Y19.734 Z-3.914
X43.514 Y19.762 Z-3.891
X43.541 Y19.784 Z-3.856
X43.558 Y19.799 Z-3.812
X43.564 Y19.804 Z-3.763
G0 Z5
X43.362 Y20.048
G1 Z-3.604 F133.33
Z-4.684
X43.356 Y20.043 Z-4.733 F400
X43.338 Y20.029 Z-4.777
X43.311 Y20.007 Z-4.812
X43.277 Y19.978 Z-4.835
X43.239 Y19.947 Z-4.843
X43.117 Y19.846
X43.084 Y19.808
X43.065 Y19.763
X43.06 Y19.713
X43.071 Y19.665
X43.096 Y19.622
G3 X62.062 Y10.864 I18.638 J15.446
G1 X94.496 Y11.304
Z-2.843
X101.083 Y11.394
Z-4.843 F133.33
X170.355 Y12.333 F400
G2 X171.003 Y12.012 I0.011 J-0.793
G1 X173.113 Y9.167
Z-2.843
X177.036 Y3.876
Z-4.843 F133.33
X178.345 Y2.111 F400
G2 X177.718 Y0.844 I-0.638 J-0.473
G1 X67.57 Y-0.649
Z-2.843
X60.984 Y-0.739
Z-4.843 F133.33
X57.1 Y-0.791 F400
G2 X36.03 Y9.638 I-0.35 J25.791
G1 X25.154 Y24.306
G2 X25.319 Y25.417 I0.638 J0.473
G1 X26.47 Y26.27
Z-2.843
X31.761 Y30.193
Z-4.843 F133.33
X33.352 Y31.372 F400
G2 X34.462 Y31.207 I0.473 J-0.637
G1 X42.289 Y20.652
G3 X43.096 Y19.622 I19.445 J14.416
G1 X43.134 Y19.589
X43.179 Y19.57
X43.229 Y19.565
X43.277 Y19.576
X43.32 Y19.601
X43.442 Y19.703
X43.48 Y19.734 Z-4.835
X43.514 Y19.762 Z-4.812
X43.541 Y19.784 Z-4.777
X43.558 Y19.799 Z-4.733
X43.564 Y19.804 Z-4.684
G0 Z15
G28 G91 Z0
G90
G28 G91 X0 Y0
G90
M30
%
