%
(CarbonFiberBottomLeg)
(Machine)
(  vendor Carbide3D)
(  model Shapeoko XXL)
(  description Shapeoko XXL)
(T1 D=1.587 CR=0 - ZMIN=-3.5 - flat end mill)
G90
G17
G21
G28 G91 Z0
G90

(Bore2)
T1 M6
S10000 M3
G17 G90
G54
G0 X50.829 Y-5.691
Z15
G0 Z2
G1 Z0.159 F300
Y-5.683 Z0.11
Y-5.66 Z0.065
Y-5.625 Z0.03
Y-5.581 Z0.008
Y-5.532 Z0
Y-5.452
X50.821 Y-5.403
X50.798 Y-5.359
X50.763 Y-5.324
X50.719 Y-5.302
X50.67 Y-5.294
G3 Y-6.706 Z-0.184 I0 J-0.706
Y-5.294 Z-0.368 I0 J0.706
Y-6.706 Z-0.553 I0 J-0.706
Y-5.294 Z-0.737 I0 J0.706
Y-6.706 Z-0.921 I0 J-0.706
Y-5.294 Z-1.105 I0 J0.706
Y-6.706 Z-1.289 I0 J-0.706
Y-5.294 Z-1.473 I0 J0.706
Y-6.706 Z-1.658 I0 J-0.706
Y-5.294 Z-1.842 I0 J0.706
Y-6.706 Z-2.026 I0 J-0.706
Y-5.294 Z-2.21 I0 J0.706
Y-6.706 Z-2.394 I0 J-0.706
Y-5.294 Z-2.578 I0 J0.706
Y-6.706 Z-2.763 I0 J-0.706
Y-5.294 Z-2.947 I0 J0.706
Y-6.706 Z-3.131 I0 J-0.706
Y-5.294 Z-3.315 I0 J0.706
X49.964 Y-6.004 Z-3.408 I0 J-0.706
X50.678 Y-6.706 Z-3.5 I0.706 J0.004
X50.662 Y-5.294 I-0.008 J0.706
X50.678 Y-6.706 I0.008 J-0.706
G1 X50.727 Y-6.698
X50.771 Y-6.675
X50.805 Y-6.639
X50.827 Y-6.595
X50.835 Y-6.546
X50.834 Y-6.466
X50.833 Y-6.417 Z-3.492
Y-6.373 Z-3.47
X50.832 Y-6.338 Z-3.435
Y-6.315 Z-3.39
Y-6.308 Z-3.341
G0 Z5
X43.829 Y-5.691
Z2
G1 Z0.159 F300
Y-5.683 Z0.11
Y-5.66 Z0.065
Y-5.625 Z0.03
Y-5.581 Z0.008
Y-5.532 Z0
Y-5.452
X43.821 Y-5.403
X43.798 Y-5.359
X43.763 Y-5.324
X43.719 Y-5.302
X43.67 Y-5.294
G3 Y-6.706 Z-0.184 I0 J-0.706
Y-5.294 Z-0.368 I0 J0.706
Y-6.706 Z-0.553 I0 J-0.706
Y-5.294 Z-0.737 I0 J0.706
Y-6.706 Z-0.921 I0 J-0.706
Y-5.294 Z-1.105 I0 J0.706
Y-6.706 Z-1.289 I0 J-0.706
Y-5.294 Z-1.473 I0 J0.706
Y-6.706 Z-1.658 I0 J-0.706
Y-5.294 Z-1.842 I0 J0.706
Y-6.706 Z-2.026 I0 J-0.706
Y-5.294 Z-2.21 I0 J0.706
Y-6.706 Z-2.394 I0 J-0.706
Y-5.294 Z-2.578 I0 J0.706
Y-6.706 Z-2.763 I0 J-0.706
Y-5.294 Z-2.947 I0 J0.706
Y-6.706 Z-3.131 I0 J-0.706
Y-5.294 Z-3.315 I0 J0.706
X42.964 Y-6.004 Z-3.408 I0 J-0.706
X43.678 Y-6.706 Z-3.5 I0.706 J0.004
X43.662 Y-5.294 I-0.008 J0.706
X43.678 Y-6.706 I0.008 J-0.706
G1 X43.727 Y-6.698
X43.771 Y-6.675
X43.805 Y-6.639
X43.827 Y-6.595
X43.835 Y-6.546
X43.834 Y-6.466
X43.833 Y-6.417 Z-3.492
Y-6.373 Z-3.47
X43.832 Y-6.338 Z-3.435
Y-6.315 Z-3.39
Y-6.308 Z-3.341
G0 Z15

(2D Contour1)
G0 X53.829 Y-12.27
Z15
Z5
G1 Z0.317 F100
Z-0.841
Y-12.262 Z-0.89 F300
Y-12.24 Z-0.935
Y-12.205 Z-0.97
Y-12.16 Z-0.992
Y-12.111 Z-1
Y-11.953
X53.821 Y-11.903
X53.798 Y-11.859
X53.763 Y-11.824
X53.719 Y-11.802
X53.67 Y-11.794
X4
G2 X0.206 Y-8 I0 J3.794
G1 Y-4
G2 X4 Y-0.206 I3.794 J0
G1 X53.67
G2 X54.464 Y-1 I0 J-0.794
G1 Y-11
G2 X53.67 Y-11.794 I-0.794 J0
G1 X53.621 Y-11.802
X53.577 Y-11.824
X53.542 Y-11.859
X53.519 Y-11.903
X53.511 Y-11.953
Y-12.111
Y-12.16 Z-0.992
Y-12.205 Z-0.97
Y-12.24 Z-0.935
Y-12.262 Z-0.89
Y-12.27 Z-0.841
G0 Z5
X53.829
G1 Z-0.683 F100
Z-1.841
Y-12.262 Z-1.89 F300
Y-12.24 Z-1.935
Y-12.205 Z-1.97
Y-12.16 Z-1.992
Y-12.111 Z-2
Y-11.953
X53.821 Y-11.903
X53.798 Y-11.859
X53.763 Y-11.824
X53.719 Y-11.802
X53.67 Y-11.794
X22.042
Z-1.5
X17.455
Z-2 F100
X4 F300
G2 X0.206 Y-8 I0 J3.794
G1 Y-4
G2 X4 Y-0.206 I3.794 J0
G1 X13.455
Z-1.5
X18.042
Z-2 F100
X53.67 F300
G2 X54.464 Y-1 I0 J-0.794
G1 Y-1.706
Z-1.5
Y-6.294
Z-2 F100
Y-11 F300
G2 X53.67 Y-11.794 I-0.794 J0
G1 X53.621 Y-11.802
X53.577 Y-11.824
X53.542 Y-11.859
X53.519 Y-11.903
X53.511 Y-11.953
Y-12.111
Y-12.16 Z-1.992
Y-12.205 Z-1.97
Y-12.24 Z-1.935
Y-12.262 Z-1.89
Y-12.27 Z-1.841
G0 Z5
X53.829
G1 Z-1.683 F100
Z-2.841
Y-12.262 Z-2.89 F300
Y-12.24 Z-2.935
Y-12.205 Z-2.97
Y-12.16 Z-2.992
Y-12.111 Z-3
Y-11.953
X53.821 Y-11.903
X53.798 Y-11.859
X53.763 Y-11.824
X53.719 Y-11.802
X53.67 Y-11.794
X22.042
Z-1.5
X17.455
Z-3 F100
X4 F300
G2 X0.206 Y-8 I0 J3.794
G1 Y-4
G2 X4 Y-0.206 I3.794 J0
G1 X13.455
Z-1.5
X18.042
Z-3 F100
X53.67 F300
G2 X54.464 Y-1 I0 J-0.794
G1 Y-1.706
Z-1.5
Y-6.294
Z-3 F100
Y-11 F300
G2 X53.67 Y-11.794 I-0.794 J0
G1 X53.621 Y-11.802
X53.577 Y-11.824
X53.542 Y-11.859
X53.519 Y-11.903
X53.511 Y-11.953
Y-12.111
Y-12.16 Z-2.992
Y-12.205 Z-2.97
Y-12.24 Z-2.935
Y-12.262 Z-2.89
Y-12.27 Z-2.841
G0 Z5
X53.829
G1 Z-2.682 F100
Z-3.341
Y-12.262 Z-3.39 F300
Y-12.24 Z-3.435
Y-12.205 Z-3.47
Y-12.16 Z-3.492
Y-12.111 Z-3.5
Y-11.953
X53.821 Y-11.903
X53.798 Y-11.859
X53.763 Y-11.824
X53.719 Y-11.802
X53.67 Y-11.794
X22.042
Z-1.5
X17.455
Z-3.5 F100
X4 F300
G2 X0.206 Y-8 I0 J3.794
G1 Y-4
G2 X4 Y-0.206 I3.794 J0
G1 X13.455
Z-1.5
X18.042
Z-3.5 F100
X53.67 F300
G2 X54.464 Y-1 I0 J-0.794
G1 Y-1.706
Z-1.5
Y-6.294
Z-3.5 F100
Y-11 F300
G2 X53.67 Y-11.794 I-0.794 J0
G1 X53.621 Y-11.802
X53.577 Y-11.824
X53.542 Y-11.859
X53.519 Y-11.903
X53.511 Y-11.953
Y-12.111
Y-12.16 Z-3.492
Y-12.205 Z-3.47
Y-12.24 Z-3.435
Y-12.262 Z-3.39
Y-12.27 Z-3.341
G0 Z15
G28 G91 Z0
G90
G28 G91 X0 Y0
G90
M30
%
