%
(CarbonLegsV2)
(T1 D=1.587 CR=0 - ZMIN=-4.843 - flat end mill)
G90
G17
G21
G28 G91 Z0
G90

(Bore2)
T1 M6
S10000 M3
G17 G90
G54
G0 X2.841 Y56.571
Z15
G0 Z1
G1 Z-0.841 F400
Y56.563 Z-0.89
Y56.541 Z-0.935
Y56.505 Z-0.97
Y56.461 Z-0.992
Y56.412 Z-1
Y56.333
X2.849 Y56.284
X2.872 Y56.239
X2.907 Y56.204
X2.951 Y56.182
X3 Y56.174
G3 Y57.586 Z-1.211 I0 J0.706
Y56.174 Z-1.422 I0 J-0.706
Y57.586 Z-1.632 I0 J0.706
Y56.174 Z-1.843 I0 J-0.706
Y57.586 Z-2.054 I0 J0.706
Y56.174 Z-2.265 I0 J-0.706
Y57.586 Z-2.476 I0 J0.706
Y56.174 Z-2.686 I0 J-0.706
Y57.586 Z-2.897 I0 J0.706
Y56.174 Z-3.108 I0 J-0.706
Y57.586 Z-3.319 I0 J0.706
Y56.174 Z-3.53 I0 J-0.706
Y57.586 Z-3.741 I0 J0.706
Y56.174 Z-3.951 I0 J-0.706
Y57.586 Z-4.162 I0 J0.706
Y56.174 Z-4.373 I0 J-0.706
X3.67 Y57.104 Z-4.5 I0 J0.706
X2.33 Y56.657 I-0.67 J-0.224
X3.67 Y57.104 I0.67 J0.223
G1 X3.647 Y57.148
X3.612 Y57.183
X3.567 Y57.205
X3.518 Y57.212
X3.469 Y57.204
X3.394 Y57.179
X3.347 Y57.164 Z-4.492
X3.305 Y57.15 Z-4.47
X3.272 Y57.138 Z-4.435
X3.251 Y57.131 Z-4.39
X3.243 Y57.129 Z-4.341
G0 Z5
X9.841 Y56.571
Z1
G1 Z-0.841 F400
Y56.563 Z-0.89
Y56.541 Z-0.935
Y56.505 Z-0.97
Y56.461 Z-0.992
Y56.412 Z-1
Y56.333
X9.849 Y56.284
X9.872 Y56.239
X9.907 Y56.204
X9.951 Y56.182
X10 Y56.174
G3 Y57.586 Z-1.211 I0 J0.706
Y56.174 Z-1.422 I0 J-0.706
Y57.586 Z-1.632 I0 J0.706
Y56.174 Z-1.843 I0 J-0.706
Y57.586 Z-2.054 I0 J0.706
Y56.174 Z-2.265 I0 J-0.706
Y57.586 Z-2.476 I0 J0.706
Y56.174 Z-2.686 I0 J-0.706
Y57.586 Z-2.897 I0 J0.706
Y56.174 Z-3.108 I0 J-0.706
Y57.586 Z-3.319 I0 J0.706
Y56.174 Z-3.53 I0 J-0.706
Y57.586 Z-3.741 I0 J0.706
Y56.174 Z-3.951 I0 J-0.706
Y57.586 Z-4.162 I0 J0.706
Y56.174 Z-4.373 I0 J-0.706
X10.67 Y57.104 Z-4.5 I0 J0.706
X9.33 Y56.657 I-0.67 J-0.224
X10.67 Y57.104 I0.67 J0.223
G1 X10.647 Y57.148
X10.612 Y57.183
X10.567 Y57.205
X10.518 Y57.212
X10.469 Y57.204
X10.394 Y57.179
X10.347 Y57.164 Z-4.492
X10.305 Y57.15 Z-4.47
X10.272 Y57.138 Z-4.435
X10.251 Y57.131 Z-4.39
X10.243 Y57.129 Z-4.341
G0 Z5
X42.511 Y56.471
Z1
G1 Z-0.841 F400
Y56.463 Z-0.89
Y56.441 Z-0.935
Y56.405 Z-0.97
Y56.361 Z-0.992
Y56.312 Z-1
Y56.233
X42.519 Y56.184
X42.542 Y56.139
X42.577 Y56.104
X42.621 Y56.082
X42.67 Y56.074
G3 Y57.686 Z-1.225 I0 J0.806
Y56.074 Z-1.45 I0 J-0.806
Y57.686 Z-1.675 I0 J0.806
Y56.074 Z-1.899 I0 J-0.806
Y57.686 Z-2.124 I0 J0.806
Y56.074 Z-2.349 I0 J-0.806
Y57.686 Z-2.574 I0 J0.806
Y56.074 Z-2.799 I0 J-0.806
Y57.686 Z-3.024 I0 J0.806
Y56.074 Z-3.249 I0 J-0.806
Y57.686 Z-3.474 I0 J0.806
Y56.074 Z-3.698 I0 J-0.806
Y57.686 Z-3.923 I0 J0.806
Y56.074 Z-4.148 I0 J-0.806
Y57.686 Z-4.373 I0 J0.806
X41.881 Y56.717 Z-4.5 I0 J-0.806
X43.459 Y57.043 I0.789 J0.163
X41.881 Y56.717 I-0.789 J-0.163
G1 X41.898 Y56.671
X41.929 Y56.632
X41.971 Y56.605
X42.018 Y56.591
X42.068 Y56.594
X42.146 Y56.61
X42.194 Y56.62 Z-4.492
X42.237 Y56.629 Z-4.47
X42.272 Y56.636 Z-4.435
X42.294 Y56.64 Z-4.39
X42.301 Y56.642 Z-4.341
G0 Z5
X46.733 Y40.538
Z0.657
G1 Z-1.184 F400
X46.74 Y40.543 Z-1.233
X46.758 Y40.556 Z-1.277
X46.786 Y40.577 Z-1.312
X46.822 Y40.603 Z-1.335
X46.861 Y40.632 Z-1.343
X46.925 Y40.68
X46.959 Y40.715
X46.982 Y40.76
X46.989 Y40.809
X46.981 Y40.858
X46.958 Y40.902
G3 X45.822 Y40.06 Z-1.553 I-0.568 J-0.421
X46.958 Y40.902 Z-1.764 I0.568 J0.421
X45.822 Y40.06 Z-1.975 I-0.568 J-0.421
X46.958 Y40.902 Z-2.186 I0.568 J0.421
X45.822 Y40.06 Z-2.397 I-0.568 J-0.421
X46.958 Y40.902 Z-2.607 I0.568 J0.421
X45.822 Y40.06 Z-2.818 I-0.568 J-0.421
X46.958 Y40.902 Z-3.029 I0.568 J0.421
X45.822 Y40.06 Z-3.24 I-0.568 J-0.421
X46.958 Y40.902 Z-3.451 I0.568 J0.421
X45.822 Y40.06 Z-3.662 I-0.568 J-0.421
X46.958 Y40.902 Z-3.872 I0.568 J0.421
X45.822 Y40.06 Z-4.083 I-0.568 J-0.421
X46.958 Y40.902 Z-4.294 I0.568 J0.421
X45.822 Y40.06 Z-4.505 I-0.568 J-0.421
X46.958 Y40.902 Z-4.716 I0.568 J0.421
X45.811 Y40.887 Z-4.843 I-0.568 J-0.421
X46.97 Y40.076 I0.579 J-0.406
X45.811 Y40.887 I-0.58 J0.405
G1 X45.79 Y40.842
X45.783 Y40.792
X45.792 Y40.743
X45.815 Y40.7
X45.851 Y40.665
X45.916 Y40.62
X45.956 Y40.591 Z-4.835
X45.992 Y40.566 Z-4.812
X46.021 Y40.546 Z-4.777
X46.04 Y40.533 Z-4.733
X46.046 Y40.529 Z-4.684
G0 Z5
X50.903 Y34.915
Z0.657
G1 Z-1.184 F400
X50.909 Y34.92 Z-1.233
X50.927 Y34.933 Z-1.277
X50.955 Y34.954 Z-1.312
X50.991 Y34.98 Z-1.335
X51.03 Y35.009 Z-1.343
X51.094 Y35.057
X51.129 Y35.092
X51.151 Y35.137
X51.158 Y35.186
X51.15 Y35.235
X51.127 Y35.279
G3 X49.991 Y34.437 Z-1.553 I-0.568 J-0.421
X51.127 Y35.279 Z-1.764 I0.568 J0.421
X49.991 Y34.437 Z-1.975 I-0.568 J-0.421
X51.127 Y35.279 Z-2.186 I0.568 J0.421
X49.991 Y34.437 Z-2.397 I-0.568 J-0.421
X51.127 Y35.279 Z-2.607 I0.568 J0.421
X49.991 Y34.437 Z-2.818 I-0.568 J-0.421
X51.127 Y35.279 Z-3.029 I0.568 J0.421
X49.991 Y34.437 Z-3.24 I-0.568 J-0.421
X51.127 Y35.279 Z-3.451 I0.568 J0.421
X49.991 Y34.437 Z-3.662 I-0.568 J-0.421
X51.127 Y35.279 Z-3.872 I0.568 J0.421
X49.991 Y34.437 Z-4.083 I-0.568 J-0.421
X51.127 Y35.279 Z-4.294 I0.568 J0.421
X49.991 Y34.437 Z-4.505 I-0.568 J-0.421
X51.127 Y35.279 Z-4.716 I0.568 J0.421
X49.98 Y35.264 Z-4.843 I-0.568 J-0.421
X51.139 Y34.453 I0.579 J-0.406
X49.98 Y35.264 I-0.58 J0.405
G1 X49.959 Y35.218
X49.952 Y35.169
X49.961 Y35.12
X49.984 Y35.077
X50.02 Y35.042
X50.085 Y34.997
X50.125 Y34.968 Z-4.835
X50.161 Y34.943 Z-4.812
X50.19 Y34.923 Z-4.777
X50.209 Y34.91 Z-4.733
X50.215 Y34.905 Z-4.684
G0 Z5
X36.938 Y25.404
Z0.657
G1 Z-1.184 F400
X36.944 Y25.408 Z-1.233
X36.962 Y25.422 Z-1.277
X36.99 Y25.443 Z-1.312
X37.026 Y25.469 Z-1.335
X37.065 Y25.498 Z-1.343
X37.129 Y25.546
X37.164 Y25.581
X37.186 Y25.625
X37.193 Y25.675
X37.185 Y25.724
X37.162 Y25.768
G3 X36.028 Y24.926 Z-1.553 I-0.567 J-0.421
X37.162 Y25.768 Z-1.764 I0.567 J0.421
X36.028 Y24.926 Z-1.975 I-0.567 J-0.421
X37.162 Y25.768 Z-2.186 I0.567 J0.421
X36.028 Y24.926 Z-2.397 I-0.567 J-0.421
X37.162 Y25.768 Z-2.607 I0.567 J0.421
X36.028 Y24.926 Z-2.818 I-0.567 J-0.421
X37.162 Y25.768 Z-3.029 I0.567 J0.421
X36.028 Y24.926 Z-3.24 I-0.567 J-0.421
X37.162 Y25.768 Z-3.451 I0.567 J0.421
X36.028 Y24.926 Z-3.662 I-0.567 J-0.421
X37.162 Y25.768 Z-3.872 I0.567 J0.421
X36.028 Y24.926 Z-4.083 I-0.567 J-0.421
X37.162 Y25.768 Z-4.294 I0.567 J0.421
X36.028 Y24.926 Z-4.505 I-0.567 J-0.421
X37.162 Y25.768 Z-4.716 I0.567 J0.421
X36.016 Y25.752 Z-4.843 I-0.567 J-0.421
X37.174 Y24.942 I0.579 J-0.405
X36.016 Y25.752 I-0.579 J0.405
G1 X35.994 Y25.707
X35.987 Y25.658
X35.996 Y25.609
X36.019 Y25.565
X36.055 Y25.531
X36.12 Y25.485
X36.16 Y25.457 Z-4.835
X36.197 Y25.432 Z-4.812
X36.225 Y25.412 Z-4.777
X36.244 Y25.399 Z-4.733
X36.25 Y25.394 Z-4.684
G0 Z5
X41.107 Y19.781
Z0.657
G1 Z-1.184 F400
X41.113 Y19.785 Z-1.233
X41.131 Y19.799 Z-1.277
X41.159 Y19.82 Z-1.312
X41.195 Y19.846 Z-1.335
X41.234 Y19.875 Z-1.343
X41.298 Y19.922
X41.333 Y19.958
X41.355 Y20.002
X41.362 Y20.052
X41.354 Y20.1
X41.331 Y20.145
G3 X40.197 Y19.303 Z-1.553 I-0.567 J-0.421
X41.331 Y20.145 Z-1.764 I0.567 J0.421
X40.197 Y19.303 Z-1.975 I-0.567 J-0.421
X41.331 Y20.145 Z-2.186 I0.567 J0.421
X40.197 Y19.303 Z-2.397 I-0.567 J-0.421
X41.331 Y20.145 Z-2.607 I0.567 J0.421
X40.197 Y19.303 Z-2.818 I-0.567 J-0.421
X41.331 Y20.145 Z-3.029 I0.567 J0.421
X40.197 Y19.303 Z-3.24 I-0.567 J-0.421
X41.331 Y20.145 Z-3.451 I0.567 J0.421
X40.197 Y19.303 Z-3.662 I-0.567 J-0.421
X41.331 Y20.145 Z-3.872 I0.567 J0.421
X40.197 Y19.303 Z-4.083 I-0.567 J-0.421
X41.331 Y20.145 Z-4.294 I0.567 J0.421
X40.197 Y19.303 Z-4.505 I-0.567 J-0.421
X41.331 Y20.145 Z-4.716 I0.567 J0.421
X40.185 Y20.129 Z-4.843 I-0.567 J-0.421
X41.343 Y19.319 I0.579 J-0.405
X40.185 Y20.129 I-0.579 J0.405
G1 X40.163 Y20.084
X40.157 Y20.035
X40.165 Y19.986
X40.189 Y19.942
X40.224 Y19.908
X40.289 Y19.862
X40.329 Y19.834 Z-4.835
X40.366 Y19.809 Z-4.812
X40.394 Y19.789 Z-4.777
X40.413 Y19.776 Z-4.733
X40.419 Y19.771 Z-4.684
G0 Z5
X137.708 Y77.2
Z1
G1 Z-0.841 F400
Y77.193 Z-0.89
Y77.17 Z-0.935
Y77.135 Z-0.97
Y77.091 Z-0.992
Y77.042 Z-1
Y76.962
X137.716 Y76.913
X137.739 Y76.869
X137.774 Y76.834
X137.818 Y76.811
X137.867 Y76.803
G3 Y78.217 Z-1.211 I0 J0.707
Y76.803 Z-1.422 I0 J-0.707
Y78.217 Z-1.632 I0 J0.707
Y76.803 Z-1.843 I0 J-0.707
Y78.217 Z-2.054 I0 J0.707
Y76.803 Z-2.265 I0 J-0.707
Y78.217 Z-2.476 I0 J0.707
Y76.803 Z-2.686 I0 J-0.707
Y78.217 Z-2.897 I0 J0.707
Y76.803 Z-3.108 I0 J-0.707
Y78.217 Z-3.319 I0 J0.707
Y76.803 Z-3.53 I0 J-0.707
Y78.217 Z-3.741 I0 J0.707
Y76.803 Z-3.951 I0 J-0.707
Y78.217 Z-4.162 I0 J0.707
Y76.803 Z-4.373 I0 J-0.707
X138.538 Y77.733 Z-4.5 I0 J0.707
X137.196 Y77.286 I-0.671 J-0.223
X138.538 Y77.734 I0.671 J0.224
G1 X138.514 Y77.777
X138.479 Y77.812
X138.434 Y77.834
X138.385 Y77.842
X138.336 Y77.834
X138.261 Y77.808
X138.214 Y77.793 Z-4.492
X138.172 Y77.779 Z-4.47
X138.139 Y77.768 Z-4.435
X138.118 Y77.761 Z-4.39
X138.11 Y77.758 Z-4.341
G0 Z5
X144.708 Y77.2
Z1
G1 Z-0.841 F400
Y77.193 Z-0.89
Y77.17 Z-0.935
Y77.135 Z-0.97
Y77.091 Z-0.992
Y77.042 Z-1
Y76.962
X144.716 Y76.913
X144.739 Y76.869
X144.774 Y76.834
X144.818 Y76.811
X144.867 Y76.803
G3 Y78.217 Z-1.211 I0 J0.707
Y76.803 Z-1.422 I0 J-0.707
Y78.217 Z-1.632 I0 J0.707
Y76.803 Z-1.843 I0 J-0.707
Y78.217 Z-2.054 I0 J0.707
Y76.803 Z-2.265 I0 J-0.707
Y78.217 Z-2.476 I0 J0.707
Y76.803 Z-2.686 I0 J-0.707
Y78.217 Z-2.897 I0 J0.707
Y76.803 Z-3.108 I0 J-0.707
Y78.217 Z-3.319 I0 J0.707
Y76.803 Z-3.53 I0 J-0.707
Y78.217 Z-3.741 I0 J0.707
Y76.803 Z-3.951 I0 J-0.707
Y78.217 Z-4.162 I0 J0.707
Y76.803 Z-4.373 I0 J-0.707
X145.538 Y77.733 Z-4.5 I0 J0.707
X144.196 Y77.286 I-0.671 J-0.223
X145.538 Y77.734 I0.671 J0.224
G1 X145.514 Y77.777
X145.479 Y77.812
X145.434 Y77.834
X145.385 Y77.842
X145.336 Y77.834
X145.261 Y77.808
X145.214 Y77.793 Z-4.492
X145.172 Y77.779 Z-4.47
X145.139 Y77.768 Z-4.435
X145.118 Y77.761 Z-4.39
X145.11 Y77.758 Z-4.341
G0 Z5
X177.378 Y77.1
Z1
G1 Z-0.841 F400
Y77.093 Z-0.89
Y77.07 Z-0.935
Y77.035 Z-0.97
Y76.991 Z-0.992
Y76.942 Z-1
Y76.862
X177.386 Y76.813
X177.409 Y76.769
X177.444 Y76.734
X177.488 Y76.711
X177.537 Y76.703
G3 Y78.317 Z-1.225 I0 J0.807
Y76.703 Z-1.45 I0 J-0.807
Y78.317 Z-1.675 I0 J0.807
Y76.703 Z-1.899 I0 J-0.807
Y78.317 Z-2.124 I0 J0.807
Y76.703 Z-2.349 I0 J-0.807
Y78.317 Z-2.574 I0 J0.807
Y76.703 Z-2.799 I0 J-0.807
Y78.317 Z-3.024 I0 J0.807
Y76.703 Z-3.249 I0 J-0.807
Y78.317 Z-3.474 I0 J0.807
Y76.703 Z-3.698 I0 J-0.807
Y78.317 Z-3.923 I0 J0.807
Y76.703 Z-4.148 I0 J-0.807
Y78.317 Z-4.373 I0 J0.807
X176.747 Y77.346 Z-4.5 I0 J-0.807
X178.327 Y77.673 I0.79 J0.164
X176.747 Y77.346 I-0.79 J-0.163
G1 X176.765 Y77.3
X176.796 Y77.261
X176.838 Y77.234
X176.886 Y77.221
X176.935 Y77.223
X177.013 Y77.239
X177.061 Y77.249 Z-4.492
X177.104 Y77.258 Z-4.47
X177.139 Y77.265 Z-4.435
X177.161 Y77.27 Z-4.39
X177.168 Y77.271 Z-4.341
G0 Z5
X187.67 Y63.178
Z1
G1 Z-0.841 F400
Y63.185 Z-0.89
Y63.208 Z-0.935
Y63.243 Z-0.97
Y63.287 Z-0.992
Y63.336 Z-1
Y63.416
X187.662 Y63.465
X187.64 Y63.509
X187.605 Y63.544
X187.56 Y63.567
X187.511 Y63.575
G3 Y62.061 Z-1.218 I0 J-0.757
Y63.575 Z-1.436 I0 J0.757
Y62.061 Z-1.654 I0 J-0.757
Y63.575 Z-1.871 I0 J0.757
Y62.061 Z-2.089 I0 J-0.757
Y63.575 Z-2.307 I0 J0.757
Y62.061 Z-2.525 I0 J-0.757
Y63.575 Z-2.743 I0 J0.757
Y62.061 Z-2.961 I0 J-0.757
Y63.575 Z-3.178 I0 J0.757
Y62.061 Z-3.396 I0 J-0.757
Y63.575 Z-3.614 I0 J0.757
Y62.061 Z-3.832 I0 J-0.757
Y63.575 Z-4.05 I0 J0.757
Y62.061 Z-4.268 I0 J-0.757
X188.264 Y62.898 Z-4.384 I0 J0.757
X187.353 Y63.559 Z-4.5 I-0.753 J-0.08
X187.67 Y62.077 I0.158 J-0.741
X187.353 Y63.559 I-0.159 J0.741
G1 X187.307 Y63.54
X187.268 Y63.509
X187.241 Y63.467
X187.229 Y63.419
X187.231 Y63.369
X187.248 Y63.292
X187.258 Y63.244 Z-4.492
X187.267 Y63.201 Z-4.47
X187.275 Y63.166 Z-4.435
X187.279 Y63.144 Z-4.39
X187.281 Y63.137 Z-4.341
G0 Z5
X187.67 Y38.178
Z1
G1 Z-0.841 F400
Y38.185 Z-0.89
Y38.208 Z-0.935
Y38.243 Z-0.97
Y38.287 Z-0.992
Y38.336 Z-1
Y38.416
X187.662 Y38.465
X187.64 Y38.509
X187.605 Y38.544
X187.56 Y38.567
X187.511 Y38.575
G3 Y37.061 Z-1.218 I0 J-0.757
Y38.575 Z-1.436 I0 J0.757
Y37.061 Z-1.654 I0 J-0.757
Y38.575 Z-1.871 I0 J0.757
Y37.061 Z-2.089 I0 J-0.757
Y38.575 Z-2.307 I0 J0.757
Y37.061 Z-2.525 I0 J-0.757
Y38.575 Z-2.743 I0 J0.757
Y37.061 Z-2.961 I0 J-0.757
Y38.575 Z-3.178 I0 J0.757
Y37.061 Z-3.396 I0 J-0.757
Y38.575 Z-3.614 I0 J0.757
Y37.061 Z-3.832 I0 J-0.757
Y38.575 Z-4.05 I0 J0.757
Y37.061 Z-4.268 I0 J-0.757
X188.264 Y37.898 Z-4.384 I0 J0.757
X187.353 Y38.559 Z-4.5 I-0.753 J-0.08
X187.67 Y37.077 I0.158 J-0.741
X187.353 Y38.559 I-0.159 J0.741
G1 X187.307 Y38.54
X187.268 Y38.509
X187.241 Y38.467
X187.229 Y38.419
X187.231 Y38.369
X187.248 Y38.292
X187.258 Y38.244 Z-4.492
X187.267 Y38.201 Z-4.47
X187.275 Y38.166 Z-4.435
X187.279 Y38.144 Z-4.39
X187.281 Y38.137 Z-4.341
G0 Z15

(2D Contour2)
G0 X97.199 Y56.548
Z15
Z5
G1 Z0.317 F133.33
Z-1.341
Y56.556 Z-1.39 F400
Y56.579 Z-1.435
Y56.614 Z-1.47
Y56.658 Z-1.492
Y56.707 Z-1.5
Y56.866
X97.192 Y56.915
X97.169 Y56.959
X97.134 Y56.994
X97.09 Y57.017
X97.041 Y57.025
X91.921
G2 X70.995 Y67.739 I0 J25.793
G1 X0.471 Y165.604
G2 X1.115 Y166.862 I0.644 J0.464
G1 X13.441
G2 X14.085 Y166.532 I0 J-0.794
G1 X77.402 Y78.666
G3 X97.041 Y68.611 I19.639 J14.152
G1 X194.511 Y68.612
G2 X198.305 Y64.818 I0 J-3.794
G1 Y60.818
G2 X194.511 Y57.024 I-3.794 J0
G1 X97.041 Y57.025
X96.992 Y57.017
X96.947 Y56.994
X96.912 Y56.959
X96.89 Y56.915
X96.882 Y56.866
Y56.707
Y56.658 Z-1.492
Y56.614 Z-1.47
Y56.579 Z-1.435
Y56.556 Z-1.39
Y56.548 Z-1.341
G0 Z5
X97.199
G1 Z-1.183 F133.33
Z-2.841
Y56.556 Z-2.89 F400
Y56.579 Z-2.935
Y56.614 Z-2.97
Y56.658 Z-2.992
Y56.707 Z-3
Y56.866
X97.192 Y56.915
X97.169 Y56.959
X97.134 Y56.994
X97.09 Y57.017
X97.041 Y57.025
X91.921
G2 X70.995 Y67.739 I0 J25.793
G1 X38.373 Y113.008
Z-2.5
X34.521 Y118.352
Z-3 F133.33
X0.471 Y165.604 F400
G2 X1.115 Y166.862 I0.644 J0.464
G1 X13.441
G2 X14.085 Y166.532 I0 J-0.794
G1 X18.206 Y160.813
Z-2.5
X22.057 Y155.469
Z-3 F133.33
X60.875 Y101.601 F400
Z-2.5
X64.726 Y96.257
Z-3 F133.33
X77.402 Y78.666 F400
G3 X97.041 Y68.611 I19.639 J14.152
G1 X144.846 Y68.612
Z-2.5
X151.434
Z-3 F133.33
X194.511 F400
G2 X198.305 Y64.818 I0 J-3.794
G1 Y60.818
G2 X194.511 Y57.024 I-3.794 J0
G1 X108.289 Y57.025
Z-2.5
X101.701
Z-3 F133.33
X97.041 F400
X96.992 Y57.017
X96.947 Y56.994
X96.912 Y56.959
X96.89 Y56.915
X96.882 Y56.866
Y56.707
Y56.658 Z-2.992
Y56.614 Z-2.97
Y56.579 Z-2.935
Y56.556 Z-2.89
Y56.548 Z-2.841
G0 Z5
X97.199
G1 Z-2.682 F133.33
Z-4.341
Y56.556 Z-4.39 F400
Y56.579 Z-4.435
Y56.614 Z-4.47
Y56.658 Z-4.492
Y56.707 Z-4.5
Y56.866
X97.192 Y56.915
X97.169 Y56.959
X97.134 Y56.994
X97.09 Y57.017
X97.041 Y57.025
X91.921
G2 X70.995 Y67.739 I0 J25.793
G1 X38.373 Y113.008
Z-2.5
X34.521 Y118.352
Z-4.5 F133.33
X0.471 Y165.604 F400
G2 X1.115 Y166.862 I0.644 J0.464
G1 X13.441
G2 X14.085 Y166.532 I0 J-0.794
G1 X18.206 Y160.813
Z-2.5
X22.057 Y155.469
Z-4.5 F133.33
X60.875 Y101.601 F400
Z-2.5
X64.726 Y96.257
Z-4.5 F133.33
X77.402 Y78.666 F400
G3 X97.041 Y68.611 I19.639 J14.152
G1 X144.846 Y68.612
Z-2.5
X151.434
Z-4.5 F133.33
X194.511 F400
G2 X198.305 Y64.818 I0 J-3.794
G1 Y60.818
G2 X194.511 Y57.024 I-3.794 J0
G1 X108.289 Y57.025
Z-2.5
X101.701
Z-4.5 F133.33
X97.041 F400
X96.992 Y57.017
X96.947 Y56.994
X96.912 Y56.959
X96.89 Y56.915
X96.882 Y56.866
Y56.707
Y56.658 Z-4.492
Y56.614 Z-4.47
Y56.579 Z-4.435
Y56.556 Z-4.39
Y56.548 Z-4.341
G0 Z5
Y44.088
G1 Z0.317 F133.33
Z-1.341
Y44.081 Z-1.39 F400
Y44.058 Z-1.435
Y44.023 Z-1.47
Y43.979 Z-1.492
Y43.93 Z-1.5
Y43.771
X96.89 Y43.722
X96.912 Y43.677
X96.947 Y43.642
X96.992 Y43.62
X97.041 Y43.612
X194.511
G2 X198.305 Y39.818 I0 J-3.794
G1 Y35.818
G2 X194.511 Y32.024 I-3.794 J0
G1 X91.921 Y32.025
G2 X70.995 Y42.739 I0 J25.793
G1 X0.471 Y140.604
G2 X1.115 Y141.862 I0.644 J0.464
G1 X13.441
G2 X14.085 Y141.532 I0 J-0.794
G1 X77.402 Y53.666
G3 X97.041 Y43.611 I19.639 J14.152
G1 X97.09 Y43.62
X97.134 Y43.642
X97.169 Y43.677
X97.192 Y43.722
X97.199 Y43.771
Y43.93
Y43.979 Z-1.492
Y44.023 Z-1.47
Y44.058 Z-1.435
Y44.081 Z-1.39
Y44.088 Z-1.341
G0 Z5
X96.882
G1 Z-1.183 F133.33
Z-2.841
Y44.081 Z-2.89 F400
Y44.058 Z-2.935
Y44.023 Z-2.97
Y43.979 Z-2.992
Y43.93 Z-3
Y43.771
X96.89 Y43.722
X96.912 Y43.677
X96.947 Y43.642
X96.992 Y43.62
X97.041 Y43.612
X146.106
Z-2.5
X152.694
Z-3 F133.33
X194.511 F400
G2 X198.305 Y39.818 I0 J-3.794
G1 Y35.818
G2 X194.511 Y32.024 I-3.794 J0
G1 X91.921 Y32.025
G2 X70.995 Y42.739 I0 J25.793
G1 X53.061 Y67.625
Z-2.5
X49.209 Y72.969
Z-3 F133.33
X0.471 Y140.604 F400
G2 X1.115 Y141.862 I0.644 J0.464
G1 X13.441
G2 X14.085 Y141.532 I0 J-0.794
G1 X19.37 Y134.197
Z-2.5
X23.221 Y128.853
Z-3 F133.33
X42.787 Y101.701 F400
Z-2.5
X46.639 Y96.357
Z-3 F133.33
X77.402 Y53.666 F400
G3 X97.041 Y43.611 I19.639 J14.152
G1 X97.09 Y43.62
X97.134 Y43.642
X97.169 Y43.677
X97.192 Y43.722
X97.199 Y43.771
Y43.93
Y43.979 Z-2.992
Y44.023 Z-2.97
Y44.058 Z-2.935
Y44.081 Z-2.89
Y44.088 Z-2.841
G0 Z5
X96.882
G1 Z-2.682 F133.33
Z-4.341
Y44.081 Z-4.39 F400
Y44.058 Z-4.435
Y44.023 Z-4.47
Y43.979 Z-4.492
Y43.93 Z-4.5
Y43.771
X96.89 Y43.722
X96.912 Y43.677
X96.947 Y43.642
X96.992 Y43.62
X97.041 Y43.612
X146.106
Z-2.5
X152.694
Z-4.5 F133.33
X194.511 F400
G2 X198.305 Y39.818 I0 J-3.794
G1 Y35.818
G2 X194.511 Y32.024 I-3.794 J0
G1 X91.921 Y32.025
G2 X70.995 Y42.739 I0 J25.793
G1 X53.061 Y67.625
Z-2.5
X49.209 Y72.969
Z-4.5 F133.33
X0.471 Y140.604 F400
G2 X1.115 Y141.862 I0.644 J0.464
G1 X13.441
G2 X14.085 Y141.532 I0 J-0.794
G1 X19.37 Y134.197
Z-2.5
X23.221 Y128.853
Z-4.5 F133.33
X42.787 Y101.701 F400
Z-2.5
X46.639 Y96.357
Z-4.5 F133.33
X77.402 Y53.666 F400
G3 X97.041 Y43.611 I19.639 J14.152
G1 X97.09 Y43.62
X97.134 Y43.642
X97.169 Y43.677
X97.192 Y43.722
X97.199 Y43.771
Y43.93
Y43.979 Z-4.492
Y44.023 Z-4.47
Y44.058 Z-4.435
Y44.081 Z-4.39
Y44.088 Z-4.341
G0 Z5
X0.159 Y50.61
G1 Z0.317 F133.33
Z-1.341
Y50.618 Z-1.39 F400
Y50.641 Z-1.435
Y50.676 Z-1.47
Y50.72 Z-1.492
Y50.769 Z-1.5
Y50.928
X0.151 Y50.977
X0.128 Y51.021
X0.093 Y51.056
X0.049 Y51.079
X0 Y51.087
G2 X-0.793 Y51.88 I0 J0.793
G1 X-0.794 Y61.88
G2 X0 Y62.674 I0.794 J0
G1 X49.67
G2 X53.464 Y58.88 I0 J-3.794
G1 Y54.88
G2 X49.67 Y51.086 I-3.794 J0
G1 X0 Y51.087
X-0.049 Y51.079
X-0.093 Y51.056
X-0.128 Y51.021
X-0.151 Y50.977
X-0.159 Y50.928
Y50.769
Y50.72 Z-1.492
Y50.676 Z-1.47
Y50.641 Z-1.435
Y50.618 Z-1.39
Y50.61 Z-1.341
G0 Z5
X-1.277 Y61.961
G1 Z-1.183 F133.33
Z-2.841
X-1.27 Y61.96 Z-2.89 F400
X-1.248 Y61.956 Z-2.935
X-1.213 Y61.949 Z-2.97
X-1.17 Y61.941 Z-2.992
X-1.121 Y61.932 Z-3
X-0.965 Y61.902
X-0.916 Y61.901
X-0.868 Y61.915
X-0.827 Y61.942
X-0.797 Y61.982
X-0.78 Y62.028
G2 X0 Y62.674 I0.78 J-0.148
G1 X39.03
Z-2.5
X45.617
Z-3 F133.33
X49.67 F400
G2 X53.464 Y58.88 I0 J-3.794
G1 Y54.88
G2 X49.67 Y51.086 I-3.794 J0
G1 X11.919 Y51.087
Z-2.5
X5.332
Z-3 F133.33
X0 F400
G2 X-0.793 Y51.88 I0 J0.793
G1 X-0.794 Y61.88
X-0.79 Y61.955
X-0.78 Y62.028
X-0.778 Y62.078
X-0.792 Y62.126
X-0.82 Y62.167
X-0.859 Y62.197
X-0.906 Y62.214
X-1.062 Y62.244
X-1.11 Y62.253 Z-2.992
X-1.154 Y62.261 Z-2.97
X-1.188 Y62.268 Z-2.935
X-1.21 Y62.272 Z-2.89
X-1.218 Y62.273 Z-2.841
G0 Z5
X-1.277 Y61.961
G1 Z-2.682 F133.33
Z-4.341
X-1.27 Y61.96 Z-4.39 F400
X-1.248 Y61.956 Z-4.435
X-1.213 Y61.949 Z-4.47
X-1.17 Y61.941 Z-4.492
X-1.121 Y61.932 Z-4.5
X-0.965 Y61.902
X-0.916 Y61.901
X-0.868 Y61.915
X-0.827 Y61.942
X-0.797 Y61.982
X-0.78 Y62.028
G2 X0 Y62.674 I0.78 J-0.148
G1 X39.03
Z-2.5
X45.617
Z-4.5 F133.33
X49.67 F400
G2 X53.464 Y58.88 I0 J-3.794
G1 Y54.88
G2 X49.67 Y51.086 I-3.794 J0
G1 X11.919 Y51.087
Z-2.5
X5.332
Z-4.5 F133.33
X0 F400
G2 X-0.793 Y51.88 I0 J0.793
G1 X-0.794 Y61.88
X-0.79 Y61.955
X-0.78 Y62.028
X-0.778 Y62.078
X-0.792 Y62.126
X-0.82 Y62.167
X-0.859 Y62.197
X-0.906 Y62.214
X-1.062 Y62.244
X-1.11 Y62.253 Z-4.492
X-1.154 Y62.261 Z-4.47
X-1.188 Y62.268 Z-4.435
X-1.21 Y62.272 Z-4.39
X-1.218 Y62.273 Z-4.341
G0 Z5
X133.597 Y72.351
G1 Z0.317 F133.33
Z-1.341
X133.605 Z-1.39 F400
X133.627 Z-1.435
X133.662 Z-1.47
X133.707 Z-1.492
X133.756 Z-1.5
X133.915
X133.964 Y72.359
X134.008 Y72.381
X134.043 Y72.416
X134.065 Y72.461
X134.073 Y72.51
Y82.51
G2 X134.867 Y83.304 I0.794 J0
G1 X184.537 Y83.303
G2 X188.33 Y79.51 I0 J-3.793
G1 X188.331 Y75.51
G2 X184.537 Y71.716 I-3.794 J0
G1 X134.867
G2 X134.073 Y72.51 I0 J0.794
G1 X134.065 Y72.559
X134.043 Y72.603
X134.008 Y72.638
X133.964 Y72.661
X133.915 Y72.668
X133.756
X133.707 Z-1.492
X133.662 Z-1.47
X133.627 Z-1.435
X133.605 Z-1.39
X133.597 Z-1.341
G0 Z5
Y72.351
G1 Z-1.183 F133.33
Z-2.841
X133.605 Z-2.89 F400
X133.627 Z-2.935
X133.662 Z-2.97
X133.707 Z-2.992
X133.756 Z-3
X133.915
X133.964 Y72.359
X134.008 Y72.381
X134.043 Y72.416
X134.065 Y72.461
X134.073 Y72.51
Y82.51
G2 X134.867 Y83.304 I0.794 J0
G1 X172.875 Y83.303
Z-2.5
X179.463
Z-3 F133.33
X184.537 F400
G2 X188.33 Y79.51 I0 J-3.793
G1 X188.331 Y75.51
G2 X184.537 Y71.716 I-3.794 J0
G1 X150.805
Z-2.5
X144.217
Z-3 F133.33
X134.867 F400
G2 X134.073 Y72.51 I0 J0.794
G1 X134.065 Y72.559
X134.043 Y72.603
X134.008 Y72.638
X133.964 Y72.661
X133.915 Y72.668
X133.756
X133.707 Z-2.992
X133.662 Z-2.97
X133.627 Z-2.935
X133.605 Z-2.89
X133.597 Z-2.841
G0 Z5
Y72.351
G1 Z-2.682 F133.33
Z-4.341
X133.605 Z-4.39 F400
X133.627 Z-4.435
X133.662 Z-4.47
X133.707 Z-4.492
X133.756 Z-4.5
X133.915
X133.964 Y72.359
X134.008 Y72.381
X134.043 Y72.416
X134.065 Y72.461
X134.073 Y72.51
Y82.51
G2 X134.867 Y83.304 I0.794 J0
G1 X172.875 Y83.303
Z-2.5
X179.463
Z-4.5 F133.33
X184.537 F400
G2 X188.33 Y79.51 I0 J-3.793
G1 X188.331 Y75.51
G2 X184.537 Y71.716 I-3.794 J0
G1 X150.805
Z-2.5
X144.217
Z-4.5 F133.33
X134.867 F400
G2 X134.073 Y72.51 I0 J0.794
G1 X134.065 Y72.559
X134.043 Y72.603
X134.008 Y72.638
X133.964 Y72.661
X133.915 Y72.668
X133.756
X133.707 Z-4.492
X133.662 Z-4.47
X133.627 Z-4.435
X133.605 Z-4.39
X133.597 Z-4.341
G0 Z15
X53.568 Y20.979
Z5
G1 Z0.317 F133.33
Z-1.341
X53.573 Y20.984 Z-1.39 F400
X53.588 Y21 Z-1.435
X53.613 Y21.026 Z-1.47
X53.643 Y21.058 Z-1.492
X53.677 Y21.094 Z-1.5
X53.786 Y21.209
X53.814 Y21.25
X53.828 Y21.297
X53.827 Y21.347
X53.811 Y21.394
X53.78 Y21.433
G2 X50.825 Y24.772 I17.765 J18.701
G1 X39.949 Y39.44
G2 X40.114 Y40.551 I0.638 J0.473
G1 X48.147 Y46.507
G2 X49.258 Y46.342 I0.473 J-0.638
G1 X57.084 Y35.786
G3 X76.857 Y25.999 I19.445 J14.417
G1 X185.15 Y27.468
G2 X185.799 Y27.147 I0.011 J-0.794
G1 X193.14 Y17.245
G2 X192.513 Y15.979 I-0.638 J-0.472
G1 X71.895 Y14.343
G2 X53.78 Y21.433 I-0.35 J25.791
G1 X53.739 Y21.461
X53.692 Y21.475
X53.642 Y21.474
X53.595 Y21.458
X53.556 Y21.427
X53.447 Y21.312
X53.413 Y21.277 Z-1.492
X53.382 Y21.245 Z-1.47
X53.358 Y21.219 Z-1.435
X53.343 Y21.203 Z-1.39
X53.337 Y21.197 Z-1.341
G0 Z5
X53.568 Y20.979
G1 Z-1.183 F133.33
Z-2.841
X53.573 Y20.984 Z-2.89 F400
X53.588 Y21 Z-2.935
X53.613 Y21.026 Z-2.97
X53.643 Y21.058 Z-2.992
X53.677 Y21.094 Z-3
X53.786 Y21.209
X53.814 Y21.25
X53.828 Y21.297
X53.827 Y21.347
X53.811 Y21.394
X53.78 Y21.433
G2 X50.825 Y24.772 I17.765 J18.701
G1 X39.949 Y39.44
G2 X40.114 Y40.551 I0.638 J0.473
G1 X41.635 Y41.678
Z-2.843
X46.927 Y45.602
Z-3 F133.33
X48.147 Y46.507 F400
G2 X49.258 Y46.342 I0.473 J-0.638
G1 X57.084 Y35.786
G3 X76.857 Y25.999 I19.445 J14.417
G1 X122.479 Y26.618
Z-2.843
X129.066 Y26.707
Z-3 F133.33
X185.15 Y27.468 F400
G2 X185.799 Y27.147 I0.011 J-0.794
G1 X187.53 Y24.812
Z-2.843
X191.453 Y19.52
Z-3 F133.33
X193.14 Y17.245 F400
G2 X192.513 Y15.979 I-0.638 J-0.472
G1 X119.294 Y14.986
Z-2.843
X112.707 Y14.896
Z-3 F133.33
X71.895 Y14.343 F400
G2 X53.78 Y21.433 I-0.35 J25.791
G1 X53.739 Y21.461
X53.692 Y21.475
X53.642 Y21.474
X53.595 Y21.458
X53.556 Y21.427
X53.447 Y21.312
X53.413 Y21.277 Z-2.992
X53.382 Y21.245 Z-2.97
X53.358 Y21.219 Z-2.935
X53.343 Y21.203 Z-2.89
X53.337 Y21.197 Z-2.841
G0 Z5
X53.568 Y20.979
G1 Z-2.682 F133.33
Z-3.763
X53.573 Y20.984 Z-3.812 F400
X53.588 Y21 Z-3.856
X53.613 Y21.026 Z-3.891
X53.643 Y21.058 Z-3.914
X53.677 Y21.094 Z-3.921
X53.786 Y21.209
X53.814 Y21.25
X53.828 Y21.297
X53.827 Y21.347
X53.811 Y21.394
X53.78 Y21.433
G2 X50.825 Y24.772 I17.765 J18.701
G1 X39.949 Y39.44
G2 X40.114 Y40.551 I0.638 J0.473
G1 X41.635 Y41.678
Z-2.843
X46.927 Y45.602
Z-3.921 F133.33
X48.147 Y46.507 F400
G2 X49.258 Y46.342 I0.473 J-0.638
G1 X57.084 Y35.786
G3 X76.857 Y25.999 I19.445 J14.417
G1 X122.479 Y26.618
Z-2.843
X129.066 Y26.707
Z-3.921 F133.33
X185.15 Y27.468 F400
G2 X185.799 Y27.147 I0.011 J-0.794
G1 X187.53 Y24.812
Z-2.843
X191.453 Y19.52
Z-3.921 F133.33
X193.14 Y17.245 F400
G2 X192.513 Y15.979 I-0.638 J-0.472
G1 X119.294 Y14.986
Z-2.843
X112.707 Y14.896
Z-3.921 F133.33
X71.895 Y14.343 F400
G2 X53.78 Y21.433 I-0.35 J25.791
G1 X53.739 Y21.461
X53.692 Y21.475
X53.642 Y21.474
X53.595 Y21.458
X53.556 Y21.427
X53.447 Y21.312
X53.413 Y21.277 Z-3.914
X53.382 Y21.245 Z-3.891
X53.358 Y21.219 Z-3.856
X53.343 Y21.203 Z-3.812
X53.337 Y21.197 Z-3.763
G0 Z5
X53.568 Y20.979
G1 Z-3.604 F133.33
Z-4.684
X53.573 Y20.984 Z-4.733 F400
X53.588 Y21 Z-4.777
X53.613 Y21.026 Z-4.812
X53.643 Y21.058 Z-4.835
X53.677 Y21.094 Z-4.843
X53.786 Y21.209
X53.814 Y21.25
X53.828 Y21.297
X53.827 Y21.347
X53.811 Y21.394
X53.78 Y21.433
G2 X50.825 Y24.772 I17.765 J18.701
G1 X39.949 Y39.44
G2 X40.114 Y40.551 I0.638 J0.473
G1 X41.635 Y41.678
Z-2.843
X46.927 Y45.602
Z-4.843 F133.33
X48.147 Y46.507 F400
G2 X49.258 Y46.342 I0.473 J-0.638
G1 X57.084 Y35.786
G3 X76.857 Y25.999 I19.445 J14.417
G1 X122.479 Y26.618
Z-2.843
X129.066 Y26.707
Z-4.843 F133.33
X185.15 Y27.468 F400
G2 X185.799 Y27.147 I0.011 J-0.794
G1 X187.53 Y24.812
Z-2.843
X191.453 Y19.52
Z-4.843 F133.33
X193.14 Y17.245 F400
G2 X192.513 Y15.979 I-0.638 J-0.472
G1 X119.294 Y14.986
Z-2.843
X112.707 Y14.896
Z-4.843 F133.33
X71.895 Y14.343 F400
G2 X53.78 Y21.433 I-0.35 J25.791
G1 X53.739 Y21.461
X53.692 Y21.475
X53.642 Y21.474
X53.595 Y21.458
X53.556 Y21.427
X53.447 Y21.312
X53.413 Y21.277 Z-4.835
X53.382 Y21.245 Z-4.812
X53.358 Y21.219 Z-4.777
X53.343 Y21.203 Z-4.733
X53.337 Y21.197 Z-4.684
G0 Z5
X50.275 Y17.973
G1 Z0.317 F133.33
Z-1.341
X50.269 Y17.967 Z-1.39 F400
X50.254 Y17.951 Z-1.435
X50.23 Y17.926 Z-1.47
X50.199 Y17.894 Z-1.492
X50.165 Y17.858 Z-1.5
X50.056 Y17.743
X50.028 Y17.702
X50.014 Y17.654
X50.015 Y17.605
X50.031 Y17.558
X50.062 Y17.518
G3 X67.061 Y10.864 I16.671 J17.55
G1 X175.354 Y12.333
G2 X176.002 Y12.012 I0.011 J-0.793
G1 X183.344 Y2.111
G2 X182.717 Y0.844 I-0.638 J-0.473
G1 X62.099 Y-0.791
G2 X41.03 Y9.638 I-0.35 J25.791
G1 X30.154 Y24.306
G2 X30.319 Y25.417 I0.638 J0.473
G1 X38.352 Y31.372
G2 X39.461 Y31.207 I0.472 J-0.637
G1 X47.288 Y20.652
G3 X50.062 Y17.518 I19.445 J14.416
G1 X50.103 Y17.49
X50.15 Y17.476
X50.2 Y17.477
X50.247 Y17.494
X50.286 Y17.524
X50.395 Y17.639
X50.429 Y17.675 Z-1.492
X50.46 Y17.707 Z-1.47
X50.484 Y17.732 Z-1.435
X50.499 Y17.749 Z-1.39
X50.505 Y17.754 Z-1.341
G0 Z5
X50.275 Y17.973
G1 Z-1.183 F133.33
Z-2.841
X50.269 Y17.967 Z-2.89 F400
X50.254 Y17.951 Z-2.935
X50.23 Y17.926 Z-2.97
X50.199 Y17.894 Z-2.992
X50.165 Y17.858 Z-3
X50.056 Y17.743
X50.028 Y17.702
X50.014 Y17.654
X50.015 Y17.605
X50.031 Y17.558
X50.062 Y17.518
G3 X67.061 Y10.864 I16.671 J17.55
G1 X99.496 Y11.304
Z-2.843
X106.083 Y11.394
Z-3 F133.33
X175.354 Y12.333 F400
G2 X176.002 Y12.012 I0.011 J-0.793
G1 X178.112 Y9.167
Z-2.843
X182.035 Y3.876
Z-3 F133.33
X183.344 Y2.111 F400
G2 X182.717 Y0.844 I-0.638 J-0.473
G1 X72.57 Y-0.649
Z-2.843
X65.983 Y-0.739
Z-3 F133.33
X62.099 Y-0.791 F400
G2 X41.03 Y9.638 I-0.35 J25.791
G1 X30.154 Y24.306
G2 X30.319 Y25.417 I0.638 J0.473
G1 X31.469 Y26.27
Z-2.843
X36.761 Y30.193
Z-3 F133.33
X38.352 Y31.372 F400
G2 X39.461 Y31.207 I0.472 J-0.637
G1 X47.288 Y20.652
G3 X50.062 Y17.518 I19.445 J14.416
G1 X50.103 Y17.49
X50.15 Y17.476
X50.2 Y17.477
X50.247 Y17.494
X50.286 Y17.524
X50.395 Y17.639
X50.429 Y17.675 Z-2.992
X50.46 Y17.707 Z-2.97
X50.484 Y17.732 Z-2.935
X50.499 Y17.749 Z-2.89
X50.505 Y17.754 Z-2.841
G0 Z5
X50.275 Y17.973
G1 Z-2.682 F133.33
Z-3.763
X50.269 Y17.967 Z-3.812 F400
X50.254 Y17.951 Z-3.856
X50.23 Y17.926 Z-3.891
X50.199 Y17.894 Z-3.914
X50.165 Y17.858 Z-3.921
X50.056 Y17.743
X50.028 Y17.702
X50.014 Y17.654
X50.015 Y17.605
X50.031 Y17.558
X50.062 Y17.518
G3 X67.061 Y10.864 I16.671 J17.55
G1 X99.496 Y11.304
Z-2.843
X106.083 Y11.394
Z-3.921 F133.33
X175.354 Y12.333 F400
G2 X176.002 Y12.012 I0.011 J-0.793
G1 X178.112 Y9.167
Z-2.843
X182.035 Y3.876
Z-3.921 F133.33
X183.344 Y2.111 F400
G2 X182.717 Y0.844 I-0.638 J-0.473
G1 X72.57 Y-0.649
Z-2.843
X65.983 Y-0.739
Z-3.921 F133.33
X62.099 Y-0.791 F400
G2 X41.03 Y9.638 I-0.35 J25.791
G1 X30.154 Y24.306
G2 X30.319 Y25.417 I0.638 J0.473
G1 X31.469 Y26.27
Z-2.843
X36.761 Y30.193
Z-3.921 F133.33
X38.352 Y31.372 F400
G2 X39.461 Y31.207 I0.472 J-0.637
G1 X47.288 Y20.652
G3 X50.062 Y17.518 I19.445 J14.416
G1 X50.103 Y17.49
X50.15 Y17.476
X50.2 Y17.477
X50.247 Y17.494
X50.286 Y17.524
X50.395 Y17.639
X50.429 Y17.675 Z-3.914
X50.46 Y17.707 Z-3.891
X50.484 Y17.732 Z-3.856
X50.499 Y17.749 Z-3.812
X50.505 Y17.754 Z-3.763
G0 Z5
X50.275 Y17.973
G1 Z-3.604 F133.33
Z-4.684
X50.269 Y17.967 Z-4.733 F400
X50.254 Y17.951 Z-4.777
X50.23 Y17.926 Z-4.812
X50.199 Y17.894 Z-4.835
X50.165 Y17.858 Z-4.843
X50.056 Y17.743
X50.028 Y17.702
X50.014 Y17.654
X50.015 Y17.605
X50.031 Y17.558
X50.062 Y17.518
G3 X67.061 Y10.864 I16.671 J17.55
G1 X99.496 Y11.304
Z-2.843
X106.083 Y11.394
Z-4.843 F133.33
X175.354 Y12.333 F400
G2 X176.002 Y12.012 I0.011 J-0.793
G1 X178.112 Y9.167
Z-2.843
X182.035 Y3.876
Z-4.843 F133.33
X183.344 Y2.111 F400
G2 X182.717 Y0.844 I-0.638 J-0.473
G1 X72.57 Y-0.649
Z-2.843
X65.983 Y-0.739
Z-4.843 F133.33
X62.099 Y-0.791 F400
G2 X41.03 Y9.638 I-0.35 J25.791
G1 X30.154 Y24.306
G2 X30.319 Y25.417 I0.638 J0.473
G1 X31.469 Y26.27
Z-2.843
X36.761 Y30.193
Z-4.843 F133.33
X38.352 Y31.372 F400
G2 X39.461 Y31.207 I0.472 J-0.637
G1 X47.288 Y20.652
G3 X50.062 Y17.518 I19.445 J14.416
G1 X50.103 Y17.49
X50.15 Y17.476
X50.2 Y17.477
X50.247 Y17.494
X50.286 Y17.524
X50.395 Y17.639
X50.429 Y17.675 Z-4.835
X50.46 Y17.707 Z-4.812
X50.484 Y17.732 Z-4.777
X50.499 Y17.749 Z-4.733
X50.505 Y17.754 Z-4.684
G0 Z15
G28 G91 Z0
G90
G28 G91 X0 Y0
G90
M30
%
