%
(FinalCarbonLegs)
(T1 D=1.587 CR=0 - ZMIN=-4.343 - flat end mill)
G90
G17
G21
G28 G91 Z0
G90

(Bore2)
T1 M6
S10000 M3
G17 G90
G54
G0 X-194.905 Y56.639
Z15
G0 Z1.5
G1 Z-0.341 F400
Y56.631 Z-0.39
Y56.608 Z-0.435
Y56.573 Z-0.47
Y56.529 Z-0.492
Y56.48 Z-0.5
Y56.401
X-194.897 Y56.352
X-194.875 Y56.307
X-194.84 Y56.272
X-194.795 Y56.25
X-194.746 Y56.242
G3 Y57.654 Z-0.711 I0 J0.706
Y56.242 Z-0.922 I0 J-0.706
Y57.654 Z-1.132 I0 J0.706
Y56.242 Z-1.343 I0 J-0.706
Y57.654 Z-1.554 I0 J0.706
Y56.242 Z-1.765 I0 J-0.706
Y57.654 Z-1.976 I0 J0.706
Y56.242 Z-2.186 I0 J-0.706
Y57.654 Z-2.397 I0 J0.706
Y56.242 Z-2.608 I0 J-0.706
Y57.654 Z-2.819 I0 J0.706
Y56.242 Z-3.03 I0 J-0.706
Y57.654 Z-3.241 I0 J0.706
Y56.242 Z-3.451 I0 J-0.706
Y57.654 Z-3.662 I0 J0.706
Y56.242 Z-3.873 I0 J-0.706
X-194.076 Y57.172 Z-4 I0 J0.706
X-195.416 Y56.725 I-0.67 J-0.224
X-194.076 Y57.172 I0.67 J0.223
G1 X-194.099 Y57.216
X-194.135 Y57.251
X-194.179 Y57.273
X-194.228 Y57.28
X-194.277 Y57.272
X-194.353 Y57.247
X-194.399 Y57.231 Z-3.992
X-194.441 Y57.217 Z-3.97
X-194.474 Y57.206 Z-3.935
X-194.496 Y57.199 Z-3.89
X-194.503 Y57.197 Z-3.841
G0 Z5
X-187.905 Y56.639
Z1.5
G1 Z-0.341 F400
Y56.631 Z-0.39
Y56.608 Z-0.435
Y56.573 Z-0.47
Y56.529 Z-0.492
Y56.48 Z-0.5
Y56.401
X-187.897 Y56.352
X-187.875 Y56.307
X-187.84 Y56.272
X-187.795 Y56.25
X-187.746 Y56.242
G3 Y57.654 Z-0.711 I0 J0.706
Y56.242 Z-0.922 I0 J-0.706
Y57.654 Z-1.132 I0 J0.706
Y56.242 Z-1.343 I0 J-0.706
Y57.654 Z-1.554 I0 J0.706
Y56.242 Z-1.765 I0 J-0.706
Y57.654 Z-1.976 I0 J0.706
Y56.242 Z-2.186 I0 J-0.706
Y57.654 Z-2.397 I0 J0.706
Y56.242 Z-2.608 I0 J-0.706
Y57.654 Z-2.819 I0 J0.706
Y56.242 Z-3.03 I0 J-0.706
Y57.654 Z-3.241 I0 J0.706
Y56.242 Z-3.451 I0 J-0.706
Y57.654 Z-3.662 I0 J0.706
Y56.242 Z-3.873 I0 J-0.706
X-187.076 Y57.172 Z-4 I0 J0.706
X-188.416 Y56.725 I-0.67 J-0.224
X-187.076 Y57.172 I0.67 J0.223
G1 X-187.099 Y57.216
X-187.135 Y57.251
X-187.179 Y57.273
X-187.228 Y57.28
X-187.277 Y57.272
X-187.353 Y57.247
X-187.399 Y57.231 Z-3.992
X-187.441 Y57.217 Z-3.97
X-187.474 Y57.206 Z-3.935
X-187.496 Y57.199 Z-3.89
X-187.503 Y57.197 Z-3.841
G0 Z5
X-155.235 Y56.539
Z1.5
G1 Z-0.341 F400
Y56.531 Z-0.39
Y56.508 Z-0.435
Y56.473 Z-0.47
Y56.429 Z-0.492
Y56.38 Z-0.5
Y56.301
X-155.227 Y56.252
X-155.205 Y56.207
X-155.17 Y56.172
X-155.125 Y56.15
X-155.076 Y56.142
G3 Y57.754 Z-0.725 I0 J0.806
Y56.142 Z-0.95 I0 J-0.806
Y57.754 Z-1.175 I0 J0.806
Y56.142 Z-1.399 I0 J-0.806
Y57.754 Z-1.624 I0 J0.806
Y56.142 Z-1.849 I0 J-0.806
Y57.754 Z-2.074 I0 J0.806
Y56.142 Z-2.299 I0 J-0.806
Y57.754 Z-2.524 I0 J0.806
Y56.142 Z-2.749 I0 J-0.806
Y57.754 Z-2.974 I0 J0.806
Y56.142 Z-3.198 I0 J-0.806
Y57.754 Z-3.423 I0 J0.806
Y56.142 Z-3.648 I0 J-0.806
Y57.754 Z-3.873 I0 J0.806
X-155.865 Y56.785 Z-4 I0 J-0.806
X-154.287 Y57.111 I0.789 J0.163
X-155.865 Y56.785 I-0.789 J-0.163
G1 X-155.848 Y56.738
X-155.817 Y56.7
X-155.776 Y56.672
X-155.728 Y56.659
X-155.678 Y56.662
X-155.601 Y56.678
X-155.553 Y56.688 Z-3.992
X-155.509 Y56.697 Z-3.97
X-155.475 Y56.704 Z-3.935
X-155.453 Y56.708 Z-3.89
X-155.445 Y56.71 Z-3.841
G0 Z5
X-151.013 Y40.606
Z1.157
G1 Z-0.684 F400
X-151.007 Y40.61 Z-0.733
X-150.989 Y40.624 Z-0.777
X-150.96 Y40.645 Z-0.812
X-150.925 Y40.671 Z-0.835
X-150.885 Y40.7 Z-0.843
X-150.822 Y40.748
X-150.787 Y40.783
X-150.765 Y40.828
X-150.758 Y40.877
X-150.766 Y40.926
X-150.789 Y40.97
G3 X-151.923 Y40.128 Z-1.053 I-0.567 J-0.421
X-150.789 Y40.97 Z-1.264 I0.567 J0.421
X-151.923 Y40.128 Z-1.475 I-0.567 J-0.421
X-150.789 Y40.97 Z-1.686 I0.567 J0.421
X-151.923 Y40.128 Z-1.897 I-0.567 J-0.421
X-150.789 Y40.97 Z-2.107 I0.567 J0.421
X-151.923 Y40.128 Z-2.318 I-0.567 J-0.421
X-150.789 Y40.97 Z-2.529 I0.567 J0.421
X-151.923 Y40.128 Z-2.74 I-0.567 J-0.421
X-150.789 Y40.97 Z-2.951 I0.567 J0.421
X-151.923 Y40.128 Z-3.162 I-0.567 J-0.421
X-150.789 Y40.97 Z-3.372 I0.567 J0.421
X-151.923 Y40.128 Z-3.583 I-0.567 J-0.421
X-150.789 Y40.97 Z-3.794 I0.567 J0.421
X-151.923 Y40.128 Z-4.005 I-0.567 J-0.421
X-150.789 Y40.97 Z-4.216 I0.567 J0.421
X-151.935 Y40.954 Z-4.343 I-0.567 J-0.421
X-150.777 Y40.144 I0.579 J-0.405
X-151.935 Y40.954 I-0.579 J0.405
G1 X-151.956 Y40.909
X-151.963 Y40.86
X-151.955 Y40.811
X-151.931 Y40.767
X-151.896 Y40.733
X-151.831 Y40.687
X-151.79 Y40.659 Z-4.335
X-151.754 Y40.634 Z-4.312
X-151.725 Y40.614 Z-4.277
X-151.707 Y40.601 Z-4.233
X-151.701 Y40.596 Z-4.184
G0 Z5
X-146.844 Y34.983
Z1.157
G1 Z-0.684 F400
X-146.838 Y34.987 Z-0.733
X-146.82 Y35.001 Z-0.777
X-146.791 Y35.022 Z-0.812
X-146.756 Y35.048 Z-0.835
X-146.716 Y35.077 Z-0.843
X-146.653 Y35.125
X-146.618 Y35.16
X-146.596 Y35.204
X-146.588 Y35.254
X-146.597 Y35.303
X-146.62 Y35.347
G3 X-147.754 Y34.505 Z-1.053 I-0.567 J-0.421
X-146.62 Y35.347 Z-1.264 I0.567 J0.421
X-147.754 Y34.505 Z-1.475 I-0.567 J-0.421
X-146.62 Y35.347 Z-1.686 I0.567 J0.421
X-147.754 Y34.505 Z-1.897 I-0.567 J-0.421
X-146.62 Y35.347 Z-2.107 I0.567 J0.421
X-147.754 Y34.505 Z-2.318 I-0.567 J-0.421
X-146.62 Y35.347 Z-2.529 I0.567 J0.421
X-147.754 Y34.505 Z-2.74 I-0.567 J-0.421
X-146.62 Y35.347 Z-2.951 I0.567 J0.421
X-147.754 Y34.505 Z-3.162 I-0.567 J-0.421
X-146.62 Y35.347 Z-3.372 I0.567 J0.421
X-147.754 Y34.505 Z-3.583 I-0.567 J-0.421
X-146.62 Y35.347 Z-3.794 I0.567 J0.421
X-147.754 Y34.505 Z-4.005 I-0.567 J-0.421
X-146.62 Y35.347 Z-4.216 I0.567 J0.421
X-147.766 Y35.331 Z-4.343 I-0.567 J-0.421
X-146.608 Y34.521 I0.579 J-0.405
X-147.766 Y35.331 I-0.579 J0.405
G1 X-147.787 Y35.286
X-147.794 Y35.237
X-147.786 Y35.188
X-147.762 Y35.144
X-147.727 Y35.11
X-147.662 Y35.064
X-147.621 Y35.036 Z-4.335
X-147.585 Y35.011 Z-4.312
X-147.556 Y34.991 Z-4.277
X-147.538 Y34.978 Z-4.233
X-147.531 Y34.973 Z-4.184
G0 Z5
X-165.808 Y25.404
Z1.157
G1 Z-0.684 F400
X-165.802 Y25.408 Z-0.733
X-165.784 Y25.422 Z-0.777
X-165.756 Y25.443 Z-0.812
X-165.72 Y25.469 Z-0.835
X-165.681 Y25.498 Z-0.843
X-165.617 Y25.546
X-165.582 Y25.581
X-165.56 Y25.625
X-165.553 Y25.675
X-165.561 Y25.724
X-165.584 Y25.768
G3 X-166.718 Y24.926 Z-1.053 I-0.567 J-0.421
X-165.584 Y25.768 Z-1.264 I0.567 J0.421
X-166.718 Y24.926 Z-1.475 I-0.567 J-0.421
X-165.584 Y25.768 Z-1.686 I0.567 J0.421
X-166.718 Y24.926 Z-1.897 I-0.567 J-0.421
X-165.584 Y25.768 Z-2.107 I0.567 J0.421
X-166.718 Y24.926 Z-2.318 I-0.567 J-0.421
X-165.584 Y25.768 Z-2.529 I0.567 J0.421
X-166.718 Y24.926 Z-2.74 I-0.567 J-0.421
X-165.584 Y25.768 Z-2.951 I0.567 J0.421
X-166.718 Y24.926 Z-3.162 I-0.567 J-0.421
X-165.584 Y25.768 Z-3.372 I0.567 J0.421
X-166.718 Y24.926 Z-3.583 I-0.567 J-0.421
X-165.584 Y25.768 Z-3.794 I0.567 J0.421
X-166.718 Y24.926 Z-4.005 I-0.567 J-0.421
X-165.584 Y25.768 Z-4.216 I0.567 J0.421
X-166.73 Y25.752 Z-4.343 I-0.567 J-0.421
X-165.572 Y24.942 I0.579 J-0.405
X-166.73 Y25.752 I-0.579 J0.405
G1 X-166.752 Y25.707
X-166.758 Y25.658
X-166.75 Y25.609
X-166.727 Y25.565
X-166.691 Y25.531
X-166.626 Y25.485
X-166.586 Y25.457 Z-4.335
X-166.549 Y25.432 Z-4.312
X-166.521 Y25.412 Z-4.277
X-166.502 Y25.399 Z-4.233
X-166.496 Y25.394 Z-4.184
G0 Z5
X-161.639 Y19.781
Z1.157
G1 Z-0.684 F400
X-161.633 Y19.785 Z-0.733
X-161.615 Y19.799 Z-0.777
X-161.587 Y19.82 Z-0.812
X-161.551 Y19.846 Z-0.835
X-161.512 Y19.875 Z-0.843
X-161.448 Y19.922
X-161.413 Y19.958
X-161.391 Y20.002
X-161.384 Y20.052
X-161.392 Y20.1
X-161.415 Y20.145
G3 X-162.549 Y19.303 Z-1.053 I-0.567 J-0.421
X-161.415 Y20.145 Z-1.264 I0.567 J0.421
X-162.549 Y19.303 Z-1.475 I-0.567 J-0.421
X-161.415 Y20.145 Z-1.686 I0.567 J0.421
X-162.549 Y19.303 Z-1.897 I-0.567 J-0.421
X-161.415 Y20.145 Z-2.107 I0.567 J0.421
X-162.549 Y19.303 Z-2.318 I-0.567 J-0.421
X-161.415 Y20.145 Z-2.529 I0.567 J0.421
X-162.549 Y19.303 Z-2.74 I-0.567 J-0.421
X-161.415 Y20.145 Z-2.951 I0.567 J0.421
X-162.549 Y19.303 Z-3.162 I-0.567 J-0.421
X-161.415 Y20.145 Z-3.372 I0.567 J0.421
X-162.549 Y19.303 Z-3.583 I-0.567 J-0.421
X-161.415 Y20.145 Z-3.794 I0.567 J0.421
X-162.549 Y19.303 Z-4.005 I-0.567 J-0.421
X-161.415 Y20.145 Z-4.216 I0.567 J0.421
X-162.561 Y20.129 Z-4.343 I-0.567 J-0.421
X-161.403 Y19.319 I0.579 J-0.405
X-162.561 Y20.129 I-0.579 J0.405
G1 X-162.583 Y20.084
X-162.589 Y20.035
X-162.581 Y19.986
X-162.557 Y19.942
X-162.522 Y19.908
X-162.457 Y19.862
X-162.417 Y19.834 Z-4.335
X-162.38 Y19.809 Z-4.312
X-162.351 Y19.789 Z-4.277
X-162.333 Y19.776 Z-4.233
X-162.327 Y19.771 Z-4.184
G0 Z5
X-55.038 Y77.268
Z1.5
G1 Z-0.341 F400
Y77.26 Z-0.39
Y77.238 Z-0.435
Y77.203 Z-0.47
Y77.158 Z-0.492
Y77.109 Z-0.5
Y77.03
X-55.03 Y76.981
X-55.008 Y76.937
X-54.973 Y76.902
X-54.928 Y76.879
X-54.879 Y76.871
G3 Y78.283 Z-0.711 I0 J0.706
Y76.871 Z-0.922 I0 J-0.706
Y78.283 Z-1.132 I0 J0.706
Y76.871 Z-1.343 I0 J-0.706
Y78.283 Z-1.554 I0 J0.706
Y76.871 Z-1.765 I0 J-0.706
Y78.283 Z-1.976 I0 J0.706
Y76.871 Z-2.186 I0 J-0.706
Y78.283 Z-2.397 I0 J0.706
Y76.871 Z-2.608 I0 J-0.706
Y78.283 Z-2.819 I0 J0.706
Y76.871 Z-3.03 I0 J-0.706
Y78.283 Z-3.241 I0 J0.706
Y76.871 Z-3.451 I0 J-0.706
Y78.283 Z-3.662 I0 J0.706
Y76.871 Z-3.873 I0 J-0.706
X-54.209 Y77.801 Z-4 I0 J0.706
X-55.549 Y77.354 I-0.67 J-0.224
X-54.209 Y77.801 I0.67 J0.223
G1 X-54.232 Y77.845
X-54.268 Y77.88
X-54.312 Y77.902
X-54.361 Y77.91
X-54.41 Y77.901
X-54.486 Y77.876
X-54.532 Y77.861 Z-3.992
X-54.574 Y77.847 Z-3.97
X-54.607 Y77.836 Z-3.935
X-54.629 Y77.828 Z-3.89
X-54.636 Y77.826 Z-3.841
G0 Z5
X-48.038 Y77.268
Z1.5
G1 Z-0.341 F400
Y77.26 Z-0.39
Y77.238 Z-0.435
Y77.203 Z-0.47
Y77.158 Z-0.492
Y77.109 Z-0.5
Y77.03
X-48.03 Y76.981
X-48.008 Y76.937
X-47.973 Y76.902
X-47.928 Y76.879
X-47.879 Y76.871
G3 Y78.283 Z-0.711 I0 J0.706
Y76.871 Z-0.922 I0 J-0.706
Y78.283 Z-1.132 I0 J0.706
Y76.871 Z-1.343 I0 J-0.706
Y78.283 Z-1.554 I0 J0.706
Y76.871 Z-1.765 I0 J-0.706
Y78.283 Z-1.976 I0 J0.706
Y76.871 Z-2.186 I0 J-0.706
Y78.283 Z-2.397 I0 J0.706
Y76.871 Z-2.608 I0 J-0.706
Y78.283 Z-2.819 I0 J0.706
Y76.871 Z-3.03 I0 J-0.706
Y78.283 Z-3.241 I0 J0.706
Y76.871 Z-3.451 I0 J-0.706
Y78.283 Z-3.662 I0 J0.706
Y76.871 Z-3.873 I0 J-0.706
X-47.209 Y77.801 Z-4 I0 J0.706
X-48.549 Y77.354 I-0.67 J-0.224
X-47.209 Y77.801 I0.67 J0.223
G1 X-47.232 Y77.845
X-47.268 Y77.88
X-47.312 Y77.902
X-47.361 Y77.91
X-47.41 Y77.901
X-47.486 Y77.876
X-47.532 Y77.861 Z-3.992
X-47.574 Y77.847 Z-3.97
X-47.607 Y77.836 Z-3.935
X-47.629 Y77.828 Z-3.89
X-47.636 Y77.826 Z-3.841
G0 Z5
X-15.368 Y77.168
Z1.5
G1 Z-0.341 F400
Y77.16 Z-0.39
Y77.138 Z-0.435
Y77.103 Z-0.47
Y77.058 Z-0.492
Y77.009 Z-0.5
Y76.93
X-15.36 Y76.881
X-15.338 Y76.837
X-15.303 Y76.802
X-15.258 Y76.779
X-15.209 Y76.771
G3 Y78.383 Z-0.725 I0 J0.806
Y76.771 Z-0.95 I0 J-0.806
Y78.383 Z-1.175 I0 J0.806
Y76.771 Z-1.399 I0 J-0.806
Y78.383 Z-1.624 I0 J0.806
Y76.771 Z-1.849 I0 J-0.806
Y78.383 Z-2.074 I0 J0.806
Y76.771 Z-2.299 I0 J-0.806
Y78.383 Z-2.524 I0 J0.806
Y76.771 Z-2.749 I0 J-0.806
Y78.383 Z-2.974 I0 J0.806
Y76.771 Z-3.198 I0 J-0.806
Y78.383 Z-3.423 I0 J0.806
Y76.771 Z-3.648 I0 J-0.806
Y78.383 Z-3.873 I0 J0.806
X-15.998 Y77.414 Z-4 I0 J-0.806
X-14.42 Y77.741 I0.789 J0.163
X-15.998 Y77.414 I-0.789 J-0.164
G1 X-15.981 Y77.368
X-15.95 Y77.329
X-15.909 Y77.302
X-15.861 Y77.289
X-15.811 Y77.291
X-15.734 Y77.307
X-15.685 Y77.317 Z-3.992
X-15.642 Y77.326 Z-3.97
X-15.608 Y77.333 Z-3.935
X-15.586 Y77.338 Z-3.89
X-15.578 Y77.339 Z-3.841
G0 Z5
X-10.076 Y63.245
Z1.5
G1 Z-0.341 F400
Y63.253 Z-0.39
Y63.276 Z-0.435
Y63.311 Z-0.47
Y63.355 Z-0.492
Y63.404 Z-0.5
Y63.484
X-10.084 Y63.533
X-10.107 Y63.577
X-10.142 Y63.612
X-10.186 Y63.635
X-10.235 Y63.642
G3 Y62.13 Z-0.718 I0 J-0.756
Y63.642 Z-0.936 I0 J0.756
Y62.13 Z-1.154 I0 J-0.756
Y63.642 Z-1.371 I0 J0.756
Y62.13 Z-1.589 I0 J-0.756
Y63.642 Z-1.807 I0 J0.756
Y62.13 Z-2.025 I0 J-0.756
Y63.642 Z-2.243 I0 J0.756
Y62.13 Z-2.461 I0 J-0.756
Y63.642 Z-2.678 I0 J0.756
Y62.13 Z-2.896 I0 J-0.756
Y63.642 Z-3.114 I0 J0.756
Y62.13 Z-3.332 I0 J-0.756
Y63.642 Z-3.55 I0 J0.756
Y62.13 Z-3.768 I0 J-0.756
X-9.483 Y62.965 Z-3.884 I0 J0.756
X-10.393 Y63.625 Z-4 I-0.752 J-0.079
X-10.077 Y62.147 I0.158 J-0.739
X-10.393 Y63.625 I-0.158 J0.739
G1 X-10.439 Y63.608
X-10.478 Y63.577
X-10.505 Y63.535
X-10.518 Y63.487
X-10.515 Y63.437
X-10.499 Y63.36
X-10.488 Y63.312 Z-3.992
X-10.479 Y63.268 Z-3.97
X-10.472 Y63.234 Z-3.935
X-10.467 Y63.212 Z-3.89
X-10.465 Y63.204 Z-3.841
G0 Z5
X-9.841 Y35.44
Z1.5
G1 Z-0.341 F400
Y35.447 Z-0.39
Y35.47 Z-0.435
Y35.505 Z-0.47
Y35.549 Z-0.492
Y35.598 Z-0.5
Y35.678
X-9.849 Y35.727
X-9.872 Y35.771
X-9.907 Y35.806
X-9.951 Y35.829
X-10 Y35.837
G3 Y34.323 Z-0.718 I0 J-0.757
Y35.837 Z-0.936 I0 J0.757
Y34.323 Z-1.154 I0 J-0.757
Y35.837 Z-1.371 I0 J0.757
Y34.323 Z-1.589 I0 J-0.757
Y35.837 Z-1.807 I0 J0.757
Y34.323 Z-2.025 I0 J-0.757
Y35.837 Z-2.243 I0 J0.757
Y34.323 Z-2.461 I0 J-0.757
Y35.837 Z-2.678 I0 J0.757
Y34.323 Z-2.896 I0 J-0.757
Y35.837 Z-3.114 I0 J0.757
Y34.323 Z-3.332 I0 J-0.757
Y35.837 Z-3.55 I0 J0.757
Y34.323 Z-3.768 I0 J-0.757
X-9.247 Y35.16 Z-3.884 I0 J0.757
X-10.158 Y35.821 Z-4 I-0.753 J-0.08
X-9.842 Y34.339 I0.158 J-0.741
X-10.158 Y35.821 I-0.158 J0.741
G1 X-10.204 Y35.802
X-10.243 Y35.771
X-10.27 Y35.729
X-10.283 Y35.681
X-10.28 Y35.631
X-10.263 Y35.554
X-10.253 Y35.506 Z-3.992
X-10.244 Y35.463 Z-3.97
X-10.237 Y35.428 Z-3.935
X-10.232 Y35.406 Z-3.89
X-10.23 Y35.399 Z-3.841
G0 Z15

(2D Contour2)
G0 X-3.394 Y69.156
Z15
Z5
G1 Z0.317 F133.33
Z-1.341
Y69.148 Z-1.39 F400
Y69.126 Z-1.435
Y69.091 Z-1.47
Y69.046 Z-1.492
Y68.997 Z-1.5
Y68.839
X-3.386 Y68.79
X-3.364 Y68.745
X-3.328 Y68.71
X-3.284 Y68.688
X-3.235 Y68.68
G2 X0.559 Y64.886 I0 J-3.794
G1 Y60.886
G2 X-3.235 Y57.092 I-3.794 J0
G1 X-105.826
G2 X-126.753 Y67.806 I0 J25.794
G1 X-197.276 Y165.672
G2 X-196.632 Y166.93 I0.644 J0.464
G1 X-184.306
G2 X-183.662 Y166.6 I0 J-0.794
G1 X-120.344 Y78.734
G3 X-100.706 Y68.68 I19.638 J14.152
G1 X-3.235
X-3.186 Y68.688
X-3.142 Y68.71
X-3.107 Y68.745
X-3.084 Y68.79
X-3.076 Y68.839
Y68.997
Y69.046 Z-1.492
Y69.091 Z-1.47
Y69.126 Z-1.435
Y69.148 Z-1.39
Y69.156 Z-1.341
G0 Z5
X-3.394
G1 Z-1.183 F133.33
Z-2.841
Y69.148 Z-2.89 F400
Y69.126 Z-2.935
Y69.091 Z-2.97
Y69.046 Z-2.992
Y68.997 Z-3
Y68.839
X-3.386 Y68.79
X-3.364 Y68.745
X-3.328 Y68.71
X-3.284 Y68.688
X-3.235 Y68.68
G2 X0.559 Y64.886 I0 J-3.794
G1 Y60.886
G2 X-3.235 Y57.092 I-3.794 J0
G1 X-89.458
Z-2
X-96.045
Z-3 F133.33
X-105.826 F400
G2 X-126.753 Y67.806 I0 J25.794
G1 X-159.374 Y113.076
Z-2
X-163.225 Y118.42
Z-3 F133.33
X-197.276 Y165.672 F400
G2 X-196.632 Y166.93 I0.644 J0.464
G1 X-184.306
G2 X-183.662 Y166.6 I0 J-0.794
G1 X-179.541 Y160.881
Z-2
X-175.69 Y155.537
Z-3 F133.33
X-136.871 Y101.669 F400
Z-2
X-133.02 Y96.325
Z-3 F133.33
X-120.344 Y78.734 F400
G3 X-100.706 Y68.68 I19.638 J14.152
G1 X-52.9
Z-2
X-46.312
Z-3 F133.33
X-3.235 F400
X-3.186 Y68.688
X-3.142 Y68.71
X-3.107 Y68.745
X-3.084 Y68.79
X-3.076 Y68.839
Y68.997
Y69.046 Z-2.992
Y69.091 Z-2.97
Y69.126 Z-2.935
Y69.148 Z-2.89
Y69.156 Z-2.841
G0 Z5
X-3.394
G1 Z-2.682 F133.33
Z-3.841
Y69.148 Z-3.89 F400
Y69.126 Z-3.935
Y69.091 Z-3.97
Y69.046 Z-3.992
Y68.997 Z-4
Y68.839
X-3.386 Y68.79
X-3.364 Y68.745
X-3.328 Y68.71
X-3.284 Y68.688
X-3.235 Y68.68
G2 X0.559 Y64.886 I0 J-3.794
G1 Y60.886
G2 X-3.235 Y57.092 I-3.794 J0
G1 X-89.458
Z-2
X-96.045
Z-4 F133.33
X-105.826 F400
G2 X-126.753 Y67.806 I0 J25.794
G1 X-159.374 Y113.076
Z-2
X-163.225 Y118.42
Z-4 F133.33
X-197.276 Y165.672 F400
G2 X-196.632 Y166.93 I0.644 J0.464
G1 X-184.306
G2 X-183.662 Y166.6 I0 J-0.794
G1 X-179.541 Y160.881
Z-2
X-175.69 Y155.537
Z-4 F133.33
X-136.871 Y101.669 F400
Z-2
X-133.02 Y96.325
Z-4 F133.33
X-120.344 Y78.734 F400
G3 X-100.706 Y68.68 I19.638 J14.152
G1 X-52.9
Z-2
X-46.312
Z-4 F133.33
X-3.235 F400
X-3.186 Y68.688
X-3.142 Y68.71
X-3.107 Y68.745
X-3.084 Y68.79
X-3.076 Y68.839
Y68.997
Y69.046 Z-3.992
Y69.091 Z-3.97
Y69.126 Z-3.935
Y69.148 Z-3.89
Y69.156 Z-3.841
G0 Z5
X-59.149 Y72.419
G1 Z0.317 F133.33
Z-1.341
X-59.142 Z-1.39 F400
X-59.119 Z-1.435
X-59.084 Z-1.47
X-59.04 Z-1.492
X-58.991 Z-1.5
X-58.832
X-58.783 Y72.427
X-58.738 Y72.449
X-58.703 Y72.484
X-58.681 Y72.528
X-58.673 Y72.577
Y82.577
G2 X-57.879 Y83.371 I0.794 J0
G1 X-8.209
G2 X-4.415 Y79.577 I0 J-3.794
G1 X-4.416 Y75.577
G2 X-8.209 Y71.784 I-3.793 J0
G1 X-57.879
G2 X-58.672 Y72.577 I0 J0.793
G1 X-58.681 Y72.627
X-58.703 Y72.671
X-58.738 Y72.706
X-58.783 Y72.728
X-58.832 Y72.736
X-58.991
X-59.04 Z-1.492
X-59.084 Z-1.47
X-59.119 Z-1.435
X-59.142 Z-1.39
X-59.149 Z-1.341
G0 Z5
Y72.419
G1 Z-1.183 F133.33
Z-2.841
X-59.142 Z-2.89 F400
X-59.119 Z-2.935
X-59.084 Z-2.97
X-59.04 Z-2.992
X-58.991 Z-3
X-58.832
X-58.783 Y72.427
X-58.738 Y72.449
X-58.703 Y72.484
X-58.681 Y72.528
X-58.673 Y72.577
Y82.577
G2 X-57.879 Y83.371 I0.794 J0
G1 X-19.871
Z-2
X-13.283
Z-3 F133.33
X-8.209 F400
G2 X-4.415 Y79.577 I0 J-3.794
G1 X-4.416 Y75.577
G2 X-8.209 Y71.784 I-3.793 J0
G1 X-41.942
Z-2
X-48.53
Z-3 F133.33
X-57.879 F400
G2 X-58.672 Y72.577 I0 J0.793
G1 X-58.681 Y72.627
X-58.703 Y72.671
X-58.738 Y72.706
X-58.783 Y72.728
X-58.832 Y72.736
X-58.991
X-59.04 Z-2.992
X-59.084 Z-2.97
X-59.119 Z-2.935
X-59.142 Z-2.89
X-59.149 Z-2.841
G0 Z5
Y72.419
G1 Z-2.682 F133.33
Z-3.841
X-59.142 Z-3.89 F400
X-59.119 Z-3.935
X-59.084 Z-3.97
X-59.04 Z-3.992
X-58.991 Z-4
X-58.832
X-58.783 Y72.427
X-58.738 Y72.449
X-58.703 Y72.484
X-58.681 Y72.528
X-58.673 Y72.577
Y82.577
G2 X-57.879 Y83.371 I0.794 J0
G1 X-19.871
Z-2
X-13.283
Z-4 F133.33
X-8.209 F400
G2 X-4.415 Y79.577 I0 J-3.794
G1 X-4.416 Y75.577
G2 X-8.209 Y71.784 I-3.793 J0
G1 X-41.942
Z-2
X-48.53
Z-4 F133.33
X-57.879 F400
G2 X-58.672 Y72.577 I0 J0.793
G1 X-58.681 Y72.627
X-58.703 Y72.671
X-58.738 Y72.706
X-58.783 Y72.728
X-58.832 Y72.736
X-58.991
X-59.04 Z-3.992
X-59.084 Z-3.97
X-59.119 Z-3.935
X-59.142 Z-3.89
X-59.149 Z-3.841
G0 Z5
X-2.841 Y28.81
G1 Z0.317 F133.33
Z-1.341
Y28.818 Z-1.39 F400
Y28.841 Z-1.435
Y28.876 Z-1.47
Y28.92 Z-1.492
Y28.969 Z-1.5
Y29.128
X-2.849 Y29.177
X-2.872 Y29.221
X-2.907 Y29.256
X-2.951 Y29.279
X-3 Y29.287
X-105.59
G2 X-126.516 Y40.001 I0 J25.794
G1 X-197.041 Y137.866
G2 X-196.397 Y139.124 I0.644 J0.464
G1 X-184.071
G2 X-183.427 Y138.794 I0 J-0.794
G1 X-120.109 Y50.929
G3 X-100.471 Y40.875 I19.638 J14.151
G1 X-3 Y40.874
G2 X0.794 Y37.08 I0 J-3.794
G1 Y33.08
G2 X-3 Y29.286 I-3.794 J0
G1 X-3.049 Y29.279
X-3.093 Y29.256
X-3.128 Y29.221
X-3.151 Y29.177
X-3.159 Y29.128
Y28.969
Y28.92 Z-1.492
Y28.876 Z-1.47
Y28.841 Z-1.435
Y28.818 Z-1.39
Y28.81 Z-1.341
G0 Z5
X-2.841
G1 Z-1.183 F133.33
Z-2.841
Y28.818 Z-2.89 F400
Y28.841 Z-2.935
Y28.876 Z-2.97
Y28.92 Z-2.992
Y28.969 Z-3
Y29.128
X-2.849 Y29.177
X-2.872 Y29.221
X-2.907 Y29.256
X-2.951 Y29.279
X-3 Y29.287
X-105.59
G2 X-126.516 Y40.001 I0 J25.794
G1 X-144.451 Y64.887
Z-2
X-148.302 Y70.231
Z-3 F133.33
X-197.041 Y137.866 F400
G2 X-196.397 Y139.124 I0.644 J0.464
G1 X-184.071
G2 X-183.427 Y138.794 I0 J-0.794
G1 X-178.141 Y131.459
Z-2
X-174.29 Y126.115
Z-3 F133.33
X-154.724 Y98.963 F400
Z-2
X-150.873 Y93.619
Z-3 F133.33
X-120.109 Y50.929 F400
G3 X-100.471 Y40.875 I19.638 J14.151
G1 X-51.405 Y40.874
Z-2
X-44.817
Z-3 F133.33
X-3 F400
G2 X0.794 Y37.08 I0 J-3.794
G1 Y33.08
G2 X-3 Y29.286 I-3.794 J0
G1 X-3.049 Y29.279
X-3.093 Y29.256
X-3.128 Y29.221
X-3.151 Y29.177
X-3.159 Y29.128
Y28.969
Y28.92 Z-2.992
Y28.876 Z-2.97
Y28.841 Z-2.935
Y28.818 Z-2.89
Y28.81 Z-2.841
G0 Z5
X-2.841
G1 Z-2.682 F133.33
Z-3.841
Y28.818 Z-3.89 F400
Y28.841 Z-3.935
Y28.876 Z-3.97
Y28.92 Z-3.992
Y28.969 Z-4
Y29.128
X-2.849 Y29.177
X-2.872 Y29.221
X-2.907 Y29.256
X-2.951 Y29.279
X-3 Y29.287
X-105.59
G2 X-126.516 Y40.001 I0 J25.794
G1 X-144.451 Y64.887
Z-2
X-148.302 Y70.231
Z-4 F133.33
X-197.041 Y137.866 F400
G2 X-196.397 Y139.124 I0.644 J0.464
G1 X-184.071
G2 X-183.427 Y138.794 I0 J-0.794
G1 X-178.141 Y131.459
Z-2
X-174.29 Y126.115
Z-4 F133.33
X-154.724 Y98.963 F400
Z-2
X-150.873 Y93.619
Z-4 F133.33
X-120.109 Y50.929 F400
G3 X-100.471 Y40.875 I19.638 J14.151
G1 X-51.405 Y40.874
Z-2
X-44.817
Z-4 F133.33
X-3 F400
G2 X0.794 Y37.08 I0 J-3.794
G1 Y33.08
G2 X-3 Y29.286 I-3.794 J0
G1 X-3.049 Y29.279
X-3.093 Y29.256
X-3.128 Y29.221
X-3.151 Y29.177
X-3.159 Y29.128
Y28.969
Y28.92 Z-3.992
Y28.876 Z-3.97
Y28.841 Z-3.935
Y28.818 Z-3.89
Y28.81 Z-3.841
G0 Z5
X-197.616 Y50.675
G1 Z0.317 F133.33
Z-1.341
Y50.683 Z-1.39 F400
Y50.705 Z-1.435
X-197.615 Y50.74 Z-1.47
X-197.614 Y50.784 Z-1.492
X-197.613 Y50.834 Z-1.5
X-197.609 Y50.992
X-197.616 Y51.041
X-197.637 Y51.086
X-197.671 Y51.122
X-197.715 Y51.146
X-197.764 Y51.155
G2 X-198.539 Y51.948 I0.018 J0.793
G1 X-198.54 Y61.948
G2 X-197.746 Y62.742 I0.794 J0
G1 X-148.076
G2 X-144.282 Y58.948 I0 J-3.794
G1 Y54.948
G2 X-148.076 Y51.154 I-3.794 J0
G1 X-197.746
X-197.764 Y51.155
X-197.813 Y51.148
X-197.858 Y51.126
X-197.894 Y51.092
X-197.918 Y51.048
X-197.926 Y50.999
X-197.93 Y50.841
X-197.931 Y50.792 Z-1.492
X-197.932 Y50.747 Z-1.47
X-197.933 Y50.712 Z-1.435
Y50.69 Z-1.39
X-197.934 Y50.682 Z-1.341
G0 Z5
X-197.616 Y50.675
G1 Z-1.183 F133.33
Z-2.841
Y50.683 Z-2.89 F400
Y50.705 Z-2.935
X-197.615 Y50.74 Z-2.97
X-197.614 Y50.784 Z-2.992
X-197.613 Y50.834 Z-3
X-197.609 Y50.992
X-197.616 Y51.041
X-197.637 Y51.086
X-197.671 Y51.122
X-197.715 Y51.146
X-197.764 Y51.155
G2 X-198.539 Y51.948 I0.018 J0.793
G1 X-198.54 Y61.948
G2 X-197.746 Y62.742 I0.794 J0
G1 X-158.717
Z-2
X-152.129
Z-3 F133.33
X-148.076 F400
G2 X-144.282 Y58.948 I0 J-3.794
G1 Y54.948
G2 X-148.076 Y51.154 I-3.794 J0
G1 X-185.827
Z-2
X-192.415
Z-3 F133.33
X-197.746 F400
X-197.764 Y51.155
X-197.813 Y51.148
X-197.858 Y51.126
X-197.894 Y51.092
X-197.918 Y51.048
X-197.926 Y50.999
X-197.93 Y50.841
X-197.931 Y50.792 Z-2.992
X-197.932 Y50.747 Z-2.97
X-197.933 Y50.712 Z-2.935
Y50.69 Z-2.89
X-197.934 Y50.682 Z-2.841
G0 Z5
X-197.616 Y50.675
G1 Z-2.682 F133.33
Z-3.841
Y50.683 Z-3.89 F400
Y50.705 Z-3.935
X-197.615 Y50.74 Z-3.97
X-197.614 Y50.784 Z-3.992
X-197.613 Y50.834 Z-4
X-197.609 Y50.992
X-197.616 Y51.041
X-197.637 Y51.086
X-197.671 Y51.122
X-197.715 Y51.146
X-197.764 Y51.155
G2 X-198.539 Y51.948 I0.018 J0.793
G1 X-198.54 Y61.948
G2 X-197.746 Y62.742 I0.794 J0
G1 X-158.717
Z-2
X-152.129
Z-4 F133.33
X-148.076 F400
G2 X-144.282 Y58.948 I0 J-3.794
G1 Y54.948
G2 X-148.076 Y51.154 I-3.794 J0
G1 X-185.827
Z-2
X-192.415
Z-4 F133.33
X-197.746 F400
X-197.764 Y51.155
X-197.813 Y51.148
X-197.858 Y51.126
X-197.894 Y51.092
X-197.918 Y51.048
X-197.926 Y50.999
X-197.93 Y50.841
X-197.931 Y50.792 Z-3.992
X-197.932 Y50.747 Z-3.97
X-197.933 Y50.712 Z-3.935
Y50.69 Z-3.89
X-197.934 Y50.682 Z-3.841
G0 Z15
X-147.21 Y24.429
Z5
G1 Z0.317 F133.33
Z-1.341
X-147.203 Y24.433 Z-1.39 F400
X-147.185 Y24.447 Z-1.435
X-147.157 Y24.468 Z-1.47
X-147.122 Y24.494 Z-1.492
X-147.082 Y24.523 Z-1.5
X-146.955 Y24.618
X-146.92 Y24.653
X-146.898 Y24.698
X-146.89 Y24.747
X-146.899 Y24.796
X-146.922 Y24.84
X-157.797 Y39.508
G2 X-157.632 Y40.619 I0.638 J0.473
G1 X-149.599 Y46.574
G2 X-148.489 Y46.409 I0.473 J-0.637
G1 X-140.662 Y35.854
G3 X-120.89 Y26.067 I19.444 J14.416
G1 X-12.596 Y27.535
G2 X-11.949 Y27.214 I0.01 J-0.793
G1 X-4.607 Y17.313
G2 X-5.234 Y16.046 I-0.638 J-0.473
G1 X-125.851 Y14.411
G2 X-146.922 Y24.84 I-0.351 J25.791
G1 X-146.957 Y24.875
X-147.002 Y24.897
X-147.051 Y24.904
X-147.1 Y24.896
X-147.144 Y24.873
X-147.271 Y24.778
X-147.311 Y24.749 Z-1.492
X-147.346 Y24.723 Z-1.47
X-147.374 Y24.702 Z-1.435
X-147.392 Y24.688 Z-1.39
X-147.399 Y24.684 Z-1.341
G0 Z5
X-147.21 Y24.429
G1 Z-1.183 F133.33
Z-2.841
X-147.203 Y24.433 Z-2.89 F400
X-147.185 Y24.447 Z-2.935
X-147.157 Y24.468 Z-2.97
X-147.122 Y24.494 Z-2.992
X-147.082 Y24.523 Z-3
X-146.955 Y24.618
X-146.92 Y24.653
X-146.898 Y24.698
X-146.89 Y24.747
X-146.899 Y24.796
X-146.922 Y24.84
X-157.797 Y39.508
G2 X-157.632 Y40.619 I0.638 J0.473
G1 X-156.111 Y41.746
Z-2.343
X-150.82 Y45.669
Z-3 F133.33
X-149.599 Y46.574 F400
G2 X-148.489 Y46.409 I0.473 J-0.637
G1 X-140.662 Y35.854
G3 X-120.89 Y26.067 I19.444 J14.416
G1 X-75.268 Y26.685
Z-2.343
X-68.681 Y26.775
Z-3 F133.33
X-12.596 Y27.535 F400
G2 X-11.949 Y27.214 I0.01 J-0.793
G1 X-10.217 Y24.88
Z-2.343
X-6.294 Y19.588
Z-3 F133.33
X-4.607 Y17.313 F400
G2 X-5.234 Y16.046 I-0.638 J-0.473
G1 X-78.452 Y15.054
Z-2.343
X-85.039 Y14.964
Z-3 F133.33
X-125.851 Y14.411 F400
G2 X-146.922 Y24.84 I-0.351 J25.791
G1 X-146.957 Y24.875
X-147.002 Y24.897
X-147.051 Y24.904
X-147.1 Y24.896
X-147.144 Y24.873
X-147.271 Y24.778
X-147.311 Y24.749 Z-2.992
X-147.346 Y24.723 Z-2.97
X-147.374 Y24.702 Z-2.935
X-147.392 Y24.688 Z-2.89
X-147.399 Y24.684 Z-2.841
G0 Z5
X-147.21 Y24.429
G1 Z-2.682 F133.33
Z-4.184
X-147.203 Y24.433 Z-4.233 F400
X-147.185 Y24.447 Z-4.277
X-147.157 Y24.468 Z-4.312
X-147.122 Y24.494 Z-4.335
X-147.082 Y24.523 Z-4.343
X-146.955 Y24.618
X-146.92 Y24.653
X-146.898 Y24.698
X-146.89 Y24.747
X-146.899 Y24.796
X-146.922 Y24.84
X-157.797 Y39.508
G2 X-157.632 Y40.619 I0.638 J0.473
G1 X-156.111 Y41.746
Z-2.343
X-150.82 Y45.669
Z-4.343 F133.33
X-149.599 Y46.574 F400
G2 X-148.489 Y46.409 I0.473 J-0.637
G1 X-140.662 Y35.854
G3 X-120.89 Y26.067 I19.444 J14.416
G1 X-75.268 Y26.685
Z-2.343
X-68.681 Y26.775
Z-4.343 F133.33
X-12.596 Y27.535 F400
G2 X-11.949 Y27.214 I0.01 J-0.793
G1 X-10.217 Y24.88
Z-2.343
X-6.294 Y19.588
Z-4.343 F133.33
X-4.607 Y17.313 F400
G2 X-5.234 Y16.046 I-0.638 J-0.473
G1 X-78.452 Y15.054
Z-2.343
X-85.039 Y14.964
Z-4.343 F133.33
X-125.851 Y14.411 F400
G2 X-146.922 Y24.84 I-0.351 J25.791
G1 X-146.957 Y24.875
X-147.002 Y24.897
X-147.051 Y24.904
X-147.1 Y24.896
X-147.144 Y24.873
X-147.271 Y24.778
X-147.311 Y24.749 Z-4.335
X-147.346 Y24.723 Z-4.312
X-147.374 Y24.702 Z-4.277
X-147.392 Y24.688 Z-4.233
X-147.399 Y24.684 Z-4.184
G0 Z5
X-172.891 Y25.651
G1 Z0.317 F133.33
Z-1.341
X-172.886 Y25.645 Z-1.39 F400
X-172.872 Y25.627 Z-1.435
X-172.849 Y25.6 Z-1.47
X-172.821 Y25.566 Z-1.492
X-172.789 Y25.529 Z-1.5
X-172.687 Y25.407
X-172.65 Y25.375
X-172.604 Y25.355
X-172.555 Y25.351
X-172.506 Y25.362
X-172.464 Y25.387
X-172.427 Y25.416
X-164.395 Y31.372
G2 X-163.285 Y31.207 I0.473 J-0.637
G1 X-155.457 Y20.652
G3 X-135.685 Y10.865 I19.444 J14.416
G1 X-27.392 Y12.333
G2 X-26.744 Y12.012 I0.011 J-0.793
G1 X-19.402 Y2.111
G2 X-20.029 Y0.844 I-0.638 J-0.473
G1 X-140.646 Y-0.791
G2 X-161.717 Y9.638 I-0.351 J25.791
G1 X-172.592 Y24.306
G2 X-172.464 Y25.388 I0.638 J0.473
G1 X-172.431 Y25.425
X-172.412 Y25.471
X-172.407 Y25.52
X-172.418 Y25.568
X-172.444 Y25.611
X-172.546 Y25.733
X-172.577 Y25.77 Z-1.492
X-172.606 Y25.804 Z-1.47
X-172.628 Y25.831 Z-1.435
X-172.643 Y25.848 Z-1.39
X-172.648 Y25.854 Z-1.341
G0 Z5
X-172.891 Y25.651
G1 Z-1.183 F133.33
Z-2.841
X-172.886 Y25.645 Z-2.89 F400
X-172.872 Y25.627 Z-2.935
X-172.849 Y25.6 Z-2.97
X-172.821 Y25.566 Z-2.992
X-172.789 Y25.529 Z-3
X-172.687 Y25.407
X-172.65 Y25.375
X-172.604 Y25.355
X-172.555 Y25.351
X-172.506 Y25.362
X-172.464 Y25.387
X-172.427 Y25.416
X-171.276 Y26.269
Z-2.343
X-165.985 Y30.193
Z-3 F133.33
X-164.395 Y31.372 F400
G2 X-163.285 Y31.207 I0.473 J-0.637
G1 X-155.457 Y20.652
G3 X-135.685 Y10.865 I19.444 J14.416
G1 X-103.251 Y11.304
Z-2.343
X-96.664 Y11.394
Z-3 F133.33
X-27.392 Y12.333 F400
G2 X-26.744 Y12.012 I0.011 J-0.793
G1 X-24.634 Y9.167
Z-2.343
X-20.71 Y3.876
Z-3 F133.33
X-19.402 Y2.111 F400
G2 X-20.029 Y0.844 I-0.638 J-0.473
G1 X-130.176 Y-0.649
Z-2.343
X-136.763 Y-0.739
Z-3 F133.33
X-140.646 Y-0.791 F400
G2 X-161.717 Y9.638 I-0.351 J25.791
G1 X-172.592 Y24.306
G2 X-172.464 Y25.388 I0.638 J0.473
G1 X-172.431 Y25.425
X-172.412 Y25.471
X-172.407 Y25.52
X-172.418 Y25.568
X-172.444 Y25.611
X-172.546 Y25.733
X-172.577 Y25.77 Z-2.992
X-172.606 Y25.804 Z-2.97
X-172.628 Y25.831 Z-2.935
X-172.643 Y25.848 Z-2.89
X-172.648 Y25.854 Z-2.841
G0 Z5
X-172.891 Y25.651
G1 Z-2.682 F133.33
Z-4.184
X-172.886 Y25.645 Z-4.233 F400
X-172.872 Y25.627 Z-4.277
X-172.849 Y25.6 Z-4.312
X-172.821 Y25.566 Z-4.335
X-172.789 Y25.529 Z-4.343
X-172.687 Y25.407
X-172.65 Y25.375
X-172.604 Y25.355
X-172.555 Y25.351
X-172.506 Y25.362
X-172.464 Y25.387
X-172.427 Y25.416
X-171.276 Y26.269
Z-2.343
X-165.985 Y30.193
Z-4.343 F133.33
X-164.395 Y31.372 F400
G2 X-163.285 Y31.207 I0.473 J-0.637
G1 X-155.457 Y20.652
G3 X-135.685 Y10.865 I19.444 J14.416
G1 X-103.251 Y11.304
Z-2.343
X-96.664 Y11.394
Z-4.343 F133.33
X-27.392 Y12.333 F400
G2 X-26.744 Y12.012 I0.011 J-0.793
G1 X-24.634 Y9.167
Z-2.343
X-20.71 Y3.876
Z-4.343 F133.33
X-19.402 Y2.111 F400
G2 X-20.029 Y0.844 I-0.638 J-0.473
G1 X-130.176 Y-0.649
Z-2.343
X-136.763 Y-0.739
Z-4.343 F133.33
X-140.646 Y-0.791 F400
G2 X-161.717 Y9.638 I-0.351 J25.791
G1 X-172.592 Y24.306
G2 X-172.464 Y25.388 I0.638 J0.473
G1 X-172.431 Y25.425
X-172.412 Y25.471
X-172.407 Y25.52
X-172.418 Y25.568
X-172.444 Y25.611
X-172.546 Y25.733
X-172.577 Y25.77 Z-4.335
X-172.606 Y25.804 Z-4.312
X-172.628 Y25.831 Z-4.277
X-172.643 Y25.848 Z-4.233
X-172.648 Y25.854 Z-4.184
G0 Z15
G28 G91 Z0
G90
G28 G91 X0 Y0
G90
M30
%
